;FLAVOR:Marlin
;TIME:2796
;Filament used: 6.46782m
;Layer height: 0.3
;MINX:87.921
;MINY:61.627
;MINZ:0.1
;MAXX:117.036
;MAXY:143.421
;MAXZ:41.97
;Generated with Cura_SteamEngine 5.0.0
M140 S60
M105
M190 S60
M104 S230
M105
M109 S230
M82 ;absolute extrusion mode
G21 ;metric values
G90 ;absolute positioning
M82 ;set extruder to absolute mode
M107 ;start with the fan off

M206 X5 Y9 ;set home offsets

G28 X0 Y0 ;move X/Y to min endstops
G28 Z0 ;move Z to min endstops
G1 Z15.0 F9000 ;move the platform down 15mm
G92 E0 ;zero the extruded length
G1 F200 E3 ;extrude 3mm of feed stock
G92 E0 ;zero the extruded length again
G1 F9000

M301 D121.72 I2.14 P32.30

;Set max printing acceleration
M201 X100 Y100
;Set max travel acceleration
M202 X300 Y300
;Set max jerk
M556 X10 Y10
;Set max feedrate
M203 X1000 Y1000


;Put printing message on LCD screen
M117 Printing...
G92 E0
G92 E0
G1 F1500 E-2
;LAYER_COUNT:122
;LAYER:0
M107
G1 F600 Z1.1
G0 F3600 X89.59 Y64.666 Z1.1
G1 F600 Z0.1
G0 F3600 X88.593 Y67.045
G0 X87.922 Y69.486
;TYPE:SKIRT
G1 F1500 E0
G1 F3000 X87.945 Y68.907 E0.02385
G1 X88.011 Y68.337 E0.04747
G1 X88.118 Y67.765 E0.07142
G1 X88.267 Y67.211 E0.09503
G1 X88.457 Y66.664 E0.11887
G1 X88.684 Y66.138 E0.14245
G1 X88.95 Y65.623 E0.1663
G1 X89.253 Y65.133 E0.19002
G1 X89.59 Y64.666 E0.21372
G1 X89.961 Y64.224 E0.23747
G1 X90.365 Y63.81 E0.26128
G1 X90.798 Y63.426 E0.2851
G1 X91.253 Y63.079 E0.30865
G1 X91.737 Y62.761 E0.33249
G1 X92.244 Y62.479 E0.35637
G1 X92.763 Y62.24 E0.37989
G1 X93.308 Y62.034 E0.40387
G1 X93.859 Y61.871 E0.42752
G1 X94.422 Y61.749 E0.45123
G1 X94.996 Y61.666 E0.4751
G1 X95.57 Y61.627 E0.49878
G1 X96.146 Y61.629 E0.52249
G1 X96.723 Y61.674 E0.54631
G1 X97.294 Y61.762 E0.57009
G1 X97.854 Y61.89 E0.59373
G1 X98.408 Y62.058 E0.61756
G1 X98.943 Y62.267 E0.6412
G1 X99.465 Y62.514 E0.66497
G1 X99.968 Y62.799 E0.68876
G1 X100.449 Y63.121 E0.71259
G1 X100.901 Y63.474 E0.73619
G1 X101.33 Y63.861 E0.75997
G1 X101.73 Y64.279 E0.78379
G1 X102.096 Y64.724 E0.8075
G1 X102.43 Y65.196 E0.8313
G1 X102.726 Y65.687 E0.8549
G1 X102.838 Y65.905 E0.86499
G1 X103.004 Y65.285 E0.8914
G1 X103.214 Y64.76 E0.91468
G1 X103.651 Y63.987 E0.95123
G1 X103.994 Y63.535 E0.97458
G1 X104.621 Y62.908 E1.01108
G1 X105.068 Y62.567 E1.03422
G1 X105.837 Y62.128 E1.07066
G1 X106.364 Y61.915 E1.09406
G1 X107.227 Y61.697 E1.1307
G1 X107.787 Y61.633 E1.15389
G1 X108.753 Y61.661 E1.19367
G1 X109.622 Y61.838 E1.23017
G1 X110.155 Y62.023 E1.2534
G1 X110.95 Y62.426 E1.29008
G1 X111.412 Y62.746 E1.31321
G1 X112.067 Y63.342 E1.34966
G1 X112.433 Y63.78 E1.37316
G1 X112.904 Y64.526 E1.40947
G1 X113.137 Y65.041 E1.43273
G1 X113.394 Y65.888 E1.46917
G1 X113.489 Y66.488 E1.49417
G1 X117.036 Y97.327 E2.77185
G1 X117.027 Y97.595 E2.78289
G1 X116.939 Y97.847 E2.79388
G1 X116.781 Y98.063 E2.80489
G1 X116.567 Y98.223 E2.81589
G1 X116.245 Y98.324 E2.82978
G1 X113.243 Y98.671 E2.95416
G1 X112.607 Y98.799 E2.98086
G1 X111.957 Y99.046 E3.00948
G1 X111.379 Y99.385 E3.03706
G1 X110.863 Y99.814 E3.06468
G1 X110.419 Y100.326 E3.09258
G1 X110.07 Y100.897 E3.12012
G1 X109.816 Y101.53 E3.1482
G1 X109.67 Y102.192 E3.1761
G1 X109.638 Y102.905 E3.20547
G1 X109.663 Y103.24 E3.2193
G1 X112.076 Y124.229 E4.08889
G1 X112.334 Y124.708 E4.11128
G1 X112.64 Y125.356 E4.14077
G1 X112.908 Y126.018 E4.17017
G1 X113.142 Y126.701 E4.19989
G1 X113.332 Y127.385 E4.22911
G1 X113.489 Y128.088 E4.25875
G1 X113.604 Y128.794 E4.28819
G1 X113.68 Y129.506 E4.31767
G1 X113.717 Y130.224 E4.34726
G1 X113.714 Y130.94 E4.37673
G1 X113.671 Y131.657 E4.40629
G1 X113.587 Y132.366 E4.43568
G1 X113.466 Y133.076 E4.46532
G1 X113.305 Y133.771 E4.49469
G1 X113.106 Y134.458 E4.52413
G1 X112.867 Y135.138 E4.55379
G1 X112.593 Y135.796 E4.58313
G1 X112.282 Y136.444 E4.61271
G1 X111.936 Y137.07 E4.64215
G1 X111.555 Y137.679 E4.67172
G1 X111.14 Y138.264 E4.70124
G1 X110.694 Y138.824 E4.73071
G1 X110.218 Y139.361 E4.76024
G1 X109.713 Y139.868 E4.7897
G1 X109.18 Y140.348 E4.81922
G1 X108.619 Y140.798 E4.84882
G1 X108.038 Y141.214 E4.87823
G1 X107.433 Y141.598 E4.90773
G1 X106.808 Y141.949 E4.93723
G1 X106.164 Y142.263 E4.96672
G1 X105.504 Y142.542 E4.99621
G1 X104.829 Y142.783 E5.02571
G1 X104.142 Y142.987 E5.05521
G1 X103.444 Y143.153 E5.08474
G1 X102.74 Y143.278 E5.11417
G1 X102.028 Y143.366 E5.1437
G1 X101.313 Y143.413 E5.17319
G1 X100.597 Y143.421 E5.20266
G1 X99.883 Y143.389 E5.23208
G1 X99.166 Y143.317 E5.26174
G1 X98.461 Y143.205 E5.29112
G1 X97.757 Y143.054 E5.32076
G1 X97.067 Y142.865 E5.3502
G1 X96.388 Y142.637 E5.37968
G1 X95.722 Y142.372 E5.40919
G1 X95.072 Y142.071 E5.43867
G1 X94.439 Y141.734 E5.46819
G1 X93.825 Y141.362 E5.49773
G1 X93.235 Y140.956 E5.52721
G1 X92.667 Y140.519 E5.55671
G1 X92.126 Y140.051 E5.58615
G1 X91.61 Y139.554 E5.61564
G1 X91.122 Y139.028 E5.64517
G1 X90.662 Y138.473 E5.67484
G1 X90.241 Y137.9 E5.70411
G1 X89.846 Y137.301 E5.73364
G1 X89.485 Y136.681 E5.76317
G1 X89.16 Y136.041 E5.79271
G1 X88.874 Y135.387 E5.82209
G1 X88.621 Y134.715 E5.85165
G1 X88.408 Y134.031 E5.88113
G1 X88.232 Y133.336 E5.91064
G1 X88.096 Y132.632 E5.94015
G1 X87.998 Y131.919 E5.96978
G1 X87.937 Y131.145 E6.00173
G1 X87.921 Y130.546 E6.0264
G1 X87.922 Y69.486 E8.53959
G0 F3600 X88.521 Y69.507
G1 F3000 X88.541 Y68.974 E8.56154
G1 X88.601 Y68.445 E8.58346
G1 X88.698 Y67.919 E8.60547
G1 X88.835 Y67.405 E8.62737
G1 X89.009 Y66.899 E8.64939
G1 X89.218 Y66.411 E8.67124
G1 X89.462 Y65.936 E8.69322
G1 X89.741 Y65.482 E8.71515
G1 X90.051 Y65.05 E8.73704
G1 X90.393 Y64.641 E8.75898
G1 X90.764 Y64.257 E8.78096
G1 X91.163 Y63.902 E8.80294
G1 X91.585 Y63.579 E8.82481
G1 X92.032 Y63.284 E8.84686
G1 X92.497 Y63.023 E8.8688
G1 X92.978 Y62.8 E8.89063
G1 X93.479 Y62.609 E8.9127
G1 X93.989 Y62.457 E8.9346
G1 X94.51 Y62.342 E8.95656
G1 X95.039 Y62.265 E8.97856
G1 X95.57 Y62.227 E9.00047
G1 X96.103 Y62.228 E9.02241
G1 X96.634 Y62.267 E9.04433
G1 X97.163 Y62.347 E9.06635
G1 X97.682 Y62.465 E9.08825
G1 X98.192 Y62.618 E9.11017
G1 X98.69 Y62.811 E9.13215
G1 X99.171 Y63.037 E9.15403
G1 X99.636 Y63.299 E9.17599
G1 X100.082 Y63.596 E9.19805
G1 X100.501 Y63.921 E9.21987
G1 X100.898 Y64.278 E9.24185
G1 X101.268 Y64.662 E9.2638
G1 X101.608 Y65.073 E9.28575
G1 X101.917 Y65.507 E9.30768
G1 X102.193 Y65.962 E9.32959
G1 X102.437 Y66.439 E9.35164
G1 X102.644 Y66.927 E9.37346
G1 X102.815 Y67.433 E9.39544
G1 X102.949 Y67.951 E9.41746
G1 X103.044 Y68.474 E9.43934
G1 X103.102 Y69 E9.46112
G1 X103.121 Y69.522 E9.48262
G1 X103.122 Y130.523 E11.99339
G1 X103.083 Y130.671 E11.99969
G1 X102.975 Y130.781 E12.00603
G1 X102.821 Y130.823 E12.0126
G1 X101.82 Y130.818 E12.0538
G1 X101.671 Y130.778 E12.06015
G1 X101.562 Y130.67 E12.06647
G1 X101.521 Y130.53 E12.07247
G1 X101.448 Y129.614 E12.11029
G1 X101.235 Y128.743 E12.1472
G1 X100.896 Y127.927 E12.18357
G1 X100.421 Y127.158 E12.22077
G1 X99.845 Y126.487 E12.25717
G1 X99.164 Y125.907 E12.29399
G1 X98.395 Y125.438 E12.33106
G1 X97.594 Y125.104 E12.36678
G1 X96.713 Y124.893 E12.40407
G1 X95.816 Y124.822 E12.4411
G1 X94.929 Y124.893 E12.47773
G1 X94.041 Y125.108 E12.51533
G1 X93.227 Y125.446 E12.55161
G1 X92.466 Y125.915 E12.58841
G1 X91.787 Y126.496 E12.62519
G1 X91.21 Y127.171 E12.66174
G1 X90.739 Y127.942 E12.69892
G1 X90.403 Y128.749 E12.7349
G1 X90.193 Y129.625 E12.77198
G1 X90.121 Y130.527 E12.80922
G1 X90.14 Y131.152 E12.83496
G1 X90.193 Y131.766 E12.86033
G1 X90.287 Y132.398 E12.88663
G1 X90.404 Y132.975 E12.91086
G1 X90.576 Y133.61 E12.93794
G1 X90.777 Y134.214 E12.96414
G1 X91.007 Y134.786 E12.98951
G1 X91.27 Y135.345 E13.01494
G1 X91.574 Y135.907 E13.04124
G1 X91.896 Y136.426 E13.06638
G1 X92.266 Y136.948 E13.09271
G1 X92.655 Y137.436 E13.1184
G1 X93.076 Y137.907 E13.1444
G1 X93.516 Y138.343 E13.1699
G1 X93.977 Y138.749 E13.19518
G1 X94.486 Y139.145 E13.22172
G1 X94.985 Y139.492 E13.24674
G1 X95.528 Y139.82 E13.27285
G1 X96.087 Y140.118 E13.29892
G1 X96.655 Y140.377 E13.32462
G1 X97.235 Y140.604 E13.35025
G1 X97.828 Y140.796 E13.37591
G1 X98.456 Y140.958 E13.4026
G1 X99.047 Y141.074 E13.42739
G1 X99.669 Y141.161 E13.45324
G1 X100.29 Y141.209 E13.47888
G1 X100.915 Y141.223 E13.50461
G1 X101.54 Y141.198 E13.53036
G1 X102.176 Y141.137 E13.55665
G1 X102.786 Y141.041 E13.58207
G1 X103.366 Y140.916 E13.60649
G1 X104.001 Y140.739 E13.63362
G1 X104.596 Y140.536 E13.6595
G1 X105.177 Y140.296 E13.68537
G1 X105.731 Y140.03 E13.71067
G1 X106.278 Y139.726 E13.73642
G1 X106.813 Y139.388 E13.76247
G1 X107.316 Y139.024 E13.78803
G1 X107.797 Y138.636 E13.81346
G1 X108.262 Y138.211 E13.83939
G1 X108.711 Y137.751 E13.86585
G1 X109.109 Y137.292 E13.89085
G1 X109.498 Y136.781 E13.91729
G1 X109.851 Y136.262 E13.94312
G1 X110.167 Y135.734 E13.96845
G1 X110.457 Y135.175 E13.99437
G1 X110.713 Y134.6 E14.02027
G1 X110.932 Y134.022 E14.04572
G1 X111.12 Y133.422 E14.07159
G1 X111.276 Y132.798 E14.09807
G1 X111.386 Y132.209 E14.12273
G1 X111.469 Y131.57 E14.14925
G1 X111.512 Y130.962 E14.17434
G1 X111.519 Y130.339 E14.19998
G1 X111.489 Y129.695 E14.22652
G1 X111.424 Y129.091 E14.25152
G1 X111.322 Y128.474 E14.27726
G1 X111.179 Y127.846 E14.30377
G1 X111.012 Y127.261 E14.32881
G1 X110.812 Y126.689 E14.35375
G1 X110.554 Y126.079 E14.38101
G1 X110.288 Y125.536 E14.4059
G1 X109.972 Y124.977 E14.43233
G1 X109.935 Y124.863 E14.43726
G1 X103.346 Y67.552 E16.81169
G1 X103.325 Y66.72 E16.84595
G1 X103.458 Y65.868 E16.88144
G1 X103.737 Y65.057 E16.91674
G1 X104.16 Y64.306 E16.95222
G1 X104.709 Y63.643 E16.98765
G1 X105.367 Y63.089 E17.02305
G1 X106.111 Y62.662 E17.05836
G1 X106.922 Y62.374 E17.09378
G1 X107.775 Y62.235 E17.12935
G1 X108.633 Y62.251 E17.16467
G1 X109.476 Y62.42 E17.20006
G1 X110.276 Y62.735 E17.23545
G1 X111.007 Y63.192 E17.27093
G1 X111.644 Y63.768 E17.30628
G1 X112.169 Y64.452 E17.34177
G1 X112.563 Y65.219 E17.37726
G1 X112.813 Y66.035 E17.41239
G1 X112.893 Y66.557 E17.43412
G1 X116.44 Y97.396 E18.71181
G1 X116.418 Y97.548 E18.71813
G1 X116.323 Y97.669 E18.72446
G1 X116.176 Y97.728 E18.73098
G1 X113.154 Y98.077 E18.85619
G1 X112.446 Y98.22 E18.88592
G1 X111.703 Y98.501 E18.91862
G1 X111.048 Y98.884 E18.94985
G1 X110.446 Y99.382 E18.982
G1 X109.93 Y99.979 E19.01448
G1 X109.533 Y100.627 E19.04576
G1 X109.241 Y101.359 E19.0782
G1 X109.076 Y102.103 E19.10956
G1 X109.038 Y102.934 E19.1438
G1 X109.063 Y103.278 E19.158
G1 X111.493 Y124.411 E20.03355
G1 X111.792 Y124.965 E20.05946
G1 X112.084 Y125.582 E20.08756
G1 X112.341 Y126.214 E20.11564
G1 X112.564 Y126.862 E20.14385
G1 X112.747 Y127.517 E20.17184
G1 X112.897 Y128.185 E20.20002
G1 X113.007 Y128.859 E20.22813
G1 X113.081 Y129.539 E20.25628
G1 X113.117 Y130.222 E20.28443
G1 X113.115 Y130.906 E20.31258
G1 X113.075 Y131.588 E20.3407
G1 X112.996 Y132.266 E20.3688
G1 X112.881 Y132.941 E20.39698
G1 X112.728 Y133.605 E20.42503
G1 X112.539 Y134.261 E20.45313
G1 X112.313 Y134.908 E20.48133
G1 X112.052 Y135.537 E20.50936
G1 X111.756 Y136.155 E20.53757
G1 X111.427 Y136.753 E20.56566
G1 X111.065 Y137.332 E20.59377
G1 X110.669 Y137.891 E20.62196
G1 X110.245 Y138.427 E20.65009
G1 X109.792 Y138.938 E20.6782
G1 X109.311 Y139.423 E20.70631
G1 X108.803 Y139.881 E20.73447
G1 X108.269 Y140.311 E20.76268
G1 X107.715 Y140.708 E20.79074
G1 X107.138 Y141.075 E20.81888
G1 X106.543 Y141.41 E20.84699
G1 X105.929 Y141.711 E20.87513
G1 X105.301 Y141.977 E20.9032
G1 X104.657 Y142.208 E20.93136
G1 X104.003 Y142.404 E20.95947
G1 X103.338 Y142.562 E20.9876
G1 X102.665 Y142.683 E21.01574
G1 X101.987 Y142.767 E21.04386
G1 X101.305 Y142.813 E21.072
G1 X100.623 Y142.822 E21.10007
G1 X99.942 Y142.792 E21.12813
G1 X99.259 Y142.724 E21.15638
G1 X98.585 Y142.618 E21.18446
G1 X97.915 Y142.475 E21.21266
G1 X97.257 Y142.296 E21.24073
G1 X96.609 Y142.079 E21.26885
G1 X95.973 Y141.827 E21.29701
G1 X95.353 Y141.541 E21.32511
G1 X94.749 Y141.22 E21.35327
G1 X94.164 Y140.867 E21.38139
G1 X93.6 Y140.479 E21.40956
G1 X93.058 Y140.064 E21.43766
G1 X92.541 Y139.618 E21.46577
G1 X92.049 Y139.145 E21.49386
G1 X91.583 Y138.644 E21.52202
G1 X91.145 Y138.116 E21.55025
G1 X90.741 Y137.569 E21.57824
G1 X90.364 Y136.999 E21.60637
G1 X90.02 Y136.408 E21.63452
G1 X89.709 Y135.799 E21.66266
G1 X89.435 Y135.175 E21.69071
G1 X89.194 Y134.535 E21.71886
G1 X88.989 Y133.882 E21.74703
G1 X88.821 Y133.221 E21.7751
G1 X88.69 Y132.549 E21.80328
G1 X88.596 Y131.871 E21.83146
G1 X88.537 Y131.129 E21.86209
G1 X88.521 Y130.53 E21.88676
G1 X88.521 Y69.507 E24.39843
G1 F1500 E22.39843
G1 F600 Z1.1
G0 F3600 X103.721 Y76.071 Z1.1
G1 F600 Z0.1
G1 F1500 E24.39843
G1 F3000 X103.722 Y130.523 E26.63964
G1 X103.682 Y130.788 E26.65067
G1 X103.566 Y131.029 E26.66168
G1 X103.385 Y131.225 E26.67266
G1 X103.153 Y131.36 E26.68371
G1 X102.818 Y131.423 E26.69774
G1 X101.817 Y131.418 E26.73894
G1 X101.552 Y131.377 E26.74998
G1 X101.311 Y131.26 E26.761
G1 X101.116 Y131.077 E26.77201
G1 X100.983 Y130.845 E26.78302
G1 X100.922 Y130.554 E26.79525
G1 X100.853 Y129.697 E26.83064
G1 X100.663 Y128.928 E26.86325
G1 X100.362 Y128.2 E26.89567
G1 X99.938 Y127.514 E26.92886
G1 X99.423 Y126.914 E26.96141
G1 X98.814 Y126.394 E26.99437
G1 X98.127 Y125.975 E27.02749
G1 X97.407 Y125.675 E27.05959
G1 X96.619 Y125.487 E27.09294
G1 X95.816 Y125.422 E27.1261
G1 X95.018 Y125.487 E27.15905
G1 X94.229 Y125.679 E27.19247
G1 X93.507 Y125.977 E27.22462
G1 X92.824 Y126.397 E27.25762
G1 X92.212 Y126.921 E27.29078
G1 X91.692 Y127.529 E27.32371
G1 X91.274 Y128.215 E27.35678
G1 X90.974 Y128.936 E27.38892
G1 X90.784 Y129.734 E27.42268
G1 X90.722 Y130.519 E27.45509
G1 X90.739 Y131.117 E27.47972
G1 X90.791 Y131.713 E27.50434
G1 X90.877 Y132.289 E27.52831
G1 X90.99 Y132.842 E27.55154
G1 X91.152 Y133.443 E27.57716
G1 X91.337 Y133.997 E27.6012
G1 X91.56 Y134.554 E27.6259
G1 X91.804 Y135.072 E27.64947
G1 X92.089 Y135.599 E27.67413
G1 X92.405 Y136.107 E27.69875
G1 X92.743 Y136.584 E27.72281
G1 X93.114 Y137.049 E27.7473
G1 X93.506 Y137.488 E27.77152
G1 X93.92 Y137.898 E27.7955
G1 X94.375 Y138.299 E27.82047
G1 X94.832 Y138.654 E27.84428
G1 X95.322 Y138.995 E27.86886
G1 X95.831 Y139.303 E27.89334
G1 X96.343 Y139.576 E27.91722
G1 X96.884 Y139.822 E27.94169
G1 X97.439 Y140.039 E27.96621
G1 X97.998 Y140.22 E27.9904
G1 X98.588 Y140.372 E28.01547
G1 X99.152 Y140.483 E28.03913
G1 X99.733 Y140.564 E28.06328
G1 X100.315 Y140.609 E28.0873
G1 X100.921 Y140.623 E28.11225
G1 X101.493 Y140.6 E28.13582
G1 X102.096 Y140.542 E28.16075
G1 X102.674 Y140.451 E28.18483
G1 X103.228 Y140.332 E28.20816
G1 X103.825 Y140.165 E28.23367
G1 X104.377 Y139.977 E28.25767
G1 X104.932 Y139.748 E28.28238
G1 X105.455 Y139.496 E28.30628
G1 X105.974 Y139.208 E28.33071
G1 X106.476 Y138.891 E28.35515
G1 X106.96 Y138.541 E28.37973
G1 X107.398 Y138.188 E28.40288
G1 X107.852 Y137.773 E28.4282
G1 X108.27 Y137.344 E28.45285
G1 X108.646 Y136.91 E28.47649
G1 X109.011 Y136.431 E28.50128
G1 X109.341 Y135.946 E28.52542
G1 X109.648 Y135.432 E28.55006
G1 X109.913 Y134.922 E28.57372
G1 X110.155 Y134.379 E28.59819
G1 X110.364 Y133.829 E28.6224
G1 X110.545 Y133.251 E28.64733
G1 X110.687 Y132.68 E28.67155
G1 X110.794 Y132.108 E28.6955
G1 X110.871 Y131.514 E28.72016
G1 X110.912 Y130.93 E28.74425
G1 X110.919 Y130.34 E28.76854
G1 X110.891 Y129.75 E28.79285
G1 X110.826 Y129.15 E28.81769
G1 X110.732 Y128.587 E28.84118
G1 X110.597 Y127.992 E28.8663
G1 X110.435 Y127.428 E28.89045
G1 X110.255 Y126.912 E28.91294
G1 X110.011 Y126.335 E28.93873
G1 X109.751 Y125.805 E28.96303
G1 X109.45 Y125.272 E28.98822
G1 X109.339 Y124.932 E29.00294
G1 X103.721 Y76.071 E31.02728
G1 F1500 E29.02728
G1 F600 Z1.1
G0 F3600 X90.721 Y69.526 Z1.1
G1 F600 Z0.1
G1 F1500 E31.02728
G1 F3000 X90.784 Y70.314 E31.05982
G1 X90.981 Y71.126 E31.09421
G1 X91.279 Y71.843 E31.12617
G1 X91.699 Y72.524 E31.1591
G1 X92.218 Y73.13 E31.19194
G1 X92.824 Y73.648 E31.22475
G1 X93.502 Y74.064 E31.25749
G1 X94.233 Y74.369 E31.29009
G1 X95.023 Y74.558 E31.32353
G1 X95.826 Y74.622 E31.35668
G1 X96.623 Y74.558 E31.38959
G1 X97.413 Y74.366 E31.42306
G1 X98.147 Y74.061 E31.45577
G1 X98.822 Y73.646 E31.48838
G1 X99.429 Y73.124 E31.52134
G1 X99.95 Y72.515 E31.55432
G1 X100.371 Y71.824 E31.58763
G1 X100.669 Y71.106 E31.61962
G1 X100.856 Y70.32 E31.65288
G1 X100.921 Y69.516 E31.68608
