;FLAVOR:Marlin
;TIME:93
;Filament used: 0.0646809m
;Layer height: 0.3
;MINX:93.158
;MINY:93.155
;MINZ:0.2
;MAXX:111.854
;MAXY:111.838
;MAXZ:3.71
;Generated with Cura_SteamEngine main
M140 S65
M105
M190 S65
M104 S220
M105
M109 S220
M82 ;absolute extrusion mode
G21 ;metric values
G90 ;absolute positioning
M82 ;set extruder to absolute mode
M107 ;start with the fan off

M206 X5 Y9 ;set home offsets

G28 X0 Y0 ;move X/Y to min endstops
G28 Z0 ;move Z to min endstops
G1 Z15.0 F9000 ;move the platform down 15mm
G92 E0 ;zero the extruded length
G1 F200 E3 ;extrude 3mm of feed stock
G92 E0 ;zero the extruded length again
G1 F9000

;M301 D121.72 I2.14 P32.30
M301 D17.09 I0.93 P78.40

;Set max printing acceleration
M201 X100 Y100
;Set max travel acceleration
M202 X300 Y300
;Set max jerk
M556 X10 Y10
;Set max feedrate
M203 X1000 Y1000


;Put printing message on LCD screen
M117 Printing...
G92 E0
G92 E0
G1 F1500 E-1
;LAYER_COUNT:15
;LAYER:0
M107
G1 F600 Z1.2
G0 F1800 X95.894 Y95.892 Z1.2
G1 F600 Z0.2
G0 F1800 X93.158 Y102.139
;TYPE:SKIRT
G1 F1500 E0
G1 F1200 X93.188 Y101.652 E0.03246
G1 X93.354 Y100.591 E0.10389
G1 X93.617 Y99.582 E0.17325
G1 X93.766 Y99.162 E0.2029
G1 X94.198 Y98.213 E0.27226
G1 X94.69 Y97.37 E0.33719
G1 X95.336 Y96.515 E0.40847
G1 X95.894 Y95.892 E0.46411
G1 X96.852 Y95.051 E0.54891
G1 X97.245 Y94.766 E0.5812
G1 X98.298 Y94.144 E0.66255
G1 X99.405 Y93.678 E0.74245
G1 X99.826 Y93.541 E0.7719
G1 X100.727 Y93.332 E0.83342
G1 X101.516 Y93.208 E0.88655
G1 X102.781 Y93.155 E0.97078
G1 X103.269 Y93.181 E1.00328
G1 X104.333 Y93.338 E1.07483
G1 X105.36 Y93.597 E1.14528
G1 X105.817 Y93.759 E1.17754
G1 X106.98 Y94.298 E1.2628
G1 X107.913 Y94.875 E1.33578
G1 X108.3 Y95.168 E1.36807
G1 X109.241 Y96.029 E1.45291
G1 X109.939 Y96.837 E1.52394
G1 X110.198 Y97.195 E1.55333
G1 X110.742 Y98.098 E1.62346
G1 X111.145 Y98.954 E1.68639
G1 X111.463 Y99.86 E1.75026
G1 X111.706 Y100.871 E1.81943
G1 X111.772 Y101.302 E1.84844
G1 X111.854 Y102.51 E1.92898
G1 X111.777 Y103.617 E2.00279
G1 X111.598 Y104.655 E2.07286
G1 X111.485 Y105.085 E2.10243
G1 X111.126 Y106.092 E2.17355
G1 X110.571 Y107.212 E2.2567
G1 X109.874 Y108.241 E2.33937
G1 X109.22 Y108.993 E2.40567
G1 X108.277 Y109.851 E2.49047
G1 X107.884 Y110.146 E2.52316
G1 X106.959 Y110.712 E2.5953
G1 X105.839 Y111.228 E2.67733
G1 X104.83 Y111.555 E2.74788
G1 X104.399 Y111.655 E2.77732
G1 X103.34 Y111.807 E2.84848
G1 X102.062 Y111.838 E2.93352
G1 X101.58 Y111.805 E2.96566
G1 X100.513 Y111.631 E3.03757
G1 X99.576 Y111.375 E3.10219
G1 X98.425 Y110.91 E3.18476
G1 X97.337 Y110.289 E3.2681
G1 X96.559 Y109.711 E3.33257
G1 X95.836 Y109.051 E3.39769
G1 X95.043 Y108.13 E3.47853
G1 X94.443 Y107.241 E3.54988
G1 X94.227 Y106.855 E3.5793
G1 X93.796 Y105.899 E3.64906
G1 X93.498 Y104.996 E3.71231
G1 X93.265 Y103.96 E3.78295
G1 X93.202 Y103.475 E3.81548
G1 X93.158 Y102.139 E3.9044
G0 F1800 X93.558 Y102.125
G1 F1200 X93.583 Y101.714 E3.93179
G1 X93.745 Y100.674 E4.00181
G1 X94.051 Y99.505 E4.08219
G1 X94.558 Y98.39 E4.16367
G1 X95.025 Y97.589 E4.22535
G1 X95.655 Y96.756 E4.29482
G1 X96.174 Y96.179 E4.34645
G1 X97.116 Y95.352 E4.42983
G1 X97.448 Y95.111 E4.45712
G1 X98.484 Y94.499 E4.53716
G1 X99.73 Y93.974 E4.6271
G1 X100.818 Y93.722 E4.70139
G1 X101.554 Y93.607 E4.75095
G1 X102.798 Y93.555 E4.83377
G1 X103.211 Y93.576 E4.86128
G1 X104.246 Y93.728 E4.93086
G1 X105.262 Y93.985 E5.00058
G1 X105.649 Y94.122 E5.02789
G1 X106.786 Y94.649 E5.11125
G1 X107.703 Y95.216 E5.18297
G1 X108.03 Y95.463 E5.21023
G1 X108.955 Y96.308 E5.29357
G1 X109.76 Y97.241 E5.37554
G1 X110.384 Y98.277 E5.45599
G1 X110.777 Y99.112 E5.51738
G1 X111.078 Y99.97 E5.57786
G1 X111.361 Y101.147 E5.65839
G1 X111.453 Y102.51 E5.74926
G1 X111.379 Y103.57 E5.81995
G1 X111.172 Y104.77 E5.90095
G1 X110.756 Y105.938 E5.98343
G1 X110.225 Y107.011 E6.06306
G1 X109.557 Y107.996 E6.14223
G1 X108.935 Y108.712 E6.20532
G1 X108.008 Y109.555 E6.28867
G1 X107.675 Y109.804 E6.31633
G1 X106.761 Y110.363 E6.3876
G1 X105.699 Y110.853 E6.4654
G1 X104.526 Y111.232 E6.5474
G1 X103.307 Y111.408 E6.62933
G1 X102.052 Y111.438 E6.71284
G1 X101.644 Y111.41 E6.74004
G1 X100.597 Y111.239 E6.81061
G1 X99.705 Y110.996 E6.87211
G1 X98.594 Y110.547 E6.95182
G1 X97.561 Y109.956 E7.03099
G1 X96.812 Y109.4 E7.09304
G1 X96.123 Y108.772 E7.15505
G1 X95.36 Y107.885 E7.23288
G1 X94.668 Y106.86 E7.31515
G1 X94.169 Y105.751 E7.39604
G1 X93.884 Y104.887 E7.45656
G1 X93.655 Y103.872 E7.52578
G1 X93.602 Y103.461 E7.55335
G1 X93.558 Y102.125 E7.64226
G0 F1800 X93.952 Y101.945
G1 F1200 X94.139 Y100.749 E7.72279
G1 X94.429 Y99.64 E7.79904
G1 X94.915 Y98.571 E7.87716
G1 X95.358 Y97.811 E7.93567
G1 X95.974 Y96.997 E8.00358
G1 X96.461 Y96.458 E8.0519
G1 X97.504 Y95.543 E8.14419
G1 X98.66 Y94.86 E8.23351
G1 X99.856 Y94.356 E8.31984
G1 X100.99 Y94.093 E8.39728
G1 X101.599 Y94.006 E8.4382
G1 X102.988 Y93.948 E8.53068
G1 X104.169 Y94.122 E8.61009
G1 X105.328 Y94.414 E8.68959
G1 X106.598 Y95.004 E8.78275
G1 X107.637 Y95.645 E8.86395
G1 X108.667 Y96.587 E8.9568
G1 X109.434 Y97.476 E9.03491
G1 X110.032 Y98.468 E9.11196
G1 X110.408 Y99.268 E9.17076
G1 X110.692 Y100.078 E9.22786
G1 X110.964 Y101.207 E9.30511
G1 X111.052 Y102.509 E9.39191
G1 X110.982 Y103.524 E9.45959
G1 X110.783 Y104.673 E9.53716
G1 X110.39 Y105.777 E9.61512
G1 X109.883 Y106.801 E9.69112
G1 X109.233 Y107.76 E9.76819
G1 X108.653 Y108.426 E9.82694
G1 X107.61 Y109.376 E9.92078
G1 X106.576 Y110.008 E10.0014
G1 X105.558 Y110.477 E10.07595
G1 X104.432 Y110.842 E10.15469
G1 X103.274 Y111.008 E10.23251
G1 X101.875 Y111.042 E10.3256
G1 X100.679 Y110.847 E10.40621
G1 X99.831 Y110.616 E10.46467
G1 X98.771 Y110.187 E10.54074
G1 X97.776 Y109.619 E10.61695
G1 X97.07 Y109.093 E10.67552
G1 X96.411 Y108.493 E10.7348
G1 X95.678 Y107.642 E10.80952
G1 X95.021 Y106.668 E10.88767
G1 X94.541 Y105.602 E10.96544
G1 X94.268 Y104.775 E11.02337
G1 X94.008 Y103.619 E11.10219
G1 X93.952 Y101.945 E11.2136
G0 F1800 X94.354 Y101.967
G1 F1200 X94.531 Y100.832 E11.29002
G1 X94.807 Y99.773 E11.36282
G1 X95.268 Y98.76 E11.43685
G1 X95.691 Y98.036 E11.49263
G1 X96.342 Y97.174 E11.56448
G1 X96.799 Y96.694 E11.60857
G1 X97.74 Y95.868 E11.69186
G1 X98.841 Y95.218 E11.77691
G1 X99.984 Y94.737 E11.8594
G1 X100.999 Y94.501 E11.92872
G1 X101.637 Y94.404 E11.97165
G1 X102.962 Y94.349 E12.05986
G1 X104.091 Y94.515 E12.13577
G1 X105.194 Y94.793 E12.21144
G1 X106.411 Y95.358 E12.30069
G1 X107.394 Y95.965 E12.37754
G1 X108.38 Y96.867 E12.46644
G1 X109.106 Y97.708 E12.54034
G1 X109.686 Y98.671 E12.61512
G1 X110.031 Y99.404 E12.66901
G1 X110.309 Y100.196 E12.72485
G1 X110.567 Y101.269 E12.79826
G1 X110.652 Y102.508 E12.88087
G1 X110.584 Y103.477 E12.94549
G1 X110.396 Y104.569 E13.0192
G1 X110.022 Y105.619 E13.09334
G1 X109.534 Y106.603 E13.16641
G1 X108.92 Y107.51 E13.23926
G1 X108.36 Y108.154 E13.29603
G1 X107.372 Y109.052 E13.38485
G1 X106.392 Y109.652 E13.46128
G1 X105.404 Y110.107 E13.53364
G1 X104.345 Y110.45 E13.60769
G1 X103.232 Y110.61 E13.68249
G1 X101.902 Y110.642 E13.77098
G1 X100.773 Y110.457 E13.84709
G1 X99.961 Y110.237 E13.90305
G1 X98.941 Y109.824 E13.97625
G1 X98.001 Y109.287 E14.04826
G1 X97.322 Y108.782 E14.10455
G1 X96.698 Y108.214 E14.16068
G1 X95.995 Y107.398 E14.23233
G1 X95.373 Y106.475 E14.30637
G1 X94.911 Y105.45 E14.38116
G1 X94.655 Y104.673 E14.43558
G1 X94.406 Y103.57 E14.5108
G1 X94.354 Y101.967 E14.61748
G0 F1800 X94.755 Y101.988
G1 F1200 X94.934 Y100.871 E14.69274
G1 X95.186 Y99.905 E14.75914
G1 X95.648 Y98.902 E14.8326
G1 X96.025 Y98.256 E14.88236
G1 X96.677 Y97.402 E14.95383
G1 X96.99 Y97.065 E14.98442
G1 X97.978 Y96.191 E15.07217
G1 X99.021 Y95.575 E15.15275
G1 X100.104 Y95.119 E15.23091
G1 X101.174 Y94.875 E15.30392
G1 X101.728 Y94.801 E15.3411
G1 X102.944 Y94.75 E15.42206
G1 X104.065 Y94.92 E15.49748
G1 X105.056 Y95.17 E15.56547
G1 X106.224 Y95.712 E15.65112
G1 X107.15 Y96.284 E15.72352
G1 X108.089 Y97.142 E15.80813
G1 X108.786 Y97.95 E15.87912
G1 X109.302 Y98.807 E15.94566
G1 X109.642 Y99.517 E15.99803
G1 X109.909 Y100.262 E16.05067
G1 X110.17 Y101.328 E16.12367
G1 X110.251 Y102.508 E16.20235
G1 X110.19 Y103.379 E16.26043
G1 X110.007 Y104.469 E16.33396
G1 X109.652 Y105.465 E16.40429
G1 X109.187 Y106.402 E16.47388
G1 X108.605 Y107.261 E16.5429
G1 X108.07 Y107.876 E16.59712
G1 X107.131 Y108.731 E16.6816
G1 X106.2 Y109.3 E16.75418
G1 X105.264 Y109.732 E16.82275
G1 X104.253 Y110.059 E16.89343
G1 X103.199 Y110.211 E16.96427
G1 X101.928 Y110.241 E17.04884
G1 X100.806 Y110.052 E17.12453
G1 X100.09 Y109.857 E17.17389
G1 X99.122 Y109.466 E17.24334
G1 X98.211 Y108.946 E17.31312
G1 X97.616 Y108.503 E17.36246
G1 X96.987 Y107.936 E17.41879
G1 X96.317 Y107.158 E17.48709
G1 X95.72 Y106.273 E17.55811
G1 X95.286 Y105.309 E17.62843
G1 X95.03 Y104.519 E17.68367
G1 X94.805 Y103.521 E17.75172
G1 X94.755 Y101.988 E17.85375
G0 F1800 X95.155 Y102.016
G1 F1200 X95.321 Y100.972 E17.92407
G1 X95.564 Y100.042 E17.98801
G1 X95.966 Y99.158 E18.05261
G1 X96.379 Y98.451 E18.10708
G1 X96.931 Y97.721 E18.16796
G1 X97.327 Y97.295 E18.20665
G1 X98.214 Y96.517 E18.28513
G1 X99.166 Y95.954 E18.35871
G1 X100.225 Y95.502 E18.4353
G1 X101.23 Y95.271 E18.5039
G1 X101.685 Y95.206 E18.53447
G1 X102.926 Y95.151 E18.6171
G1 X103.967 Y95.308 E18.68713
G1 X104.921 Y95.549 E18.75259
G1 X105.997 Y96.048 E18.83148
G1 X106.912 Y96.608 E18.90285
G1 X107.778 Y97.4 E18.98091
G1 X108.46 Y98.184 E19.05003
G1 X108.988 Y99.067 E19.11847
G1 X109.28 Y99.687 E19.16406
G1 X109.531 Y100.394 E19.21396
G1 X109.774 Y101.392 E19.28229
G1 X109.85 Y102.507 E19.35663
G1 X109.791 Y103.351 E19.41291
G1 X109.618 Y104.366 E19.48141
G1 X109.267 Y105.341 E19.55034
G1 X108.842 Y106.198 E19.61397
G1 X108.261 Y107.049 E19.68251
G1 X107.763 Y107.615 E19.73266
G1 X106.89 Y108.41 E19.81121
G1 X106.041 Y108.929 E19.8774
G1 X105.082 Y109.371 E19.94764
G1 X104.165 Y109.668 E20.01176
G1 X103.131 Y109.812 E20.08121
G1 X101.958 Y109.84 E20.15926
G1 X100.911 Y109.666 E20.22986
G1 X100.25 Y109.486 E20.27543
G1 X99.259 Y109.084 E20.34657
G1 X98.408 Y108.593 E20.41192
G1 X97.855 Y108.182 E20.45776
G1 X97.25 Y107.629 E20.51228
G1 X96.655 Y106.938 E20.57294
G1 X96.072 Y106.081 E20.64189
G1 X95.65 Y105.136 E20.71073
G1 X95.436 Y104.487 E20.75619
G1 X95.203 Y103.463 E20.82605
G1 X95.155 Y102.016 E20.92235
G0 F1800 X95.559 Y102.022
G1 F1200 X95.708 Y101.073 E20.98626
G1 X95.939 Y100.188 E21.0471
G1 X96.339 Y99.305 E21.11158
G1 X96.698 Y98.692 E21.15884
G1 X97.25 Y97.962 E21.21972
G1 X97.576 Y97.61 E21.25163
G1 X98.465 Y96.833 E21.33017
G1 X99.369 Y96.299 E21.40001
G1 X100.369 Y95.879 E21.47216
G1 X101.287 Y95.667 E21.53484
G1 X101.762 Y95.6 E21.56675
G1 X102.882 Y95.553 E21.64131
G1 X103.849 Y95.692 E21.7063
G1 X104.772 Y95.924 E21.76961
G1 X105.85 Y96.422 E21.8486
G1 X106.681 Y96.939 E21.9137
G1 X107.508 Y97.695 E21.98824
G1 X108.122 Y98.405 E22.05068
G1 X108.626 Y99.238 E22.11544
G1 X108.926 Y99.877 E22.1624
G1 X109.154 Y100.527 E22.20822
G1 X109.378 Y101.465 E22.27237
G1 X109.448 Y102.52 E22.3427
G1 X109.392 Y103.323 E22.39625
G1 X109.233 Y104.247 E22.45862
G1 X108.908 Y105.164 E22.52333
G1 X108.488 Y106.008 E22.58605
G1 X107.974 Y106.767 E22.64702
G1 X107.494 Y107.319 E22.69568
G1 X106.662 Y108.076 E22.77051
G1 X105.812 Y108.599 E22.8369
G1 X104.981 Y108.982 E22.89776
G1 X104.057 Y109.279 E22.96232
G1 X103.122 Y109.412 E23.02515
G1 X102.004 Y109.439 E23.09954
G1 X101.016 Y109.28 E23.16611
G1 X100.355 Y109.1 E23.21168
G1 X99.458 Y108.737 E23.27605
G1 X98.647 Y108.272 E23.33823
G1 X98.078 Y107.848 E23.38544
G1 X97.553 Y107.368 E23.43276
G1 X96.958 Y106.677 E23.49341
G1 X96.432 Y105.899 E23.55588
G1 X96.03 Y105.011 E23.62072
G1 X95.816 Y104.362 E23.66618
G1 X95.601 Y103.396 E23.73201
G1 X95.559 Y102.022 E23.82346
G1 F1500 E22.82346
G1 F600 Z1.2
G0 F1800 X98.762 Y102.825 Z1.2
G1 F600 Z0.2
G1 F1500 E23.82346
G1 F1200 X98.913 Y103.543 E23.87226
G1 X99.028 Y103.877 E23.89576
G1 X99.272 Y104.377 E23.93277
G1 X99.706 Y104.979 E23.98214
G1 X100.113 Y105.373 E24.01982
G1 X100.516 Y105.678 E24.05344
G1 X101.164 Y106.005 E24.10172
G1 X101.869 Y106.182 E24.15007
G1 X102.22 Y106.225 E24.17359
G1 X102.781 Y106.225 E24.21091
G1 X103.284 Y106.163 E24.24463
G1 X103.754 Y106.02 E24.27731
G1 X104.379 Y105.74 E24.32286
G1 X104.796 Y105.449 E24.35669
G1 X105.188 Y105.108 E24.39125
G1 X105.607 Y104.592 E24.43546
G1 X105.923 Y104.023 E24.47876
G1 X106.134 Y103.406 E24.52214
G1 X106.214 Y102.907 E24.55575
G1 X106.237 Y102.239 E24.60022
G1 X106.133 Y101.587 E24.64414
G1 X105.974 Y101.124 E24.6767
G1 X105.728 Y100.62 E24.71401
G1 X105.295 Y100.021 E24.76317
G1 X104.764 Y99.507 E24.81233
G1 X104.145 Y99.134 E24.86041
G1 X103.675 Y98.954 E24.89389
G1 X103.132 Y98.818 E24.93112
G1 X102.781 Y98.775 E24.95464
G1 X102.22 Y98.775 E24.99196
G1 X101.722 Y98.836 E25.02534
G1 X101.1 Y99.026 E25.0686
G1 X100.649 Y99.255 E25.10225
G1 X100.184 Y99.569 E25.13957
G1 X99.813 Y99.892 E25.17229
G1 X99.396 Y100.405 E25.21627
G1 X99.079 Y100.977 E25.25977
G1 X98.867 Y101.594 E25.30317
G1 X98.787 Y102.093 E25.33679
G1 X98.762 Y102.825 E25.38551
G0 F1800 X98.368 Y102.678
G1 F1200 X98.401 Y103.05 E25.41035
G1 X98.528 Y103.651 E25.45121
G1 X98.659 Y104.034 E25.47814
G1 X98.923 Y104.576 E25.51824
G1 X99.413 Y105.253 E25.57383
G1 X99.85 Y105.676 E25.61429
G1 X100.306 Y106.02 E25.65229
G1 X101.018 Y106.381 E25.70539
G1 X101.795 Y106.576 E25.75868
G1 X102.196 Y106.625 E25.78555
G1 X102.805 Y106.625 E25.82606
G1 X103.366 Y106.556 E25.86366
G1 X103.896 Y106.394 E25.90053
G1 X104.575 Y106.091 E25.94999
G1 X105.047 Y105.761 E25.9883
G1 X105.479 Y105.385 E26.0264
G1 X105.939 Y104.818 E26.07496
G1 X106.288 Y104.189 E26.12281
G1 X106.524 Y103.502 E26.17114
G1 X106.612 Y102.951 E26.20825
G1 X106.638 Y102.21 E26.25757
G1 X106.523 Y101.491 E26.30601
G1 X106.341 Y100.963 E26.34316
G1 X106.076 Y100.421 E26.38329
G1 X105.588 Y99.747 E26.43865
G1 X105.149 Y99.323 E26.47925
G1 X104.811 Y99.068 E26.50741
G1 X104.322 Y98.774 E26.54537
G1 X103.794 Y98.571 E26.58299
G1 X103.206 Y98.424 E26.62331
G1 X102.805 Y98.375 E26.65019
G1 X102.196 Y98.375 E26.6907
G1 X101.635 Y98.444 E26.7283
G1 X100.95 Y98.653 E26.77594
G1 X100.454 Y98.906 E26.81297
G1 X99.932 Y99.258 E26.85485
G1 X99.525 Y99.612 E26.89074
G1 X99.062 Y100.182 E26.93959
G1 X98.713 Y100.811 E26.98744
G1 X98.477 Y101.498 E27.03576
G1 X98.389 Y102.049 E27.07287
G1 X98.368 Y102.678 E27.11474
G0 F1800 X97.967 Y102.683
G1 F1200 X98.006 Y103.119 E27.14386
G1 X98.139 Y103.75 E27.18675
G1 X98.289 Y104.188 E27.21755
G1 X98.575 Y104.774 E27.26093
G1 X99.113 Y105.519 E27.32205
G1 X99.591 Y105.981 E27.36628
G1 X100.096 Y106.362 E27.40836
G1 X100.647 Y106.641 E27.44944
G1 X101.089 Y106.811 E27.48094
G1 X101.723 Y106.97 E27.52442
G1 X102.172 Y107.025 E27.55451
G1 X102.829 Y107.025 E27.59822
G1 X103.452 Y106.949 E27.63997
G1 X104.038 Y106.769 E27.68074
G1 X104.77 Y106.442 E27.73407
G1 X105.292 Y106.078 E27.77641
G1 X105.773 Y105.659 E27.81884
G1 X106.27 Y105.046 E27.87134
G1 X106.657 Y104.349 E27.92437
G1 X106.913 Y103.603 E27.97683
G1 X107.011 Y102.988 E28.01826
G1 X107.039 Y102.187 E28.07157
G1 X106.912 Y101.393 E28.12506
G1 X106.713 Y100.815 E28.16573
G1 X106.427 Y100.229 E28.2091
G1 X105.888 Y99.481 E28.27043
G1 X105.403 Y99.012 E28.31531
G1 X105.046 Y98.743 E28.34505
G1 X104.492 Y98.41 E28.38804
G1 X103.919 Y98.19 E28.42887
G1 X103.278 Y98.03 E28.47282
G1 X102.829 Y97.975 E28.50291
G1 X102.172 Y97.975 E28.54661
G1 X101.549 Y98.051 E28.58836
G1 X100.803 Y98.279 E28.64025
G1 X100.246 Y98.563 E28.68184
G1 X99.692 Y98.937 E28.72631
G1 X99.231 Y99.337 E28.76691
G1 X98.731 Y99.954 E28.81974
G1 X98.344 Y100.651 E28.87277
G1 X98.088 Y101.397 E28.92523
G1 X97.99 Y102.012 E28.96666
G1 X97.967 Y102.683 E29.01132
G0 F1800 X97.566 Y102.697
M104 S240
G1 F1200 X97.608 Y103.169 E29.04284
G1 X97.755 Y103.866 E29.09023
G1 X97.917 Y104.339 E29.12348
G1 X98.225 Y104.969 E29.17013
G1 X98.508 Y105.407 E29.20482
G1 X98.812 Y105.784 E29.23704
G1 X99.337 Y106.291 E29.28559
G1 X99.877 Y106.699 E29.33061
G1 X100.489 Y107.009 E29.37624
G1 X100.969 Y107.194 E29.41046
G1 X101.65 Y107.364 E29.45715
G1 X102.147 Y107.425 E29.49046
G1 X102.854 Y107.425 E29.53749
