;FLAVOR:Marlin
;TIME:1222
;Filament used: 2.15581m
;Layer height: 0.3
;MINX:74.81
;MINY:74.794
;MINZ:0.15
;MAXX:130.206
;MAXY:130.185
;MAXZ:50.85
;Generated with Cura_SteamEngine 5.0.0
M140 S55
M105
M190 S55
M104 S245
M105
M109 S245
M82 ;absolute extrusion mode
G21 ;metric values
G90 ;absolute positioning
M82 ;set extruder to absolute mode
M107 ;start with the fan off

M206 X5 Y9 ;set home offsets

G28 X0 Y0 ;move X/Y to min endstops
G28 Z0 ;move Z to min endstops
G1 Z15.0 F9000 ;move the platform down 15mm
G92 E0 ;zero the extruded length
G1 F200 E3 ;extrude 3mm of feed stock
G92 E0 ;zero the extruded length again
G1 F9000

;M301 D121.72 I2.14 P32.30
M301 D17.09 I0.93 P78.40

;Set max printing acceleration
M201 X100 Y100
;Set max travel acceleration
M202 X300 Y300
;Set max jerk
M556 X10 Y10
;Set max feedrate
M203 X1000 Y1000


;Put printing message on LCD screen
M117 Printing...
G92 E0
G92 E0
G1 F1500 E-1
;LAYER_COUNT:134
;LAYER:0
M107
G1 F600 Z1.15
G0 F3600 X82.866 Y82.961 Z1.15
G1 F600 Z0.15
G0 F3600 X79.365 Y88.327
G0 X76.385 Y93.279
;TYPE:SKIRT
G1 F1500 E0
G1 F1800 X76.743 Y92.321 E0.07653
G1 X77.138 Y91.374 E0.15332
G1 X77.565 Y90.448 E0.22963
G1 X78.027 Y89.532 E0.30641
G1 X78.523 Y88.636 E0.38305
G1 X79.051 Y87.76 E0.45959
G1 X79.611 Y86.904 E0.53614
G1 X80.204 Y86.067 E0.6129
G1 X80.826 Y85.255 E0.68945
G1 X81.477 Y84.467 E0.76594
G1 X82.157 Y83.702 E0.84254
G1 X82.866 Y82.961 E0.91928
G1 X83.6 Y82.25 E0.99576
G1 X84.362 Y81.564 E1.07249
G1 X85.146 Y80.908 E1.14899
G1 X85.957 Y80.281 E1.2257
G1 X86.788 Y79.686 E1.30219
G1 X87.642 Y79.12 E1.37886
G1 X88.516 Y78.587 E1.45547
G1 X89.408 Y78.086 E1.53203
G1 X90.319 Y77.618 E1.60867
G1 X91.247 Y77.185 E1.68531
G1 X92.189 Y76.787 E1.76184
G1 X93.146 Y76.423 E1.83846
G1 X94.11 Y76.096 E1.91464
G1 X94.956 Y75.839 E1.98081
G1 X96.085 Y75.548 E2.06806
G1 X97.089 Y75.327 E2.14499
G1 X98.096 Y75.146 E2.22156
G1 X99.109 Y75.002 E2.29813
G1 X100.128 Y74.895 E2.3748
G1 X101.148 Y74.826 E2.45131
G1 X102.171 Y74.794 E2.5279
G1 X103.196 Y74.8 E2.60461
G1 X104.216 Y74.845 E2.68102
G1 X105.238 Y74.927 E2.75775
G1 X106.254 Y75.046 E2.8343
G1 X107.264 Y75.203 E2.91079
G1 X108.274 Y75.397 E2.98775
G1 X109.269 Y75.63 E3.06423
G1 X110.255 Y75.898 E3.1407
G1 X111.235 Y76.203 E3.2175
G1 X112.197 Y76.543 E3.29386
G1 X113.153 Y76.919 E3.37074
G1 X114.087 Y77.33 E3.4471
G1 X115.01 Y77.775 E3.52378
G1 X115.915 Y78.253 E3.60037
G1 X116.804 Y78.766 E3.67719
G1 X117.668 Y79.31 E3.75359
G1 X118.509 Y79.882 E3.82971
G1 X119.224 Y80.402 E3.89587
G1 X120.14 Y81.13 E3.98343
G1 X120.912 Y81.791 E4.05949
G1 X121.566 Y82.388 E4.12575
G1 X122.393 Y83.211 E4.21307
G1 X123.096 Y83.961 E4.28999
G1 X123.764 Y84.733 E4.36639
G1 X124.406 Y85.53 E4.44298
G1 X125.02 Y86.352 E4.51976
G1 X125.598 Y87.193 E4.59613
G1 X126.15 Y88.058 E4.67292
G1 X126.666 Y88.942 E4.74952
G1 X127.146 Y89.836 E4.82545
G1 X127.54 Y90.629 E4.89172
G1 X128.015 Y91.697 E4.97919
G1 X128.394 Y92.641 E5.05532
G1 X128.698 Y93.47 E5.1214
G1 X129.054 Y94.587 E5.20913
G1 X129.327 Y95.567 E5.28526
G1 X129.535 Y96.424 E5.35126
G1 X129.765 Y97.572 E5.43887
G1 X129.929 Y98.584 E5.5156
G1 X130.053 Y99.599 E5.59212
G1 X130.141 Y100.611 E5.66814
G1 X130.19 Y101.492 E5.73417
G1 X130.206 Y102.666 E5.82203
G1 X130.18 Y103.687 E5.89847
G1 X130.116 Y104.711 E5.97525
G1 X130.015 Y105.726 E6.05158
G1 X129.877 Y106.743 E6.12838
G1 X129.702 Y107.752 E6.20502
G1 X129.488 Y108.753 E6.28162
G1 X129.238 Y109.744 E6.35811
G1 X128.952 Y110.729 E6.43487
G1 X128.63 Y111.699 E6.51135
G1 X128.271 Y112.659 E6.58805
G1 X127.877 Y113.605 E6.66474
G1 X127.45 Y114.534 E6.74125
G1 X126.988 Y115.445 E6.8177
G1 X126.492 Y116.342 E6.8944
G1 X125.965 Y117.218 E6.97091
G1 X125.404 Y118.075 E7.04756
G1 X124.813 Y118.911 E7.12418
G1 X124.19 Y119.726 E7.20095
G1 X123.543 Y120.508 E7.2769
G1 X122.96 Y121.172 E7.34303
G1 X122.151 Y122.018 E7.43062
G1 X121.415 Y122.73 E7.50726
G1 X120.654 Y123.416 E7.58393
G1 X119.868 Y124.071 E7.6605
G1 X119.059 Y124.697 E7.73705
G1 X118.227 Y125.295 E7.81373
G1 X117.374 Y125.86 E7.89029
G1 X116.5 Y126.393 E7.9669
G1 X115.608 Y126.893 E8.04343
G1 X114.695 Y127.362 E8.12024
G1 X113.768 Y127.795 E8.19681
G1 X112.827 Y128.193 E8.27327
G1 X111.87 Y128.557 E8.34989
G1 X110.899 Y128.886 E8.42661
G1 X109.919 Y129.177 E8.50312
G1 X108.927 Y129.433 E8.57978
G1 X107.927 Y129.652 E8.65639
G1 X106.92 Y129.833 E8.73296
G1 X105.907 Y129.977 E8.80953
G1 X104.888 Y130.085 E8.88621
G1 X103.867 Y130.153 E8.96279
G1 X102.845 Y130.185 E9.03931
G1 X101.821 Y130.179 E9.11594
G1 X100.799 Y130.134 E9.1925
G1 X99.777 Y130.053 E9.26922
G1 X98.76 Y129.933 E9.34586
G1 X97.752 Y129.775 E9.42221
G1 X96.746 Y129.581 E9.49888
G1 X95.745 Y129.35 E9.57576
G1 X94.761 Y129.081 E9.6521
G1 X93.783 Y128.777 E9.72874
G1 X92.816 Y128.436 E9.80548
G1 X91.864 Y128.061 E9.88205
G1 X90.927 Y127.65 E9.95862
G1 X90.012 Y127.208 E10.03466
G1 X89.228 Y126.799 E10.10084
G1 X88.213 Y126.213 E10.18855
G1 X87.347 Y125.67 E10.26504
G1 X86.5 Y125.093 E10.34174
G1 X85.677 Y124.487 E10.41822
G1 X84.874 Y123.849 E10.49497
G1 X84.1 Y123.184 E10.57134
G1 X83.345 Y122.489 E10.64813
G1 X82.62 Y121.769 E10.7246
G1 X81.919 Y121.019 E10.80142
G1 X81.251 Y120.247 E10.87782
G1 X80.608 Y119.448 E10.95457
G1 X79.997 Y118.627 E11.03116
G1 X79.418 Y117.785 E11.10763
G1 X78.866 Y116.92 E11.18442
G1 X78.351 Y116.037 E11.26092
G1 X77.865 Y115.135 E11.33759
G1 X77.419 Y114.223 E11.41357
G1 X77.055 Y113.418 E11.47968
G1 X76.618 Y112.333 E11.56722
G1 X76.272 Y111.369 E11.64386
G1 X75.961 Y110.391 E11.72066
G1 X75.689 Y109.411 E11.79677
G1 X75.482 Y108.556 E11.86261
G1 X75.251 Y107.406 E11.95039
G1 X75.087 Y106.394 E12.02711
G1 X74.963 Y105.381 E12.10348
G1 X74.874 Y104.367 E12.17966
G1 X74.826 Y103.486 E12.24568
G1 X74.81 Y102.314 E12.3334
G1 X74.836 Y101.292 E12.40991
G1 X74.899 Y100.269 E12.48661
G1 X75.001 Y99.252 E12.5631
G1 X75.139 Y98.236 E12.63983
G1 X75.314 Y97.226 E12.71654
G1 X75.528 Y96.226 E12.79307
G1 X75.778 Y95.235 E12.86955
G1 X76.063 Y94.252 E12.94615
G1 X76.385 Y93.279 E13.02284
G1 F1500 E12.02284
G0 F3600 X75.431 Y100.334
G0 X75.345 Y102.328
G0 X75.61 Y102.333
G1 F1500 E13.02284
G1 F1800 X75.635 Y101.34 E13.09718
G1 X75.695 Y100.348 E13.17155
G1 X75.794 Y99.359 E13.24593
G1 X75.927 Y98.373 E13.32039
G1 X76.097 Y97.393 E13.39482
G1 X76.304 Y96.421 E13.46919
G1 X76.546 Y95.458 E13.5435
G1 X76.823 Y94.503 E13.61791
G1 X77.135 Y93.558 E13.69239
G1 X77.482 Y92.628 E13.76667
G1 X77.865 Y91.709 E13.84118
G1 X78.28 Y90.808 E13.91541
G1 X78.728 Y89.919 E13.98991
G1 X79.208 Y89.049 E14.06427
G1 X79.721 Y88.197 E14.1387
G1 X80.264 Y87.366 E14.21298
G1 X80.839 Y86.553 E14.2875
G1 X81.443 Y85.764 E14.36186
G1 X82.076 Y84.998 E14.43623
G1 X82.735 Y84.255 E14.51055
G1 X83.423 Y83.535 E14.58508
G1 X84.135 Y82.844 E14.65933
G1 X84.875 Y82.177 E14.73388
G1 X85.636 Y81.541 E14.8081
G1 X86.424 Y80.931 E14.88267
G1 X87.23 Y80.353 E14.9569
G1 X88.059 Y79.803 E15.03135
G1 X88.908 Y79.284 E15.10581
G1 X89.774 Y78.797 E15.18017
G1 X90.658 Y78.343 E15.25454
G1 X91.559 Y77.922 E15.32896
G1 X92.474 Y77.534 E15.40334
G1 X93.403 Y77.18 E15.47773
G1 X94.343 Y76.861 E15.55202
G1 X95.156 Y76.614 E15.61561
G1 X96.258 Y76.329 E15.70079
G1 X97.231 Y76.114 E15.77536
G1 X98.209 Y75.938 E15.84972
G1 X99.193 Y75.797 E15.92411
G1 X100.183 Y75.693 E15.99861
G1 X101.173 Y75.625 E16.07287
G1 X102.167 Y75.594 E16.14729
G1 X103.161 Y75.599 E16.22168
G1 X104.153 Y75.642 E16.29599
G1 X105.145 Y75.722 E16.37046
G1 X106.131 Y75.837 E16.44475
G1 X107.114 Y75.989 E16.51919
G1 X108.093 Y76.176 E16.59378
G1 X109.06 Y76.402 E16.66809
G1 X110.018 Y76.662 E16.74238
G1 X110.969 Y76.958 E16.81692
G1 X111.905 Y77.288 E16.89119
G1 X112.832 Y77.652 E16.96572
G1 X113.74 Y78.051 E17.03994
G1 X114.637 Y78.482 E17.11441
G1 X115.516 Y78.946 E17.18879
G1 X116.378 Y79.443 E17.26326
G1 X117.219 Y79.972 E17.33761
G1 X118.039 Y80.529 E17.41179
G1 X118.727 Y81.029 E17.47544
G1 X119.62 Y81.738 E17.56077
G1 X120.373 Y82.382 E17.63492
G1 X121.002 Y82.955 E17.69859
G1 X121.81 Y83.758 E17.78384
G1 X122.491 Y84.485 E17.85839
G1 X123.141 Y85.236 E17.93272
G1 X123.765 Y86.009 E18.00706
G1 X124.361 Y86.806 E18.08154
G1 X124.924 Y87.624 E18.15585
G1 X125.459 Y88.462 E18.23025
G1 X125.961 Y89.321 E18.30471
G1 X126.43 Y90.193 E18.3788
G1 X126.809 Y90.955 E18.44249
G1 X127.273 Y91.996 E18.52778
G1 X127.643 Y92.917 E18.60206
G1 X127.936 Y93.713 E18.66554
G1 X128.283 Y94.802 E18.75107
G1 X128.55 Y95.757 E18.82528
G1 X128.751 Y96.582 E18.88882
G1 X128.976 Y97.7 E18.97417
G1 X129.135 Y98.682 E19.04861
G1 X129.256 Y99.668 E19.12295
G1 X129.342 Y100.656 E19.19717
G1 X129.39 Y101.503 E19.26066
G1 X129.406 Y102.647 E19.34628
G1 X129.381 Y103.638 E19.42046
G1 X129.32 Y104.632 E19.49499
G1 X129.222 Y105.619 E19.56921
G1 X129.089 Y106.606 E19.64374
G1 X128.919 Y107.585 E19.7181
G1 X128.712 Y108.558 E19.79255
G1 X128.47 Y109.521 E19.86686
G1 X128.193 Y110.477 E19.94134
G1 X127.88 Y111.42 E20.0157
G1 X127.532 Y112.352 E20.09015
G1 X127.15 Y113.271 E20.16463
G1 X126.736 Y114.173 E20.2389
G1 X126.287 Y115.059 E20.31323
G1 X125.807 Y115.93 E20.38765
G1 X125.295 Y116.781 E20.46198
G1 X124.751 Y117.614 E20.53643
G1 X124.177 Y118.426 E20.61085
G1 X123.573 Y119.217 E20.68532
G1 X122.942 Y119.981 E20.75948
G1 X122.381 Y120.619 E20.82306
G1 X121.594 Y121.444 E20.90838
G1 X120.88 Y122.136 E20.98279
G1 X120.141 Y122.802 E21.05724
G1 X119.378 Y123.439 E21.13162
G1 X118.592 Y124.048 E21.20603
G1 X117.784 Y124.628 E21.28046
G1 X116.957 Y125.177 E21.35475
G1 X116.108 Y125.696 E21.42921
G1 X115.242 Y126.182 E21.50353
G1 X114.356 Y126.637 E21.57807
G1 X113.455 Y127.058 E21.65249
G1 X112.542 Y127.446 E21.72673
G1 X111.613 Y127.8 E21.80113
G1 X110.671 Y128.119 E21.87555
G1 X109.718 Y128.402 E21.94995
G1 X108.756 Y128.652 E22.02433
G1 X107.785 Y128.865 E22.09873
G1 X106.807 Y129.041 E22.17309
G1 X105.822 Y129.182 E22.24755
G1 X104.834 Y129.287 E22.32191
G1 X103.842 Y129.354 E22.39631
G1 X102.849 Y129.385 E22.47066
G1 X101.855 Y129.38 E22.54505
G1 X100.862 Y129.337 E22.61943
G1 X99.87 Y129.258 E22.6939
G1 X98.883 Y129.142 E22.76827
G1 X97.903 Y128.99 E22.84249
G1 X96.925 Y128.802 E22.91702
G1 X95.955 Y128.578 E22.99152
G1 X94.998 Y128.317 E23.06575
G1 X94.048 Y128.022 E23.14019
G1 X93.109 Y127.692 E23.21468
G1 X92.185 Y127.328 E23.289
G1 X91.274 Y126.929 E23.36342
G1 X90.381 Y126.499 E23.4376
G1 X89.627 Y126.106 E23.50123
G1 X88.638 Y125.535 E23.58669
G1 X87.796 Y125.008 E23.66102
G1 X86.974 Y124.449 E23.73541
G1 X86.174 Y123.86 E23.80976
G1 X85.395 Y123.242 E23.88417
G1 X84.641 Y122.595 E23.95852
G1 X83.908 Y121.921 E24.03304
G1 X83.204 Y121.222 E24.10729
G1 X82.524 Y120.495 E24.18178
G1 X81.874 Y119.744 E24.25611
G1 X81.249 Y118.97 E24.33056
G1 X80.656 Y118.173 E24.4049
G1 X80.092 Y117.354 E24.47932
G1 X79.557 Y116.516 E24.55372
G1 X79.055 Y115.658 E24.62811
G1 X78.584 Y114.783 E24.70248
G1 X78.148 Y113.892 E24.77671
G1 X77.797 Y113.119 E24.84024
G1 X77.371 Y112.062 E24.92553
G1 X77.034 Y111.126 E24.99997
G1 X76.732 Y110.177 E25.0745
G1 X76.466 Y109.222 E25.14869
G1 X76.266 Y108.398 E25.21214
G1 X76.04 Y107.278 E25.29765
G1 X75.881 Y106.296 E25.37209
G1 X75.76 Y105.311 E25.44636
G1 X75.673 Y104.323 E25.52058
G1 X75.626 Y103.475 E25.58414
G1 X75.61 Y102.333 E25.66961
G1 F1500 E24.66961
G0 F3600 X78.212 Y102.034
G1 F1500 E25.66961
G1 F1800 X78.212 Y102.958 E25.73876
G1 X78.245 Y103.843 E25.80504
G1 X78.318 Y104.796 E25.87656
G1 X78.417 Y105.665 E25.94201
G1 X78.557 Y106.593 E26.01225
G1 X78.729 Y107.494 E26.08089
G1 X78.929 Y108.368 E26.14799
G1 X79.169 Y109.258 E26.21697
G1 X79.447 Y110.149 E26.28682
G1 X79.737 Y110.975 E26.35233
G1 X80.081 Y111.844 E26.42227
G1 X80.459 Y112.704 E26.49258
G1 X80.845 Y113.498 E26.55864
G1 X81.275 Y114.307 E26.62721
G1 X81.745 Y115.113 E26.69703
G1 X82.222 Y115.869 E26.76393
G1 X82.745 Y116.627 E26.83284
G1 X83.292 Y117.363 E26.90147
G1 X83.863 Y118.075 E26.96977
G1 X84.464 Y118.765 E27.03825
G1 X85.071 Y119.415 E27.1048
G1 X85.754 Y120.09 E27.17666
G1 X86.394 Y120.679 E27.24175
G1 X87.102 Y121.282 E27.31135
G1 X87.843 Y121.865 E27.38191
G1 X88.556 Y122.384 E27.4479
G1 X89.327 Y122.904 E27.5175
G1 X90.08 Y123.371 E27.58381
G1 X90.898 Y123.835 E27.65418
G1 X91.713 Y124.259 E27.72294
G1 X92.533 Y124.647 E27.79082
G1 X93.376 Y125.008 E27.85945
G1 X94.224 Y125.334 E27.92744
G1 X95.085 Y125.628 E27.99552
G1 X95.967 Y125.892 E28.06442
G1 X96.87 Y126.126 E28.13423
G1 X97.757 Y126.32 E28.20218
G1 X98.654 Y126.482 E28.27039
G1 X99.529 Y126.605 E28.33652
G1 X100.48 Y126.704 E28.40807
G1 X101.352 Y126.762 E28.47347
G1 X102.297 Y126.789 E28.54422
G1 X103.19 Y126.78 E28.61105
G1 X104.115 Y126.736 E28.68035
G1 X105.028 Y126.659 E28.74892
G1 X105.928 Y126.547 E28.81679
G1 X106.825 Y126.403 E28.88478
G1 X107.751 Y126.217 E28.95546
G1 X108.584 Y126.019 E29.01953
G1 X109.506 Y125.76 E29.0912
G1 X110.374 Y125.481 E29.15943
G1 X111.227 Y125.172 E29.22732
G1 X112.079 Y124.826 E29.29614
G1 X112.908 Y124.451 E29.36423
G1 X113.741 Y124.038 E29.43381
G1 X114.525 Y123.61 E29.50066
G1 X115.318 Y123.138 E29.56972
G1 X116.084 Y122.644 E29.63793
G1 X116.83 Y122.118 E29.70624
G1 X117.58 Y121.551 E29.7766
G1 X118.253 Y120.998 E29.84178
G1 X118.962 Y120.371 E29.91261
G1 X119.605 Y119.757 E29.97915
G1 X120.26 Y119.084 E30.04943
G1 X120.858 Y118.419 E30.11635
G1 X121.437 Y117.726 E30.18393
G1 X122.021 Y116.97 E30.25542
G1 X122.536 Y116.249 E30.32173
G1 X123.048 Y115.475 E30.39118
G1 X123.518 Y114.699 E30.45907
G1 X123.96 Y113.906 E30.52701
G1 X124.373 Y113.091 E30.59539
G1 X124.767 Y112.235 E30.66591
G1 X125.108 Y111.417 E30.73223
G1 X125.429 Y110.558 E30.80085
G1 X125.716 Y109.689 E30.86934
G1 X125.977 Y108.788 E30.93954
G1 X126.188 Y107.941 E31.00486
G1 X126.384 Y107.005 E31.07643
G1 X126.534 Y106.125 E31.14323
G1 X126.653 Y105.225 E31.21117
G1 X126.741 Y104.288 E31.2816
G1 X126.79 Y103.406 E31.3477
G1 X126.808 Y102.484 E31.41672
G1 X126.79 Y101.562 E31.48573
G1 X126.741 Y100.681 E31.55176
G1 X126.652 Y99.747 E31.62197
G1 X126.531 Y98.837 E31.69067
G1 X126.374 Y97.918 E31.76044
G1 X126.193 Y97.053 E31.82658
G1 X125.97 Y96.162 E31.89531
G1 X125.707 Y95.26 E31.96562
G1 X125.434 Y94.433 E32.0308
G1 X125.103 Y93.546 E32.10165
G1 X124.763 Y92.732 E32.16766
G1 X124.38 Y91.903 E32.236
G1 X123.954 Y91.065 E32.30635
G1 X123.5 Y90.251 E32.3761
G1 X123.033 Y89.482 E32.44343
G1 X122.546 Y88.744 E32.5096
G1 X121.986 Y87.962 E32.58158
G1 X121.441 Y87.257 E32.64827
G1 X120.861 Y86.565 E32.71584
G1 X120.242 Y85.877 E32.78509
G1 X119.595 Y85.213 E32.85447
G1 X118.961 Y84.607 E32.92011
G1 X118.24 Y83.97 E32.9921
G1 X117.558 Y83.412 E33.05805
G1 X116.817 Y82.85 E33.12765
G1 X116.082 Y82.334 E33.19485
G1 X115.305 Y81.833 E33.26404
G1 X114.519 Y81.366 E33.33246
G1 X113.732 Y80.937 E33.39953
G1 X112.879 Y80.515 E33.47075
G1 X112.071 Y80.152 E33.53704
G1 X111.226 Y79.808 E33.60532
G1 X110.356 Y79.491 E33.67461
G1 X109.5 Y79.218 E33.74185
G1 X108.608 Y78.97 E33.81113
G1 X107.72 Y78.756 E33.87949
G1 X106.801 Y78.573 E33.94961
G1 X105.907 Y78.429 E34.01738
G1 X105.026 Y78.321 E34.0838
G1 X104.1 Y78.243 E34.15335
G1 X103.179 Y78.2 E34.22234
G1 X102.285 Y78.191 E34.28925
G1 X101.337 Y78.218 E34.36022
G1 X100.447 Y78.277 E34.42697
G1 X99.551 Y78.37 E34.49439
G1 X98.642 Y78.5 E34.5631
G1 X97.731 Y78.665 E34.63239
G1 X96.857 Y78.854 E34.6993
G1 X95.951 Y79.091 E34.76939
G1 X95.101 Y79.346 E34.8358
G1 X94.206 Y79.652 E34.90658
G1 X93.353 Y79.98 E34.97497
G1 X92.53 Y80.332 E35.04196
G1 X91.684 Y80.734 E35.11205
G1 X90.905 Y81.139 E35.17776
G1 X90.088 Y81.605 E35.24815
G1 X89.309 Y82.086 E35.31666
G1 X88.555 Y82.595 E35.38474
G1 X87.826 Y83.127 E35.45228
G1 X87.091 Y83.706 E35.5223
G1 X86.387 Y84.307 E35.59157
G1 X85.735 Y84.905 E35.65778
G1 X85.096 Y85.54 E35.72519
G1 X84.439 Y86.241 E35.79709
G1 X83.87 Y86.896 E35.86202
G1 X83.279 Y87.631 E35.9326
G1 X82.752 Y88.342 E35.99883
G1 X82.219 Y89.117 E36.06922
G1 X81.736 Y89.879 E36.13673
G1 X81.271 Y90.68 E36.20605
G1 X80.84 Y91.489 E36.27464
G1 X80.455 Y92.287 E36.34095
G1 X80.079 Y93.142 E36.41085
G1 X79.725 Y94.041 E36.48315
G1 X79.437 Y94.861 E36.54819
