;FLAVOR:Marlin
;TIME:10740
;Filament used: 11.4819m
;Layer height: 0.23
;MINX:49.225
;MINY:74.225
;MINZ:0.1
;MAXX:150.775
;MAXY:125.775
;MAXZ:30
;Generated with Cura_SteamEngine 4.12.1
M140 S60
M105
M190 S60
M104 S210
M105
M109 S210
M82 ;absolute extrusion mode
G21 ;metric values
G90 ;absolute positioning
M82 ;set extruder to absolute mode
M107 ;start with the fan off

M206 X0 Y0;set home offsets

G28 X0 Y0 ;move X/Y to min endstops
G28 Z0 ;move Z to min endstops
G1 Z15.0 F9000 ;move the platform down 15mm
G92 E0 ;zero the extruded length
G1 F200 E3 ;extrude 3mm of feed stock
G92 E0 ;zero the extruded length again
G1 F9000

M301 D121.72 I2.14 P32.30

;Set max printing acceleration
M201 X200 Y200
;Set max travel acceleration
M202 X500 Y500
;Set max jerk
M556 X10 Y10
;Set max feedrate
M203 X1000 Y1000


;Put printing message on LCD screen
M117 Printing...
G92 E0
G92 E0
G1 F1500 E-1
;LAYER_COUNT:131
;LAYER:0
M107
M204 S5000
M205 X30 Y30
G0 F1440 X49.803 Y74.289 Z0.1
M204 S100
M205 X10 Y10
;TYPE:SKIRT
G1 F1500 E0
G1 F1200 X50.091 Y74.225 E0.01689
G1 X149.909 Y74.225 E5.73137
G1 X150.137 Y74.265 E5.74462
G1 X150.386 Y74.423 E5.76151
G1 X150.711 Y74.803 E5.79013
G1 X150.775 Y75.091 E5.80702
G1 X150.775 Y124.909 E8.65905
G1 X150.735 Y125.137 E8.67231
G1 X150.577 Y125.386 E8.68919
G1 X150.197 Y125.711 E8.71781
G1 X149.909 Y125.775 E8.7347
G1 X50.091 Y125.775 E14.44919
G1 X49.863 Y125.735 E14.46244
G1 X49.614 Y125.577 E14.47932
G1 X49.289 Y125.197 E14.50795
G1 X49.225 Y124.909 E14.52484
G1 X49.225 Y75.091 E17.37687
G1 X49.265 Y74.863 E17.39012
G1 X49.423 Y74.614 E17.407
G1 X49.803 Y74.289 E17.43563
M204 S5000
M205 X30 Y30
G0 F1440 X49.932 Y74.741
M204 S100
M205 X10 Y10
G1 F1200 X50.091 Y74.675 E17.44548
G1 X149.909 Y74.675 E23.15996
G1 X150.068 Y74.741 E23.16982
G1 X150.259 Y74.932 E23.18528
G1 X150.325 Y75.091 E23.19514
G1 X150.325 Y124.909 E26.04717
G1 X150.259 Y125.068 E26.05703
G1 X150.068 Y125.259 E26.07249
G1 X149.909 Y125.325 E26.08235
G1 X50.091 Y125.325 E31.79683
G1 X49.932 Y125.259 E31.80668
G1 X49.741 Y125.068 E31.82215
G1 X49.675 Y124.909 E31.832
G1 X49.675 Y75.091 E34.68403
G1 X49.741 Y74.932 E34.69389
G1 X49.932 Y74.741 E34.70935
M204 S5000
M205 X30 Y30
G1 F1500 E33.70935
;MESH:Bit Holder 5-10-3.3mf
G0 F1440 X149.705 Y75.325
G1 F1500 E34.70935
G0 F1440 X149.775 Y75.225
M204 S100
M205 X10 Y10
;TYPE:WALL-OUTER
G1 F1200 X149.775 Y124.775 E36.37799
G1 X50.225 Y124.775 E39.73043
G1 X50.225 Y75.225 E41.39907
G1 X149.775 Y75.225 E44.7515
M204 S5000
M205 X30 Y30
G0 F1440 X149.335 Y75.665
M204 S100
M205 X10 Y10
;TYPE:SKIN
G1 F1200 X149.335 Y124.335 E46.39051
G1 X50.665 Y124.335 E49.71331
G1 X50.665 Y75.665 E51.35231
G1 X149.335 Y75.665 E54.67511
M204 S5000
M205 X30 Y30
G0 F1440 X149.124 Y75.939
M204 S100
M205 X10 Y10
G1 F1200 X149.06 Y75.875 E54.67816
M204 S5000
M205 X30 Y30
G0 F1440 X148.424 Y75.875
M204 S100
M205 X10 Y10
G1 F1200 X149.124 Y76.575 E54.7115
M204 S5000
M205 X30 Y30
G0 F1440 X149.124 Y77.211
M204 S100
M205 X10 Y10
G1 F1200 X147.788 Y75.875 E54.77512
M204 S5000
M205 X30 Y30
G0 F1440 X147.151 Y75.875
M204 S100
M205 X10 Y10
G1 F1200 X149.124 Y77.848 E54.86909
M204 S5000
M205 X30 Y30
G0 F1440 X149.124 Y78.484
M204 S100
M205 X10 Y10
G1 F1200 X146.515 Y75.875 E54.99334
M204 S5000
M205 X30 Y30
G0 F1440 X145.878 Y75.875
M204 S100
M205 X10 Y10
G1 F1200 X149.124 Y79.121 E55.14793
M204 S5000
M205 X30 Y30
G0 F1440 X149.124 Y79.757
M204 S100
M205 X10 Y10
G1 F1200 X145.242 Y75.875 E55.33281
M204 S5000
M205 X30 Y30
G0 F1440 X144.606 Y75.875
M204 S100
M205 X10 Y10
G1 F1200 X149.124 Y80.393 E55.54798
M204 S5000
M205 X30 Y30
G0 F1440 X149.124 Y81.03
M204 S100
M205 X10 Y10
G1 F1200 X143.969 Y75.875 E55.79349
M204 S5000
M205 X30 Y30
G0 F1440 X143.333 Y75.875
M204 S100
M205 X10 Y10
G1 F1200 X149.124 Y81.666 E56.06928
M204 S5000
M205 X30 Y30
G0 F1440 X149.124 Y82.302
M204 S100
M205 X10 Y10
G1 F1200 X142.696 Y75.875 E56.37539
M204 S5000
M205 X30 Y30
G0 F1440 X142.06 Y75.875
M204 S100
M205 X10 Y10
G1 F1200 X149.124 Y82.939 E56.71181
M204 S5000
M205 X30 Y30
G0 F1440 X149.124 Y83.575
M204 S100
M205 X10 Y10
G1 F1200 X141.424 Y75.875 E57.07853
M204 S5000
M205 X30 Y30
G0 F1440 X140.787 Y75.875
M204 S100
M205 X10 Y10
G1 F1200 X149.124 Y84.212 E57.47558
M204 S5000
M205 X30 Y30
G0 F1440 X149.124 Y84.848
M204 S100
M205 X10 Y10
G1 F1200 X140.151 Y75.875 E57.90291
M204 S5000
M205 X30 Y30
G0 F1440 X139.514 Y75.875
M204 S100
M205 X10 Y10
G1 F1200 X149.124 Y85.484 E58.36057
M204 S5000
M205 X30 Y30
G0 F1440 X149.124 Y86.121
M204 S100
M205 X10 Y10
G1 F1200 X138.878 Y75.875 E58.84853
M204 S5000
M205 X30 Y30
G0 F1440 X138.242 Y75.875
M204 S100
M205 X10 Y10
G1 F1200 X149.124 Y86.757 E59.36678
M204 S5000
M205 X30 Y30
G0 F1440 X149.124 Y87.394
M204 S100
M205 X10 Y10
G1 F1200 X137.605 Y75.875 E59.91537
M204 S5000
M205 X30 Y30
G0 F1440 X136.969 Y75.875
M204 S100
M205 X10 Y10
G1 F1200 X149.124 Y88.03 E60.49426
M204 S5000
M205 X30 Y30
G0 F1440 X149.124 Y88.666
M204 S100
M205 X10 Y10
G1 F1200 X136.333 Y75.875 E61.10343
M204 S5000
M205 X30 Y30
G0 F1440 X135.696 Y75.875
M204 S100
M205 X10 Y10
G1 F1200 X149.124 Y89.303 E61.74293
M204 S5000
M205 X30 Y30
G0 F1440 X149.124 Y89.939
M204 S100
M205 X10 Y10
G1 F1200 X135.06 Y75.875 E62.41273
M204 S5000
M205 X30 Y30
G0 F1440 X134.423 Y75.875
M204 S100
M205 X10 Y10
G1 F1200 X149.124 Y90.576 E63.11286
M204 S5000
M205 X30 Y30
G0 F1440 X149.124 Y91.212
M204 S100
M205 X10 Y10
G1 F1200 X133.787 Y75.875 E63.84329
M204 S5000
M205 X30 Y30
G0 F1440 X133.151 Y75.875
M204 S100
M205 X10 Y10
G1 F1200 X149.124 Y91.848 E64.604
M204 S5000
M205 X30 Y30
G0 F1440 X149.124 Y92.485
M204 S100
M205 X10 Y10
G1 F1200 X132.514 Y75.875 E65.39505
M204 S5000
M205 X30 Y30
G0 F1440 X131.878 Y75.875
M204 S100
M205 X10 Y10
G1 F1200 X149.124 Y93.121 E66.21639
M204 S5000
M205 X30 Y30
G0 F1440 X149.124 Y93.758
M204 S100
M205 X10 Y10
G1 F1200 X131.241 Y75.875 E67.06806
M204 S5000
M205 X30 Y30
G0 F1440 X130.605 Y75.875
M204 S100
M205 X10 Y10
G1 F1200 X149.124 Y94.394 E67.95003
M204 S5000
M205 X30 Y30
G0 F1440 X149.124 Y95.03
M204 S100
M205 X10 Y10
G1 F1200 X129.969 Y75.875 E68.86228
M204 S5000
M205 X30 Y30
G0 F1440 X129.332 Y75.875
M204 S100
M205 X10 Y10
G1 F1200 X149.124 Y95.667 E69.80488
M204 S5000
M205 X30 Y30
G0 F1440 X149.124 Y96.303
M204 S100
M205 X10 Y10
G1 F1200 X128.696 Y75.875 E70.77776
M204 S5000
M205 X30 Y30
G0 F1440 X128.059 Y75.875
M204 S100
M205 X10 Y10
G1 F1200 X149.124 Y96.94 E71.78097
M204 S5000
M205 X30 Y30
G0 F1440 X149.124 Y97.576
M204 S100
M205 X10 Y10
G1 F1200 X127.423 Y75.875 E72.81448
M204 S5000
M205 X30 Y30
G0 F1440 X126.787 Y75.875
M204 S100
M205 X10 Y10
G1 F1200 X149.124 Y98.212 E73.87828
M204 S5000
M205 X30 Y30
G0 F1440 X149.124 Y98.849
M204 S100
M205 X10 Y10
G1 F1200 X126.15 Y75.875 E74.97241
M204 S5000
M205 X30 Y30
G0 F1440 X125.514 Y75.875
M204 S100
M205 X10 Y10
G1 F1200 X149.124 Y99.485 E76.09684
M204 S5000
M205 X30 Y30
G0 F1440 X149.124 Y100.122
M204 S100
M205 X10 Y10
G1 F1200 X124.877 Y75.875 E77.2516
M204 S5000
M205 X30 Y30
G0 F1440 X124.241 Y75.875
M204 S100
M205 X10 Y10
G1 F1200 X149.124 Y100.758 E78.43665
M204 S5000
M205 X30 Y30
G0 F1440 X149.124 Y101.394
M204 S100
M205 X10 Y10
G1 F1200 X123.605 Y75.875 E79.65199
M204 S5000
M205 X30 Y30
G0 F1440 X122.968 Y75.875
M204 S100
M205 X10 Y10
G1 F1200 X149.124 Y102.031 E80.89767
M204 S5000
M205 X30 Y30
G0 F1440 X149.124 Y102.667
M204 S100
M205 X10 Y10
G1 F1200 X122.332 Y75.875 E82.17363
M204 S5000
M205 X30 Y30
G0 F1440 X121.695 Y75.875
M204 S100
M205 X10 Y10
G1 F1200 X149.124 Y103.304 E83.47994
M204 S5000
M205 X30 Y30
G0 F1440 X149.124 Y103.94
M204 S100
M205 X10 Y10
G1 F1200 X121.059 Y75.875 E84.81653
M204 S5000
M205 X30 Y30
G0 F1440 X120.423 Y75.875
M204 S100
M205 X10 Y10
G1 F1200 X149.124 Y104.576 E86.18341
M204 S5000
M205 X30 Y30
G0 F1440 X149.124 Y105.213
M204 S100
M205 X10 Y10
G1 F1200 X119.786 Y75.875 E87.58063
M204 S5000
M205 X30 Y30
G0 F1440 X119.15 Y75.875
M204 S100
M205 X10 Y10
G1 F1200 X149.124 Y105.849 E89.00814
M204 S5000
M205 X30 Y30
G0 F1440 X149.124 Y106.486
M204 S100
M205 X10 Y10
G1 F1200 X118.513 Y75.875 E90.46598
M204 S5000
M205 X30 Y30
G0 F1440 X117.877 Y75.875
M204 S100
M205 X10 Y10
G1 F1200 X149.124 Y107.122 E91.95412
M204 S5000
M205 X30 Y30
G0 F1440 X149.124 Y107.758
M204 S100
M205 X10 Y10
G1 F1200 X117.241 Y75.875 E93.47254
M204 S5000
M205 X30 Y30
G0 F1440 X116.604 Y75.875
M204 S100
M205 X10 Y10
G1 F1200 X149.124 Y108.395 E95.0213
M204 S5000
M205 X30 Y30
G0 F1440 X149.124 Y109.031
M204 S100
M205 X10 Y10
G1 F1200 X115.968 Y75.875 E96.60036
M204 S5000
M205 X30 Y30
G0 F1440 X115.331 Y75.875
M204 S100
M205 X10 Y10
G1 F1200 X149.124 Y109.668 E98.20974
M204 S5000
M205 X30 Y30
G0 F1440 X149.124 Y110.304
M204 S100
M205 X10 Y10
G1 F1200 X114.695 Y75.875 E99.84942
M204 S5000
M205 X30 Y30
G0 F1440 X114.059 Y75.875
M204 S100
M205 X10 Y10
G1 F1200 X149.124 Y110.94 E101.51939
M204 S5000
M205 X30 Y30
G0 F1440 X149.124 Y111.577
M204 S100
M205 X10 Y10
G1 F1200 X113.422 Y75.875 E103.21969
M204 S5000
M205 X30 Y30
G0 F1440 X112.786 Y75.875
M204 S100
M205 X10 Y10
G1 F1200 X149.124 Y112.213 E104.95029
M204 S5000
M205 X30 Y30
G0 F1440 X149.124 Y112.849
M204 S100
M205 X10 Y10
G1 F1200 X112.149 Y75.875 E106.71119
M204 S5000
M205 X30 Y30
G0 F1440 X111.513 Y75.875
M204 S100
M205 X10 Y10
G1 F1200 X149.124 Y113.486 E108.50241
M204 S5000
M205 X30 Y30
G0 F1440 X149.124 Y114.122
M204 S100
M205 X10 Y10
G1 F1200 X110.877 Y75.875 E110.32392
M204 S5000
M205 X30 Y30
G0 F1440 X110.24 Y75.875
M204 S100
M205 X10 Y10
G1 F1200 X149.124 Y114.759 E112.17577
M204 S5000
M205 X30 Y30
G0 F1440 X149.124 Y115.395
M204 S100
M205 X10 Y10
G1 F1200 X109.604 Y75.875 E114.0579
M204 S5000
M205 X30 Y30
G0 F1440 X108.967 Y75.875
M204 S100
M205 X10 Y10
G1 F1200 X149.124 Y116.031 E115.97035
M204 S5000
M205 X30 Y30
G0 F1440 X149.124 Y116.668
M204 S100
M205 X10 Y10
G1 F1200 X108.331 Y75.875 E117.91312
M204 S5000
M205 X30 Y30
G0 F1440 X107.695 Y75.875
M204 S100
M205 X10 Y10
G1 F1200 X149.124 Y117.304 E119.88617
M204 S5000
M205 X30 Y30
G0 F1440 X149.124 Y117.941
M204 S100
M205 X10 Y10
G1 F1200 X107.058 Y75.875 E121.88956
M204 S5000
M205 X30 Y30
G0 F1440 X106.422 Y75.875
M204 S100
M205 X10 Y10
G1 F1200 X149.124 Y118.577 E123.92323
M204 S5000
M205 X30 Y30
G0 F1440 X149.124 Y119.213
M204 S100
M205 X10 Y10
G1 F1200 X105.786 Y75.875 E125.9872
M204 S5000
M205 X30 Y30
G0 F1440 X105.149 Y75.875
M204 S100
M205 X10 Y10
G1 F1200 X149.124 Y119.85 E128.08151
M204 S5000
M205 X30 Y30
G0 F1440 X149.124 Y120.486
M204 S100
M205 X10 Y10
G1 F1200 X104.513 Y75.875 E130.2061
M204 S5000
M205 X30 Y30
G0 F1440 X103.876 Y75.875
M204 S100
M205 X10 Y10
G1 F1200 X149.124 Y121.123 E132.36103
M204 S5000
M205 X30 Y30
G0 F1440 X149.124 Y121.759
M204 S100
M205 X10 Y10
G1 F1200 X103.24 Y75.875 E134.54625
M204 S5000
M205 X30 Y30
G0 F1440 X102.604 Y75.875
M204 S100
M205 X10 Y10
G1 F1200 X149.124 Y122.395 E136.76176
M204 S5000
M205 X30 Y30
G0 F1440 X149.124 Y123.032
M204 S100
M205 X10 Y10
G1 F1200 X101.967 Y75.875 E139.00761
M204 S5000
M205 X30 Y30
G0 F1440 X101.331 Y75.875
M204 S100
M205 X10 Y10
G1 F1200 X149.124 Y123.668 E141.28375
M204 S5000
M205 X30 Y30
G0 F1440 X148.943 Y124.124
M204 S100
M205 X10 Y10
G1 F1200 X100.694 Y75.875 E143.5816
M204 S5000
M205 X30 Y30
G0 F1440 X100.058 Y75.875
M204 S100
M205 X10 Y10
G1 F1200 X148.307 Y124.124 E145.87945
M204 S5000
M205 X30 Y30
G0 F1440 X147.67 Y124.124
M204 S100
M205 X10 Y10
G1 F1200 X99.421 Y75.874 E148.17733
M204 S5000
M205 X30 Y30
G0 F1440 X98.784 Y75.874
M204 S100
M205 X10 Y10
G1 F1200 X147.034 Y124.124 E150.47523
M204 S5000
M205 X30 Y30
G0 F1440 X146.397 Y124.124
M204 S100
M205 X10 Y10
G1 F1200 X98.148 Y75.874 E152.77311
M204 S5000
M205 X30 Y30
G0 F1440 X97.512 Y75.874
M204 S100
M205 X10 Y10
G1 F1200 X145.761 Y124.124 E155.07099
M204 S5000
M205 X30 Y30
G0 F1440 X145.125 Y124.124
M204 S100
M205 X10 Y10
G1 F1200 X96.875 Y75.874 E157.36889
M204 S5000
M205 X30 Y30
G0 F1440 X96.239 Y75.874
M204 S100
M205 X10 Y10
G1 F1200 X144.488 Y124.124 E159.66677
M204 S5000
M205 X30 Y30
G0 F1440 X143.852 Y124.124
M204 S100
M205 X10 Y10
G1 F1200 X95.602 Y75.874 E161.96467
M204 S5000
M205 X30 Y30
G0 F1440 X94.966 Y75.874
M204 S100
M205 X10 Y10
G1 F1200 X143.215 Y124.124 E164.26255
M204 S5000
M205 X30 Y30
G0 F1440 X142.579 Y124.124
M204 S100
M205 X10 Y10
G1 F1200 X94.33 Y75.874 E166.56042
M204 S5000
M205 X30 Y30
G0 F1440 X93.693 Y75.874
M204 S100
M205 X10 Y10
G1 F1200 X141.943 Y124.124 E168.85832
M204 S5000
M205 X30 Y30
G0 F1440 X141.306 Y124.124
M204 S100
M205 X10 Y10
G1 F1200 X93.057 Y75.874 E171.1562
M204 S5000
M205 X30 Y30
G0 F1440 X92.42 Y75.874
M204 S100
M205 X10 Y10
G1 F1200 X140.67 Y124.124 E173.4541
M204 S5000
M205 X30 Y30
G0 F1440 X140.034 Y124.124
M204 S100
M205 X10 Y10
G1 F1200 X91.784 Y75.874 E175.752
M204 S5000
M205 X30 Y30
G0 F1440 X91.148 Y75.874
M204 S100
M205 X10 Y10
G1 F1200 X139.397 Y124.124 E178.04988
M204 S5000
M205 X30 Y30
G0 F1440 X138.761 Y124.124
M204 S100
M205 X10 Y10
G1 F1200 X90.511 Y75.874 E180.34778
M204 S5000
M205 X30 Y30
G0 F1440 X89.875 Y75.874
M204 S100
M205 X10 Y10
G1 F1200 X138.124 Y124.124 E182.64566
M204 S5000
M205 X30 Y30
G0 F1440 X137.488 Y124.124
M204 S100
M205 X10 Y10
G1 F1200 X89.238 Y75.874 E184.94356
M204 S5000
M205 X30 Y30
G0 F1440 X88.602 Y75.874
M204 S100
M205 X10 Y10
G1 F1200 X136.852 Y124.124 E187.24146
M204 S5000
M205 X30 Y30
G0 F1440 X136.215 Y124.124
M204 S100
M205 X10 Y10
G1 F1200 X87.966 Y75.874 E189.53934
M204 S5000
M205 X30 Y30
G0 F1440 X87.329 Y75.874
M204 S100
M205 X10 Y10
G1 F1200 X135.579 Y124.124 E191.83724
M204 S5000
M205 X30 Y30
G0 F1440 X134.942 Y124.124
M204 S100
M205 X10 Y10
G1 F1200 X86.693 Y75.874 E194.13512
M204 S5000
M205 X30 Y30
G0 F1440 X86.057 Y75.874
M204 S100
M205 X10 Y10
G1 F1200 X134.306 Y124.124 E196.433
M204 S5000
M205 X30 Y30
G0 F1440 X133.67 Y124.124
M204 S100
M205 X10 Y10
G1 F1200 X85.42 Y75.874 E198.7309
M204 S5000
M205 X30 Y30
G0 F1440 X84.784 Y75.874
M204 S100
M205 X10 Y10
G1 F1200 X133.033 Y124.124 E201.02877
M204 S5000
M205 X30 Y30
G0 F1440 X132.397 Y124.124
M204 S100
M205 X10 Y10
G1 F1200 X84.147 Y75.874 E203.32668
M204 S5000
M205 X30 Y30
G0 F1440 X83.511 Y75.874
M204 S100
M205 X10 Y10
G1 F1200 X131.76 Y124.124 E205.62455
M204 S5000
M205 X30 Y30
G0 F1440 X131.124 Y124.124
M204 S100
M205 X10 Y10
G1 F1200 X82.875 Y75.874 E207.92243
M204 S5000
M205 X30 Y30
G0 F1440 X82.238 Y75.874
M204 S100
M205 X10 Y10
G1 F1200 X130.488 Y124.124 E210.22033
M204 S5000
M205 X30 Y30
G0 F1440 X129.851 Y124.124
M204 S100
M205 X10 Y10
G1 F1200 X81.602 Y75.874 E212.51821
M204 S5000
M205 X30 Y30
G0 F1440 X80.965 Y75.874
M204 S100
M205 X10 Y10
G1 F1200 X129.215 Y124.124 E214.81611
M204 S5000
M205 X30 Y30
G0 F1440 X128.578 Y124.124
M204 S100
M205 X10 Y10
G1 F1200 X80.329 Y75.874 E217.11399
M204 S5000
M205 X30 Y30
G0 F1440 X79.693 Y75.874
M204 S100
M205 X10 Y10
G1 F1200 X127.942 Y124.124 E219.41187
M204 S5000
M205 X30 Y30
G0 F1440 X127.306 Y124.124
M204 S100
M205 X10 Y10
G1 F1200 X79.056 Y75.874 E221.70977
M204 S5000
M205 X30 Y30
G0 F1440 X78.42 Y75.874
M204 S100
M205 X10 Y10
G1 F1200 X126.669 Y124.124 E224.00764
M204 S5000
M205 X30 Y30
G0 F1440 X126.033 Y124.124
M204 S100
M205 X10 Y10
G1 F1200 X77.783 Y75.874 E226.30555
M204 S5000
M205 X30 Y30
G0 F1440 X77.147 Y75.874
M204 S100
M205 X10 Y10
G1 F1200 X125.396 Y124.124 E228.60342
M204 S5000
M205 X30 Y30
G0 F1440 X124.76 Y124.124
M204 S100
M205 X10 Y10
G1 F1200 X76.511 Y75.874 E230.9013
M204 S5000
M205 X30 Y30
G0 F1440 X75.874 Y75.874
M204 S100
M205 X10 Y10
G1 F1200 X124.124 Y124.124 E233.1992
M204 S5000
M205 X30 Y30
G0 F1440 X123.487 Y124.124
M204 S100
M205 X10 Y10
G1 F1200 X75.238 Y75.874 E235.49708
M204 S5000
M205 X30 Y30
G0 F1440 X74.601 Y75.874
M204 S100
M205 X10 Y10
G1 F1200 X122.851 Y124.124 E237.79498
M204 S5000
M205 X30 Y30
G0 F1440 X122.214 Y124.124
M204 S100
M205 X10 Y10
G1 F1200 X73.965 Y75.874 E240.09286
M204 S5000
M205 X30 Y30
G0 F1440 X73.329 Y75.874
M204 S100
M205 X10 Y10
G1 F1200 X121.578 Y124.124 E242.39073
M204 S5000
M205 X30 Y30
G0 F1440 X120.942 Y124.124
M204 S100
M205 X10 Y10
G1 F1200 X72.692 Y75.874 E244.68864
M204 S5000
M205 X30 Y30
G0 F1440 X72.056 Y75.874
