;FLAVOR:Marlin
;TIME:6458
;Filament used: 5.32163m
;Layer height: 0.23
;MINX:49.225
;MINY:74.225
;MINZ:0.1
;MAXX:150.775
;MAXY:125.775
;MAXZ:20.11
;Generated with Cura_SteamEngine 4.12.1
M140 S60
M105
M190 S60
M104 S210
M105
M109 S210
M82 ;absolute extrusion mode
G21 ;metric values
G90 ;absolute positioning
M82 ;set extruder to absolute mode
M107 ;start with the fan off

M206 X0 Y0;set home offsets

G28 X0 Y0 ;move X/Y to min endstops
G28 Z0 ;move Z to min endstops
G1 Z15.0 F9000 ;move the platform down 15mm
G92 E0 ;zero the extruded length
G1 F200 E3 ;extrude 3mm of feed stock
G92 E0 ;zero the extruded length again
G1 F9000

M301 D121.72 I2.14 P32.30

;Set max printing acceleration
M201 X200 Y200
;Set max travel acceleration
M202 X500 Y500
;Set max jerk
M556 X10 Y10
;Set max feedrate
M203 X1000 Y1000


;Put printing message on LCD screen
M117 Printing...
G92 E0
G92 E0
G1 F1500 E-1
;LAYER_COUNT:88
;LAYER:0
M107
M204 S5000
M205 X30 Y30
G0 F1440 X49.803 Y74.289 Z0.1
M204 S100
M205 X10 Y10
;TYPE:SKIRT
G1 F1500 E0
G1 F1200 X50.091 Y74.225 E0.01689
G1 X149.909 Y74.225 E5.73137
G1 X150.137 Y74.265 E5.74462
G1 X150.386 Y74.423 E5.76151
G1 X150.711 Y74.803 E5.79013
G1 X150.775 Y75.091 E5.80702
G1 X150.775 Y124.909 E8.65905
G1 X150.735 Y125.137 E8.67231
G1 X150.577 Y125.386 E8.68919
G1 X150.197 Y125.711 E8.71781
G1 X149.909 Y125.775 E8.7347
G1 X50.091 Y125.775 E14.44919
G1 X49.863 Y125.735 E14.46244
G1 X49.614 Y125.577 E14.47932
G1 X49.289 Y125.197 E14.50795
G1 X49.225 Y124.909 E14.52484
G1 X49.225 Y75.091 E17.37687
G1 X49.265 Y74.863 E17.39012
G1 X49.423 Y74.614 E17.407
G1 X49.803 Y74.289 E17.43563
M204 S5000
M205 X30 Y30
G0 F1440 X49.932 Y74.741
M204 S100
M205 X10 Y10
G1 F1200 X50.091 Y74.675 E17.44548
G1 X149.909 Y74.675 E23.15996
G1 X150.068 Y74.741 E23.16982
G1 X150.259 Y74.932 E23.18528
G1 X150.325 Y75.091 E23.19514
G1 X150.325 Y124.909 E26.04717
G1 X150.259 Y125.068 E26.05703
G1 X150.068 Y125.259 E26.07249
G1 X149.909 Y125.325 E26.08235
G1 X50.091 Y125.325 E31.79683
G1 X49.932 Y125.259 E31.80668
G1 X49.741 Y125.068 E31.82215
G1 X49.675 Y124.909 E31.832
G1 X49.675 Y75.091 E34.68403
G1 X49.741 Y74.932 E34.69389
G1 X49.932 Y74.741 E34.70935
M204 S5000
M205 X30 Y30
G1 F1500 E33.70935
;MESH:?????????1.3mf
G0 F1440 X146.84 Y75.644
M204 S100
M205 X10 Y10
;TYPE:FILL
G1 F1500 E34.70935
G1 F1200 X98.13 Y124.354 E37.02916
G1 X101.868 Y124.354 E37.15504
G1 X53.158 Y75.644 E39.47485
G1 X56.897 Y75.644 E39.60076
G1 X50.645 Y81.896 E39.89852
G1 X50.645 Y80.626 E39.94128
G1 X94.372 Y124.353 E42.02378
G1 X90.635 Y124.354 E42.14962
G1 X139.345 Y75.644 E44.46943
G1 X135.608 Y75.645 E44.59528
G1 X149.354 Y89.391 E45.24993
G1 X149.354 Y88.121 E45.2927
G1 X113.12 Y124.355 E47.01834
G1 X116.859 Y124.354 E47.14425
G1 X68.149 Y75.644 E49.46406
G1 X71.888 Y75.644 E49.58998
G1 X50.645 Y96.887 E50.60167
G1 X50.645 Y95.617 E50.64444
G1 X79.381 Y124.353 E52.01299
G1 X75.644 Y124.354 E52.13884
G1 X124.354 Y75.644 E54.45865
G1 X120.617 Y75.645 E54.58449
G1 X149.354 Y104.382 E55.95309
G1 X149.354 Y103.112 E55.99586
G1 X128.111 Y124.355 E57.00755
G1 X131.849 Y124.354 E57.13343
G1 X83.14 Y75.644 E59.45322
G1 X86.878 Y75.644 E59.5791
G1 X50.645 Y111.877 E61.30469
G1 X50.645 Y110.607 E61.34746
G1 X64.391 Y124.353 E62.00211
G1 X60.654 Y124.354 E62.12796
G1 X109.363 Y75.644 E64.44774
G1 X105.626 Y75.645 E64.57359
G1 X149.354 Y119.373 E66.65613
G1 X149.354 Y118.103 E66.6989
G1 X143.102 Y124.355 E66.99665
G1 X146.84 Y124.354 E67.12253
G1 X98.13 Y75.644 E69.44234
G1 X101.868 Y75.644 E69.56822
G1 X53.158 Y124.354 E71.88803
G1 X56.895 Y124.353 E72.01388
G1 X50.645 Y118.103 E72.31153
G1 X50.645 Y119.373 E72.3543
G1 X94.374 Y75.644 E74.43689
G1 X90.635 Y75.644 E74.5628
G1 X139.345 Y124.354 E76.88261
G1 X135.606 Y124.355 E77.00853
G1 X149.354 Y110.607 E77.66327
G1 X149.354 Y111.877 E77.70604
G1 X113.122 Y75.645 E79.43159
G1 X116.859 Y75.644 E79.55743
G1 X68.149 Y124.354 E81.87724
G1 X71.886 Y124.353 E82.00309
G1 X50.645 Y103.112 E83.01469
G1 X50.645 Y104.382 E83.05746
G1 X79.383 Y75.644 E84.4261
G1 X75.644 Y75.644 E84.55202
G1 X124.354 Y124.354 E86.87183
G1 X120.616 Y124.355 E86.99771
G1 X149.354 Y95.617 E88.36635
G1 X149.354 Y96.887 E88.40912
G1 X128.112 Y75.645 E89.42077
G1 X131.849 Y75.644 E89.54661
G1 X83.14 Y124.354 E91.8664
G1 X86.877 Y124.353 E91.99224
G1 X50.645 Y88.121 E93.71779
G1 X50.645 Y89.391 E93.76056
G1 X64.392 Y75.644 E94.41526
G1 X60.654 Y75.644 E94.54114
G1 X109.363 Y124.354 E96.86092
G1 X105.625 Y124.355 E96.9868
G1 X149.354 Y80.626 E99.06939
G1 X149.354 Y81.896 E99.11216
G1 X143.103 Y75.645 E99.40986
G1 X149.355 Y75.645 E99.62041
G1 X149.43 Y75.645
M204 S5000
M205 X30 Y30
G0 F1440 X149.775 Y75.225
M204 S100
M205 X10 Y10
;TYPE:WALL-OUTER
G1 F1200 X149.775 Y124.775 E101.28905
G1 X50.225 Y124.775 E104.64148
G1 X50.225 Y75.225 E106.31012
G1 X149.775 Y75.225 E109.66256
M204 S5000
M205 X30 Y30
G0 F1440 X149.325 Y75.543
;MESH:NONMESH
G0 F600 X149.325 Y75.543 Z0.33
G0 F1440 X147.066 Y75.419
;TIME_ELAPSED:159.486262
;LAYER:1
M106 S51
M204 S100
M205 X10 Y10
;TYPE:FILL
;MESH:?????????1.3mf
G1 F3600 X97.905 Y124.58 E111.65699
G1 X102.093 Y124.579 E111.77713
G1 X52.934 Y75.42 E113.77148
G1 X57.122 Y75.419 E113.89162
G1 X50.42 Y82.121 E114.16351
G1 X50.419 Y80.4 E114.21288
G1 X94.598 Y124.579 E116.0052
G1 X90.409 Y124.58 E116.12536
G1 X139.57 Y75.419 E118.11979
G1 X135.382 Y75.42 E118.23994
G1 X149.579 Y89.617 E118.8159
G1 X149.579 Y87.896 E118.86527
G1 X112.895 Y124.58 E120.35351
G1 X117.084 Y124.579 E120.47368
G1 X67.924 Y75.42 E122.46805
G1 X72.112 Y75.419 E122.58819
G1 X50.42 Y97.111 E123.46822
G1 X50.419 Y95.391 E123.51757
G1 X79.607 Y124.579 E124.7017
G1 X75.419 Y124.58 E124.82184
G1 X124.58 Y75.419 E126.81627
G1 X120.392 Y75.42 E126.93642
G1 X149.579 Y104.607 E128.12051
G1 X149.579 Y102.887 E128.16985
G1 X127.886 Y124.58 E129.04993
G1 X132.074 Y124.579 E129.17007
G1 X82.915 Y75.42 E131.16442
G1 X87.103 Y75.419 E131.28456
G1 X50.42 Y112.102 E132.77276
G1 X50.419 Y110.382 E132.8221
G1 X64.616 Y124.579 E133.39807
G1 X60.428 Y124.58 E133.51821
G1 X109.589 Y75.419 E135.51264
G1 X105.401 Y75.42 E135.63278
G1 X149.579 Y119.598 E137.42505
G1 X149.579 Y117.878 E137.47439
G1 X142.877 Y124.58 E137.74629
G1 X147.065 Y124.579 E137.86643
G1 X97.906 Y75.42 E139.86078
G1 X102.094 Y75.419 E139.98092
G1 X52.933 Y124.58 E141.97535
G1 X57.121 Y124.579 E142.09549
G1 X50.419 Y117.877 E142.36738
G1 X50.42 Y119.597 E142.41673
G1 X94.598 Y75.419 E144.209
G1 X90.41 Y75.42 E144.32914
G1 X139.57 Y124.579 E146.32351
G1 X135.381 Y124.58 E146.44368
G1 X149.579 Y110.382 E147.01968
G1 X149.579 Y112.103 E147.06905
G1 X112.896 Y75.42 E148.55726
G1 X117.084 Y75.419 E148.6774
G1 X67.923 Y124.58 E150.67183
G1 X72.112 Y124.579 E150.792
G1 X50.419 Y102.886 E151.67207
G1 X50.42 Y104.607 E151.72144
G1 X79.608 Y75.419 E152.90558
G1 X75.42 Y75.42 E153.02572
G1 X124.579 Y124.579 E155.02007
G1 X120.391 Y124.58 E155.14021
G1 X149.579 Y95.392 E156.32435
G1 X149.579 Y97.112 E156.37369
G1 X127.887 Y75.42 E157.25372
G1 X132.075 Y75.419 E157.37386
G1 X82.914 Y124.58 E159.36829
G1 X87.102 Y124.579 E159.48843
G1 X50.419 Y87.896 E160.97663
G1 X50.42 Y89.616 E161.02598
G1 X64.617 Y75.419 E161.60194
G1 X60.429 Y75.42 E161.72208
G1 X109.588 Y124.579 E163.71643
G1 X105.4 Y124.58 E163.83657
G1 X149.579 Y80.401 E165.62888
G1 X149.579 Y82.121 E165.67822
G1 X142.877 Y75.42 E165.9501
G1 X149.58 Y75.42 E166.14239
G1 X149.655 Y75.42
M204 S5000
M205 X30 Y30
G0 F4320 X149.85 Y75.15
M204 S100
M205 X10 Y10
;TYPE:WALL-OUTER
G1 F2100 X149.85 Y124.85 E167.56812
G1 X50.15 Y124.85 E170.42821
G1 X50.15 Y75.15 E171.85394
G1 X149.85 Y75.15 E174.71402
M204 S5000
M205 X30 Y30
G0 F4320 X149.55 Y75.362
;MESH:NONMESH
G0 F600 X149.55 Y75.362 Z0.56
G0 F4320 X147.066 Y75.419
;TIME_ELAPSED:228.089058
;LAYER:2
M204 S100
M205 X10 Y10
;TYPE:FILL
;MESH:?????????1.3mf
G1 F6000 X97.905 Y124.58 E176.70845
G1 X102.093 Y124.579 E176.82859
G1 X52.934 Y75.42 E178.82294
G1 X57.122 Y75.419 E178.94308
G1 X50.42 Y82.121 E179.21498
G1 X50.419 Y80.4 E179.26435
G1 X94.598 Y124.579 E181.05666
G1 X90.409 Y124.58 E181.17683
G1 X139.57 Y75.419 E183.17126
G1 X135.382 Y75.42 E183.2914
G1 X149.579 Y89.617 E183.86737
G1 X149.579 Y87.896 E183.91674
G1 X112.895 Y124.58 E185.40498
G1 X117.084 Y124.579 E185.52515
G1 X67.924 Y75.42 E187.51952
G1 X72.112 Y75.419 E187.63966
G1 X50.42 Y97.111 E188.51969
G1 X50.419 Y95.391 E188.56903
G1 X79.607 Y124.579 E189.75317
G1 X75.419 Y124.58 E189.87331
G1 X124.58 Y75.419 E191.86774
G1 X120.392 Y75.42 E191.98788
G1 X149.579 Y104.607 E193.17198
G1 X149.579 Y102.887 E193.22132
G1 X127.886 Y124.58 E194.10139
G1 X132.074 Y124.579 E194.22153
G1 X82.915 Y75.42 E196.21588
G1 X87.103 Y75.419 E196.33602
G1 X50.42 Y112.102 E197.82423
G1 X50.419 Y110.382 E197.87357
G1 X64.616 Y124.579 E198.44953
G1 X60.428 Y124.58 E198.56967
G1 X109.589 Y75.419 E200.5641
G1 X105.401 Y75.42 E200.68424
G1 X149.579 Y119.598 E202.47652
G1 X149.579 Y117.878 E202.52586
G1 X142.877 Y124.58 E202.79775
G1 X147.065 Y124.579 E202.9179
G1 X97.906 Y75.42 E204.91224
G1 X102.094 Y75.419 E205.03239
G1 X52.933 Y124.58 E207.02682
G1 X57.121 Y124.579 E207.14696
G1 X50.419 Y117.877 E207.41885
G1 X50.42 Y119.597 E207.46819
G1 X94.598 Y75.419 E209.26047
G1 X90.41 Y75.42 E209.38061
G1 X139.57 Y124.579 E211.37498
G1 X135.381 Y124.58 E211.49515
G1 X149.579 Y110.382 E212.07115
G1 X149.579 Y112.103 E212.12052
G1 X112.896 Y75.42 E213.60872
G1 X117.084 Y75.419 E213.72887
G1 X67.923 Y124.58 E215.7233
G1 X72.112 Y124.579 E215.84346
G1 X50.419 Y102.886 E216.72354
G1 X50.42 Y104.607 E216.77291
G1 X79.608 Y75.419 E217.95704
G1 X75.42 Y75.42 E218.07718
G1 X124.579 Y124.579 E220.07153
G1 X120.391 Y124.58 E220.19167
G1 X149.579 Y95.392 E221.37581
G1 X149.579 Y97.112 E221.42515
G1 X127.887 Y75.42 E222.30518
G1 X132.075 Y75.419 E222.42533
G1 X82.914 Y124.58 E224.41976
G1 X87.102 Y124.579 E224.5399
G1 X50.419 Y87.896 E226.0281
G1 X50.42 Y89.616 E226.07744
G1 X64.617 Y75.419 E226.65341
G1 X60.429 Y75.42 E226.77355
G1 X109.588 Y124.579 E228.7679
G1 X105.4 Y124.58 E228.88804
G1 X149.579 Y80.401 E230.68035
G1 X149.579 Y82.121 E230.72969
G1 X142.877 Y75.42 E231.00157
G1 X149.58 Y75.42 E231.19385
G1 X149.655 Y75.42
M204 S5000
M205 X30 Y30
G0 F7200 X149.85 Y75.15
M204 S100
M205 X10 Y10
;TYPE:WALL-OUTER
G1 F3000 X149.85 Y124.85 E232.61959
G1 X50.15 Y124.85 E235.47967
G1 X50.15 Y75.15 E236.90541
G1 X149.85 Y75.15 E239.76549
M204 S5000
M205 X30 Y30
G0 F7200 X149.55 Y75.362
;MESH:NONMESH
G0 F600 X149.55 Y75.362 Z0.79
G0 F7200 X147.066 Y75.419
;TIME_ELAPSED:293.055171
;LAYER:3
M204 S100
M205 X10 Y10
;TYPE:FILL
;MESH:?????????1.3mf
G1 F6000 X97.905 Y124.58 E241.75992
G1 X102.093 Y124.579 E241.88006
G1 X52.934 Y75.42 E243.87441
G1 X57.122 Y75.419 E243.99455
G1 X50.42 Y82.121 E244.26645
G1 X50.419 Y80.4 E244.31582
G1 X94.598 Y124.579 E246.10813
G1 X90.409 Y124.58 E246.2283
G1 X139.57 Y75.419 E248.22273
G1 X135.382 Y75.42 E248.34287
G1 X149.579 Y89.617 E248.91883
G1 X149.579 Y87.896 E248.9682
G1 X112.895 Y124.58 E250.45645
G1 X117.084 Y124.579 E250.57662
G1 X67.924 Y75.42 E252.57099
G1 X72.112 Y75.419 E252.69113
G1 X50.42 Y97.111 E253.57116
G1 X50.419 Y95.391 E253.6205
G1 X79.607 Y124.579 E254.80464
G1 X75.419 Y124.58 E254.92478
G1 X124.58 Y75.419 E256.91921
G1 X120.392 Y75.42 E257.03935
G1 X149.579 Y104.607 E258.22345
G1 X149.579 Y102.887 E258.27279
G1 X127.886 Y124.58 E259.15286
G1 X132.074 Y124.579 E259.273
G1 X82.915 Y75.42 E261.26735
G1 X87.103 Y75.419 E261.38749
G1 X50.42 Y112.102 E262.8757
G1 X50.419 Y110.382 E262.92504
G1 X64.616 Y124.579 E263.501
G1 X60.428 Y124.58 E263.62114
G1 X109.589 Y75.419 E265.61557
G1 X105.401 Y75.42 E265.73571
G1 X149.579 Y119.598 E267.52799
G1 X149.579 Y117.878 E267.57733
G1 X142.877 Y124.58 E267.84922
G1 X147.065 Y124.579 E267.96936
G1 X97.906 Y75.42 E269.96371
G1 X102.094 Y75.419 E270.08385
G1 X52.933 Y124.58 E272.07828
G1 X57.121 Y124.579 E272.19842
G1 X50.419 Y117.877 E272.47032
G1 X50.42 Y119.597 E272.51966
G1 X94.598 Y75.419 E274.31193
G1 X90.41 Y75.42 E274.43207
G1 X139.57 Y124.579 E276.42644
G1 X135.381 Y124.58 E276.54661
G1 X149.579 Y110.382 E277.12262
G1 X149.579 Y112.103 E277.17199
G1 X112.896 Y75.42 E278.66019
G1 X117.084 Y75.419 E278.78033
G1 X67.923 Y124.58 E280.77476
G1 X72.112 Y124.579 E280.89493
G1 X50.419 Y102.886 E281.775
G1 X50.42 Y104.607 E281.82437
G1 X79.608 Y75.419 E283.00851
G1 X75.42 Y75.42 E283.12865
G1 X124.579 Y124.579 E285.123
G1 X120.391 Y124.58 E285.24314
G1 X149.579 Y95.392 E286.42728
G1 X149.579 Y97.112 E286.47662
G1 X127.887 Y75.42 E287.35665
G1 X132.075 Y75.419 E287.47679
G1 X82.914 Y124.58 E289.47122
G1 X87.102 Y124.579 E289.59136
G1 X50.419 Y87.896 E291.07957
G1 X50.42 Y89.616 E291.12891
G1 X64.617 Y75.419 E291.70487
G1 X60.429 Y75.42 E291.82501
G1 X109.588 Y124.579 E293.81936
G1 X105.4 Y124.58 E293.9395
G1 X149.579 Y80.401 E295.73182
G1 X149.579 Y82.121 E295.78116
G1 X142.877 Y75.42 E296.05303
G1 X149.58 Y75.42 E296.24532
G1 X149.655 Y75.42
M204 S5000
M205 X30 Y30
G0 F7200 X149.85 Y75.15
M204 S100
M205 X10 Y10
;TYPE:WALL-OUTER
G1 F3000 X149.85 Y124.85 E297.67106
G1 X50.15 Y124.85 E300.53114
G1 X50.15 Y75.15 E301.95688
G1 X149.85 Y75.15 E304.81696
M204 S5000
M205 X30 Y30
G0 F7200 X149.55 Y75.362
;MESH:NONMESH
G0 F600 X149.55 Y75.362 Z1.02
G0 F7200 X147.066 Y75.419
;TIME_ELAPSED:358.021283
;LAYER:4
M204 S100
M205 X10 Y10
;TYPE:FILL
;MESH:?????????1.3mf
G1 F6000 X97.905 Y124.58 E306.81139
G1 X102.093 Y124.579 E306.93153
G1 X52.934 Y75.42 E308.92588
G1 X57.122 Y75.419 E309.04602
G1 X50.42 Y82.121 E309.31791
G1 X50.419 Y80.4 E309.36728
G1 X94.598 Y124.579 E311.1596
G1 X90.409 Y124.58 E311.27977
G1 X139.57 Y75.419 E313.2742
G1 X135.382 Y75.42 E313.39434
G1 X149.579 Y89.617 E313.9703
G1 X149.579 Y87.896 E314.01967
G1 X112.895 Y124.58 E315.50792
G1 X117.084 Y124.579 E315.62809
G1 X67.924 Y75.42 E317.62246
G1 X72.112 Y75.419 E317.7426
G1 X50.42 Y97.111 E318.62263
G1 X50.419 Y95.391 E318.67197
G1 X79.607 Y124.579 E319.85611
G1 X75.419 Y124.58 E319.97625
G1 X124.58 Y75.419 E321.97068
G1 X120.392 Y75.42 E322.09082
G1 X149.579 Y104.607 E323.27492
G1 X149.579 Y102.887 E323.32426
G1 X127.886 Y124.58 E324.20433
G1 X132.074 Y124.579 E324.32447
G1 X82.915 Y75.42 E326.31882
G1 X87.103 Y75.419 E326.43896
G1 X50.42 Y112.102 E327.92716
G1 X50.419 Y110.382 E327.97651
G1 X64.616 Y124.579 E328.55247
G1 X60.428 Y124.58 E328.67261
G1 X109.589 Y75.419 E330.66704
G1 X105.401 Y75.42 E330.78718
G1 X149.579 Y119.598 E332.57945
G1 X149.579 Y117.878 E332.62879
G1 X142.877 Y124.58 E332.90069
G1 X147.065 Y124.579 E333.02083
G1 X97.906 Y75.42 E335.01518
G1 X102.094 Y75.419 E335.13532
G1 X52.933 Y124.58 E337.12975
G1 X57.121 Y124.579 E337.24989
G1 X50.419 Y117.877 E337.52179
G1 X50.42 Y119.597 E337.57113
G1 X94.598 Y75.419 E339.3634
G1 X90.41 Y75.42 E339.48354
G1 X139.57 Y124.579 E341.47791
G1 X135.381 Y124.58 E341.59808
G1 X149.579 Y110.382 E342.17408
G1 X149.579 Y112.103 E342.22345
G1 X112.896 Y75.42 E343.71166
G1 X117.084 Y75.419 E343.8318
G1 X67.923 Y124.58 E345.82623
G1 X72.112 Y124.579 E345.9464
G1 X50.419 Y102.886 E346.82647
G1 X50.42 Y104.607 E346.87584
G1 X79.608 Y75.419 E348.05998
G1 X75.42 Y75.42 E348.18012
G1 X124.579 Y124.579 E350.17447
G1 X120.391 Y124.58 E350.29461
G1 X149.579 Y95.392 E351.47875
G1 X149.579 Y97.112 E351.52809
G1 X127.887 Y75.42 E352.40812
G1 X132.075 Y75.419 E352.52826
G1 X82.914 Y124.58 E354.52269
G1 X87.102 Y124.579 E354.64283
G1 X50.419 Y87.896 E356.13104
G1 X50.42 Y89.616 E356.18038
G1 X64.617 Y75.419 E356.75634
G1 X60.429 Y75.42 E356.87648
G1 X109.588 Y124.579 E358.87083
G1 X105.4 Y124.58 E358.99097
G1 X149.579 Y80.401 E360.78328
G1 X149.579 Y82.121 E360.83263
G1 X142.877 Y75.42 E361.1045
G1 X149.58 Y75.42 E361.29679
G1 X149.655 Y75.42
M204 S5000
M205 X30 Y30
G0 F7200 X149.85 Y75.15
M204 S100
M205 X10 Y10
;TYPE:WALL-OUTER
G1 F3000 X149.85 Y124.85 E362.72253
G1 X50.15 Y124.85 E365.58261
G1 X50.15 Y75.15 E367.00834
G1 X149.85 Y75.15 E369.86843
M204 S5000
M205 X30 Y30
G0 F7200 X149.55 Y75.362
;MESH:NONMESH
G0 F600 X149.55 Y75.362 Z1.25
G0 F7200 X147.066 Y75.419
;TIME_ELAPSED:422.987395
;LAYER:5
M204 S100
M205 X10 Y10
