;FLAVOR:Marlin
;TIME:1339
;Filament used: 3.05527m
;Layer height: 0.3
;MINX:68.824
;MINY:58.474
;MINZ:0.1
;MAXX:136.253
;MAXY:146.787
;MAXZ:10
;Generated with Cura_SteamEngine 5.0.0
M140 S60
M105
M190 S60
M104 S230
M105
M109 S230
M82 ;absolute extrusion mode
G21 ;metric values
G90 ;absolute positioning
M82 ;set extruder to absolute mode
M107 ;start with the fan off

M206 X5 Y9 ;set home offsets

G28 X0 Y0 ;move X/Y to min endstops
G28 Z0 ;move Z to min endstops
G1 Z15.0 F9000 ;move the platform down 15mm
G92 E0 ;zero the extruded length
G1 F200 E3 ;extrude 3mm of feed stock
G92 E0 ;zero the extruded length again
G1 F9000

M301 D121.72 I2.14 P32.30

;Set max printing acceleration
M201 X100 Y100
;Set max travel acceleration
M202 X300 Y300
;Set max jerk
M556 X10 Y10
;Set max feedrate
M203 X1000 Y1000


;Put printing message on LCD screen
M117 Printing...
G92 E0
G92 E0
G1 F1500 E-2
;LAYER_COUNT:32
;LAYER:0
M107
G1 F600 Z1.1
G0 F3600 X84.058 Y59.215 Z1.1
;TYPE:SKIRT
G1 F600 Z0.1
G1 F1500 E0
G1 F3000 X84.264 Y58.937 E0.01424
G1 X84.529 Y58.714 E0.0285
G1 X84.837 Y58.558 E0.04271
G1 X85.173 Y58.476 E0.05694
G1 X85.519 Y58.474 E0.07118
G1 X86.048 Y58.634 E0.09393
G1 X87.859 Y59.574 E0.17791
G1 X89.613 Y60.536 E0.26025
G1 X91.346 Y61.536 E0.34261
G1 X93.054 Y62.573 E0.42485
G1 X94.74 Y63.646 E0.5071
G1 X96.404 Y64.756 E0.58943
G1 X98.043 Y65.903 E0.67177
G1 X99.656 Y67.086 E0.7541
G1 X101.24 Y68.303 E0.83632
G1 X102.802 Y69.555 E0.91872
G1 X104.334 Y70.84 E1.00102
G1 X105.836 Y72.158 E1.08327
G1 X107.311 Y73.509 E1.16559
G1 X108.757 Y74.893 E1.24798
G1 X110.17 Y76.307 E1.33025
G1 X111.551 Y77.751 E1.41249
G1 X112.904 Y79.227 E1.49491
G1 X114.221 Y80.731 E1.57719
G1 X115.506 Y82.263 E1.65949
G1 X116.757 Y83.823 E1.7418
G1 X117.974 Y85.409 E1.82408
G1 X119.156 Y87.023 E1.90642
G1 X120.303 Y88.661 E1.98872
G1 X121.412 Y90.325 E2.07103
G1 X122.486 Y92.012 E2.15334
G1 X123.522 Y93.723 E2.23567
G1 X124.52 Y95.454 E2.31791
G1 X125.482 Y97.209 E2.40029
G1 X126.403 Y98.983 E2.48256
G1 X127.288 Y100.778 E2.56493
G1 X128.131 Y102.591 E2.64722
G1 X128.936 Y104.422 E2.72955
G1 X129.697 Y106.268 E2.81173
G1 X130.422 Y108.134 E2.89413
G1 X131.104 Y110.014 E2.97644
G1 X131.745 Y111.907 E3.0587
G1 X132.344 Y113.816 E3.14105
G1 X132.902 Y115.736 E3.22335
G1 X133.417 Y117.669 E3.30569
G1 X133.89 Y119.612 E3.38799
G1 X134.32 Y121.563 E3.47022
G1 X134.71 Y123.526 E3.5526
G1 X135.054 Y125.496 E3.63491
G1 X135.355 Y127.473 E3.71722
G1 X135.613 Y129.455 E3.79949
G1 X135.828 Y131.444 E3.88183
G1 X136 Y133.437 E3.96416
G1 X136.128 Y135.431 E4.0464
G1 X136.213 Y137.43 E4.12876
G1 X136.253 Y139.429 E4.21105
G1 X136.25 Y141.428 E4.29333
G1 X136.204 Y143.427 E4.37563
G1 X136.119 Y145.353 E4.45498
G1 X136.064 Y145.695 E4.46924
G1 X135.932 Y146.014 E4.48345
G1 X135.73 Y146.295 E4.49769
G1 X135.47 Y146.523 E4.51192
G1 X135.164 Y146.685 E4.52617
G1 X134.62 Y146.787 E4.54895
G1 X104.549 Y146.787 E5.78666
G1 X104.205 Y146.747 E5.80091
G1 X103.88 Y146.63 E5.81513
G1 X103.59 Y146.441 E5.82938
G1 X103.352 Y146.191 E5.84359
G1 X103.177 Y145.892 E5.85784
G1 X103.074 Y145.562 E5.87207
G1 X103.053 Y145.183 E5.8877
G1 X103.162 Y143.611 E5.95255
G1 X103.231 Y142.029 E6.01773
G1 X103.257 Y140.485 E6.08129
G1 X103.242 Y138.942 E6.1448
G1 X103.187 Y137.418 E6.20757
G1 X103.089 Y135.859 E6.27186
G1 X102.957 Y134.359 E6.33384
G1 X102.78 Y132.825 E6.3974
G1 X102.563 Y131.297 E6.46092
G1 X102.305 Y129.775 E6.52446
G1 X101.999 Y128.221 E6.58965
G1 X101.674 Y126.758 E6.65133
G1 X101.284 Y125.219 E6.71668
G1 X100.866 Y123.731 E6.7803
G1 X100.422 Y122.294 E6.8422
G1 X99.914 Y120.795 E6.90735
G1 X99.381 Y119.344 E6.97097
G1 X98.825 Y117.948 E7.03282
G1 X98.208 Y116.511 E7.09719
G1 X97.569 Y115.125 E7.16
G1 X96.877 Y113.718 E7.22454
G1 X96.161 Y112.36 E7.28773
G1 X95.395 Y110.994 E7.35219
G1 X94.623 Y109.701 E7.41417
G1 X93.779 Y108.362 E7.47932
G1 X92.942 Y107.113 E7.5412
G1 X92.026 Y105.821 E7.60639
G1 X91.1 Y104.585 E7.66996
G1 X90.142 Y103.375 E7.73348
G1 X89.176 Y102.218 E7.79552
G1 X88.147 Y101.049 E7.85962
G1 X87.08 Y99.9 E7.92416
G1 X86.018 Y98.815 E7.98665
G1 X84.881 Y97.716 E8.05173
G1 X83.783 Y96.707 E8.11311
G1 X82.588 Y95.667 E8.17831
G1 X81.428 Y94.708 E8.24026
G1 X80.193 Y93.74 E8.30485
G1 X78.956 Y92.825 E8.36818
G1 X77.689 Y91.938 E8.43183
G1 X76.407 Y91.088 E8.49515
G1 X75.113 Y90.279 E8.55796
G1 X73.748 Y89.476 E8.62314
G1 X72.433 Y88.748 E8.68501
G1 X71.04 Y88.024 E8.74962
G1 X69.665 Y87.353 E8.8126
G1 X69.374 Y87.167 E8.82681
G1 X69.133 Y86.919 E8.84105
G1 X68.956 Y86.622 E8.85528
G1 X68.851 Y86.292 E8.86953
G1 X68.824 Y85.947 E8.88377
G1 X68.877 Y85.606 E8.89798
G1 X69.024 Y85.255 E8.91364
G1 X84.058 Y59.215 E10.15123
G0 F3600 X84.578 Y59.515
G1 F3000 X84.744 Y59.306 E10.16222
G1 X84.965 Y59.155 E10.17324
G1 X85.221 Y59.075 E10.18427
G1 X85.488 Y59.075 E10.19526
G1 X85.772 Y59.166 E10.20754
G1 X87.57 Y60.101 E10.29095
G1 X89.313 Y61.056 E10.37276
G1 X91.035 Y62.049 E10.45457
G1 X92.732 Y63.079 E10.53628
G1 X94.407 Y64.145 E10.618
G1 X96.06 Y65.248 E10.69979
G1 X97.688 Y66.387 E10.78157
G1 X99.291 Y67.562 E10.86337
G1 X100.865 Y68.771 E10.94507
G1 X102.416 Y70.014 E11.02687
G1 X103.938 Y71.291 E11.10865
G1 X105.431 Y72.6 E11.19037
G1 X106.896 Y73.943 E11.27218
G1 X108.318 Y75.304 E11.35319
G1 X109.736 Y76.722 E11.43573
G1 X111.109 Y78.157 E11.51747
G1 X112.453 Y79.622 E11.5993
G1 X113.761 Y81.116 E11.68103
G1 X115.038 Y82.638 E11.76281
G1 X116.281 Y84.188 E11.84458
G1 X117.49 Y85.764 E11.92634
G1 X118.664 Y87.367 E12.00812
G1 X119.804 Y88.994 E12.08989
G1 X120.906 Y90.647 E12.17166
G1 X121.973 Y92.323 E12.25344
G1 X123.003 Y94.022 E12.33521
G1 X123.994 Y95.742 E12.41692
G1 X124.95 Y97.486 E12.49878
G1 X125.865 Y99.248 E12.58049
G1 X126.744 Y101.031 E12.66232
G1 X127.582 Y102.832 E12.74407
G1 X128.381 Y104.651 E12.82585
G1 X129.138 Y106.485 E12.90751
G1 X129.858 Y108.339 E12.98937
G1 X130.535 Y110.206 E13.07111
G1 X131.173 Y112.087 E13.15287
G1 X131.768 Y113.984 E13.2347
G1 X132.323 Y115.891 E13.31645
G1 X132.834 Y117.811 E13.39822
G1 X133.304 Y119.741 E13.47998
G1 X133.732 Y121.68 E13.56171
G1 X134.119 Y123.629 E13.6435
G1 X134.461 Y125.587 E13.72531
G1 X134.76 Y127.551 E13.80708
G1 X135.017 Y129.52 E13.88881
G1 X135.231 Y131.496 E13.97061
G1 X135.401 Y133.475 E14.05237
G1 X135.528 Y135.457 E14.13411
G1 X135.613 Y137.443 E14.21593
G1 X135.653 Y139.428 E14.29765
G1 X135.65 Y141.415 E14.37943
G1 X135.604 Y143.401 E14.4612
G1 X135.519 Y145.327 E14.54055
G1 X135.468 Y145.589 E14.55153
G1 X135.341 Y145.825 E14.56256
G1 X135.151 Y146.013 E14.57356
G1 X134.914 Y146.138 E14.58459
G1 X134.62 Y146.187 E14.59686
G1 X104.549 Y146.187 E15.83457
G1 X104.284 Y146.147 E15.8456
G1 X104.043 Y146.031 E15.85661
G1 X103.847 Y145.85 E15.86759
G1 X103.712 Y145.618 E15.87863
G1 X103.651 Y145.225 E15.895
G1 X103.763 Y143.614 E15.96147
G1 X103.83 Y142.077 E16.02479
G1 X103.857 Y140.496 E16.08988
G1 X103.842 Y138.937 E16.15405
G1 X103.787 Y137.401 E16.21731
G1 X103.689 Y135.844 E16.28152
G1 X103.55 Y134.266 E16.34672
G1 X103.371 Y132.717 E16.4109
G1 X103.151 Y131.173 E16.47509
G1 X102.894 Y129.659 E16.5383
G1 X102.592 Y128.126 E16.60261
G1 X102.254 Y126.606 E16.6667
G1 X101.871 Y125.094 E16.7309
G1 X101.443 Y123.569 E16.79609
G1 X100.983 Y122.078 E16.86032
G1 X100.49 Y120.624 E16.92351
G1 X99.944 Y119.137 E16.98871
G1 X99.367 Y117.689 E17.05286
G1 X98.751 Y116.255 E17.1171
G1 X98.107 Y114.86 E17.18034
G1 X97.408 Y113.439 E17.24552
G1 X96.682 Y112.062 E17.30959
G1 X95.93 Y110.721 E17.37287
G1 X95.119 Y109.361 E17.43805
G1 X94.299 Y108.062 E17.50128
G1 X93.418 Y106.746 E17.56646
G1 X92.516 Y105.474 E17.63064
G1 X91.595 Y104.245 E17.69385
G1 X90.612 Y103.003 E17.75905
G1 X89.626 Y101.822 E17.82237
G1 X88.581 Y100.635 E17.88746
G1 X87.536 Y99.509 E17.95069
G1 X86.446 Y98.395 E18.01484
G1 X85.298 Y97.285 E18.08057
G1 X84.177 Y96.254 E18.14325
G1 X82.982 Y95.214 E18.20846
G1 X81.78 Y94.221 E18.27263
G1 X80.57 Y93.273 E18.3359
G1 X79.298 Y92.332 E18.40102
G1 X78.04 Y91.451 E18.46424
G1 X76.739 Y90.588 E18.52849
G1 X75.418 Y89.762 E18.59262
G1 X74.053 Y88.959 E18.6578
G1 X72.71 Y88.216 E18.72098
G1 X71.304 Y87.485 E18.7862
G1 X69.928 Y86.814 E18.84921
G1 X69.708 Y86.662 E18.86022
G1 X69.542 Y86.452 E18.87123
G1 X69.445 Y86.203 E18.88223
G1 X69.426 Y85.936 E18.89325
G1 X69.544 Y85.555 E18.90967
G1 X84.578 Y59.515 E20.14726
G0 F3600 X85.097 Y59.815
G1 F3000 X85.206 Y59.706 E20.15361
G1 X85.354 Y59.665 E20.15993
G1 X85.495 Y59.699 E20.1659
G1 X87.282 Y60.627 E20.24878
G1 X89.013 Y61.575 E20.33001
G1 X90.724 Y62.562 E20.41131
G1 X92.41 Y63.585 E20.49248
G1 X94.074 Y64.644 E20.57366
G1 X95.716 Y65.739 E20.65489
G1 X97.333 Y66.871 E20.73614
G1 X98.926 Y68.038 E20.81742
G1 X100.49 Y69.239 E20.89858
G1 X102.031 Y70.474 E20.97986
G1 X103.543 Y71.742 E21.06108
G1 X105.026 Y73.043 E21.14228
G1 X106.481 Y74.376 E21.2235
G1 X107.903 Y75.737 E21.30452
G1 X109.303 Y77.137 E21.38601
G1 X110.667 Y78.562 E21.4672
G1 X112.002 Y80.017 E21.54847
G1 X113.302 Y81.502 E21.62971
G1 X114.57 Y83.013 E21.7109
G1 X115.805 Y84.553 E21.79215
G1 X117.006 Y86.119 E21.87338
G1 X118.173 Y87.711 E21.95462
G1 X119.305 Y89.327 E22.03583
G1 X120.4 Y90.969 E22.11706
G1 X121.46 Y92.634 E22.1983
G1 X122.483 Y94.322 E22.27954
G1 X123.468 Y96.031 E22.36073
G1 X124.417 Y97.763 E22.44202
G1 X125.327 Y99.513 E22.5232
G1 X126.2 Y101.284 E22.60447
G1 X127.033 Y103.073 E22.6857
G1 X127.826 Y104.88 E22.76692
G1 X128.579 Y106.702 E22.84806
G1 X129.294 Y108.544 E22.92939
G1 X129.967 Y110.399 E23.01061
G1 X130.6 Y112.267 E23.09179
G1 X131.192 Y114.151 E23.17307
G1 X131.743 Y116.046 E23.2543
G1 X132.251 Y117.953 E23.33553
G1 X132.718 Y119.87 E23.41674
G1 X133.143 Y121.797 E23.49796
G1 X133.528 Y123.732 E23.57917
G1 X133.868 Y125.678 E23.66047
G1 X134.165 Y127.628 E23.74166
G1 X134.42 Y129.585 E23.82289
G1 X134.633 Y131.547 E23.90412
G1 X134.802 Y133.514 E23.98538
G1 X134.929 Y135.482 E24.06655
G1 X135.013 Y137.455 E24.14783
G1 X135.053 Y139.427 E24.22901
G1 X135.05 Y141.401 E24.31026
G1 X135.005 Y143.374 E24.39149
G1 X134.92 Y145.3 E24.47084
G1 X134.874 Y145.447 E24.47718
G1 X134.761 Y145.552 E24.48353
G1 X134.62 Y145.587 E24.48951
G1 X104.549 Y145.587 E25.72721
G1 X104.4 Y145.548 E25.73355
G1 X104.291 Y145.44 E25.73987
G1 X104.25 Y145.266 E25.74723
G1 X104.361 Y143.663 E25.81336
G1 X104.43 Y142.081 E25.87854
G1 X104.457 Y140.506 E25.94338
G1 X104.442 Y138.931 E26.0082
G1 X104.385 Y137.356 E26.07307
G1 X104.287 Y135.791 E26.13761
G1 X104.148 Y134.213 E26.20281
G1 X103.967 Y132.648 E26.26766
G1 X103.745 Y131.088 E26.33251
G1 X103.481 Y129.535 E26.39735
G1 X103.178 Y127.996 E26.46191
G1 X102.84 Y126.476 E26.526
G1 X102.447 Y124.925 E26.59186
G1 X102.021 Y123.407 E26.65675
G1 X101.556 Y121.901 E26.72163
G1 X101.053 Y120.417 E26.78612
G1 X100.507 Y118.93 E26.85132
G1 X99.924 Y117.467 E26.91614
G1 X99.302 Y116.018 E26.98104
G1 X98.643 Y114.589 E27.04581
G1 X97.947 Y113.174 E27.11072
G1 X97.216 Y111.789 E27.17518
G1 X96.441 Y110.407 E27.24039
G1 X95.634 Y109.054 E27.30523
G1 X94.793 Y107.721 E27.37011
G1 X93.921 Y106.419 E27.4346
G1 X93.005 Y105.127 E27.49979
G1 X92.061 Y103.866 E27.56463
G1 X91.083 Y102.63 E27.6295
G1 X90.072 Y101.419 E27.69443
G1 X89.037 Y100.244 E27.75888
G1 X87.959 Y99.083 E27.82409
G1 X86.863 Y97.964 E27.88856
G1 X85.715 Y96.854 E27.95428
G1 X84.565 Y95.796 E28.0186
G1 X83.376 Y94.761 E28.08348
G1 X82.162 Y93.758 E28.1483
G1 X80.92 Y92.785 E28.21324
G1 X79.661 Y91.854 E28.27769
G1 X78.365 Y90.947 E28.34279
G1 X77.05 Y90.075 E28.40774
G1 X75.722 Y89.245 E28.4722
G1 X74.357 Y88.441 E28.5374
G1 X72.987 Y87.683 E28.60184
G1 X71.587 Y86.956 E28.66677
G1 X70.191 Y86.275 E28.7307
G1 X70.075 Y86.174 E28.73703
G1 X70.024 Y86.029 E28.74336
G1 X70.063 Y85.855 E28.7507
G1 X85.097 Y59.815 E29.98829
;MESH:Curved Top.3mf
G0 F3600 X85.458 Y60.312
;TYPE:SKIN
G1 F3000 X83.641 Y63.459 E30.13786
G1 X70.689 Y85.893 E31.20407
G1 X71.841 Y86.456 E31.25685
G1 X73.253 Y87.191 E31.32237
G1 X74.644 Y87.96 E31.38779
G1 X76.013 Y88.766 E31.45317
G1 X77.362 Y89.608 E31.51863
G1 X78.688 Y90.487 E31.58411
G1 X79.989 Y91.399 E31.6495
G1 X81.267 Y92.345 E31.71495
G1 X82.519 Y93.327 E31.78044
G1 X83.744 Y94.338 E31.84581
G1 X84.945 Y95.383 E31.91134
G1 X86.115 Y96.459 E31.97676
G1 X87.258 Y97.566 E32.04225
G1 X88.375 Y98.709 E32.10803
G1 X89.452 Y99.868 E32.17315
G1 X90.503 Y101.061 E32.2386
G1 X91.523 Y102.282 E32.30408
G1 X92.51 Y103.53 E32.36957
G1 X93.462 Y104.803 E32.435
G1 X94.421 Y106.158 E32.50332
G1 X95.266 Y107.42 E32.56583
G1 X96.116 Y108.766 E32.63136
G1 X96.926 Y110.125 E32.69647
G1 X97.71 Y111.522 E32.76241
G1 X98.45 Y112.925 E32.8277
G1 X99.152 Y114.355 E32.89326
G1 X99.817 Y115.797 E32.95862
G1 X100.445 Y117.259 E33.02411
G1 X101.034 Y118.737 E33.0896
G1 X101.579 Y120.224 E33.15479
G1 X102.093 Y121.736 E33.22052
G1 X102.557 Y123.242 E33.28538
G1 X102.991 Y124.788 E33.35147
G1 X103.381 Y126.331 E33.41698
G1 X103.731 Y127.894 E33.4829
G1 X104.034 Y129.441 E33.54779
G1 X104.299 Y130.996 E33.61271
G1 X104.524 Y132.584 E33.67873
G1 X104.706 Y134.166 E33.74427
G1 X104.846 Y135.75 E33.80972
G1 X104.945 Y137.336 E33.87513
G1 X105.002 Y138.925 E33.94057
G1 X105.017 Y140.518 E34.00614
G1 X104.99 Y142.106 E34.07151
G1 X104.921 Y143.694 E34.13693
G1 X104.828 Y145.026 E34.19189
G1 X134.369 Y145.026 E35.40778
G1 X134.445 Y143.334 E35.47749
G1 X134.49 Y141.351 E35.55913
G1 X134.492 Y139.368 E35.64075
G1 X134.453 Y137.47 E35.71889
G1 X134.369 Y135.51 E35.79964
G1 X134.243 Y133.553 E35.88035
G1 X134.075 Y131.599 E35.96107
G1 X133.864 Y129.648 E36.04184
G1 X133.61 Y127.704 E36.12254
G1 X133.457 Y126.697 E36.16446
G1 X133.313 Y125.765 E36.20328
G1 X132.976 Y123.833 E36.284
G1 X132.593 Y121.907 E36.36482
G1 X132.204 Y120.142 E36.43921
G1 X132.085 Y119.641 E36.46041
G1 X131.709 Y118.091 E36.52606
G1 X131.245 Y116.35 E36.60021
G1 X130.898 Y115.145 E36.65183
G1 X130.655 Y114.311 E36.68758
G1 X130.067 Y112.44 E36.7683
G1 X129.438 Y110.581 E36.84908
G1 X128.824 Y108.889 E36.92317
G1 X128.612 Y108.336 E36.94754
G1 X128.058 Y106.91 E37.01051
G1 X127.309 Y105.097 E37.09125
G1 X126.584 Y103.445 E37.1655
G1 X126.455 Y103.162 E37.17831
G1 X125.692 Y101.522 E37.25275
G1 X124.826 Y99.765 E37.33338
G1 X123.922 Y98.025 E37.41409
G1 X122.98 Y96.304 E37.49484
G1 X121.999 Y94.604 E37.57562
G1 X120.983 Y92.929 E37.65626
G1 X119.928 Y91.274 E37.73704
G1 X118.84 Y89.642 E37.81777
G1 X117.715 Y88.035 E37.89851
G1 X116.554 Y86.453 E37.97928
G1 X115.455 Y85.018 E38.05367
G1 X114.581 Y83.924 E38.11131
G1 X114.136 Y83.368 E38.14062
G1 X112.874 Y81.866 E38.22136
G1 X111.581 Y80.39 E38.30213
G1 X110.256 Y78.944 E38.38285
G1 X108.907 Y77.534 E38.46317
G1 X107.515 Y76.14 E38.54426
G1 X106.096 Y74.784 E38.62504
G1 X104.649 Y73.457 E38.70585
G1 X103.175 Y72.164 E38.78655
G1 X101.672 Y70.905 E38.86725
G1 X100.142 Y69.678 E38.94798
G1 X98.587 Y68.485 E39.02864
G1 X97.005 Y67.324 E39.10941
G1 X95.396 Y66.201 E39.19017
G1 X93.766 Y65.113 E39.27084
G1 X92.18 Y64.104 E39.3482
G1 X92.045 Y64.02 E39.35475
G1 X90.382 Y63.012 E39.43479
G1 X88.734 Y62.062 E39.51308
G1 X86.997 Y61.112 E39.59457
G1 X85.458 Y60.312 E39.66596
G1 F1500 E37.66596
G0 F3600 X85.884 Y59.49
G0 X89.188 Y61.256
G0 X92.6 Y63.274
G0 X95.919 Y65.437
G0 X99.141 Y67.744
G0 X102.259 Y70.191
G0 X105.267 Y72.77
G0 X108.16 Y75.479
G0 X110.403 Y77.772
G0 X113.577 Y81.262
G0 X112.84 Y82.293
G1 F1500 E39.66596
G1 F3000 X102.753 Y72.206 E40.25311
G1 X102.683 Y72.136
G1 F1500 E38.25311
G0 F3600 X103.465 Y71.201
G0 X99.232 Y67.814
G0 X98.486 Y68.788
G1 F1500 E40.25311
G1 F3000 X116.242 Y86.544 E41.28665
G1 X116.312 Y86.614
G0 F3600 X118.416 Y89.566
G1 F3000 X95.467 Y66.617 E42.62247
G1 X95.397 Y66.547
G0 F3600 X92.96 Y64.959
G1 F3000 X120.088 Y92.087 E44.20155
G1 X120.158 Y92.157
G0 F3600 X121.472 Y94.319
G1 F3000 X90.721 Y63.568 E45.99151
G1 X90.651 Y63.498
G0 F3600 X88.683 Y62.379
G1 F3000 X122.656 Y96.352 E47.96901
G1 X122.726 Y96.422
G0 F3600 X123.692 Y98.236
G1 F3000 X86.809 Y61.353 E50.11591
G1 X86.739 Y61.283
G0 F3600 X85.479 Y60.871
G1 F3000 X124.604 Y99.996 E52.3933
G1 X124.674 Y100.066
G0 F3600 X125.421 Y101.662
