;FLAVOR:Marlin
;TIME:16527
;Filament used: 14.9286m
;Layer height: 0.23
;MINX:49.225
;MINY:74.177
;MINZ:0.1
;MAXX:150.775
;MAXY:125.727
;MAXZ:59.9
;Generated with Cura_SteamEngine 4.12.1
M140 S60
M105
M190 S60
M104 S210
M105
M109 S210
M82 ;absolute extrusion mode
G21 ;metric values
G90 ;absolute positioning
M82 ;set extruder to absolute mode
M107 ;start with the fan off

M206 X0 Y0;set home offsets

G28 X0 Y0 ;move X/Y to min endstops
G28 Z0 ;move Z to min endstops
G1 Z15.0 F9000 ;move the platform down 15mm
G92 E0 ;zero the extruded length
G1 F200 E3 ;extrude 3mm of feed stock
G92 E0 ;zero the extruded length again
G1 F9000

M301 D121.72 I2.14 P32.30

;Set max printing acceleration
M201 X200 Y200
;Set max travel acceleration
M202 X500 Y500
;Set max jerk
M556 X10 Y10
;Set max feedrate
M203 X1000 Y1000


;Put printing message on LCD screen
M117 Printing...
G92 E0
G92 E0
G1 F1500 E-1
;LAYER_COUNT:261
;LAYER:0
M107
M204 S5000
M205 X30 Y30
G0 F1440 X49.803 Y74.241 Z0.1
M204 S100
M205 X10 Y10
;TYPE:SKIRT
G1 F1500 E0
G1 F1200 X50.091 Y74.177 E0.01689
G1 X149.909 Y74.177 E5.73137
G1 X150.137 Y74.217 E5.74462
G1 X150.386 Y74.375 E5.76151
G1 X150.711 Y74.755 E5.79013
G1 X150.775 Y75.043 E5.80702
G1 X150.775 Y124.861 E8.65905
G1 X150.735 Y125.089 E8.67231
G1 X150.577 Y125.338 E8.68919
G1 X150.197 Y125.663 E8.71781
G1 X149.909 Y125.727 E8.7347
G1 X50.091 Y125.727 E14.44919
G1 X49.863 Y125.687 E14.46244
G1 X49.614 Y125.529 E14.47932
G1 X49.289 Y125.149 E14.50795
G1 X49.225 Y124.861 E14.52484
G1 X49.225 Y75.043 E17.37687
G1 X49.265 Y74.815 E17.39012
G1 X49.423 Y74.566 E17.407
G1 X49.803 Y74.241 E17.43563
M204 S5000
M205 X30 Y30
G0 F1440 X49.932 Y74.693
M204 S100
M205 X10 Y10
G1 F1200 X50.091 Y74.627 E17.44548
G1 X149.909 Y74.627 E23.15996
G1 X150.068 Y74.693 E23.16982
G1 X150.259 Y74.884 E23.18528
G1 X150.325 Y75.043 E23.19514
G1 X150.325 Y124.861 E26.04717
G1 X150.259 Y125.02 E26.05703
G1 X150.068 Y125.211 E26.07249
G1 X149.909 Y125.277 E26.08235
G1 X50.091 Y125.277 E31.79683
G1 X49.932 Y125.211 E31.80668
G1 X49.741 Y125.02 E31.82215
G1 X49.675 Y124.861 E31.832
G1 X49.675 Y75.043 E34.68403
G1 X49.741 Y74.884 E34.69389
G1 X49.932 Y74.693 E34.70935
M204 S5000
M205 X30 Y30
G1 F1500 E33.70935
;MESH:Driver Holder.3mf
G0 F1440 X67.783 Y124.305
M204 S100
M205 X10 Y10
;TYPE:FILL
G1 F1500 E34.70935
G1 F1200 X50.645 Y107.166 E35.52557
G1 X50.645 Y104.051 E35.63047
G1 X79.1 Y75.596 E36.98564
G1 X81.3 Y75.596 E37.05973
G1 X130.01 Y124.306 E39.37953
G1 X132.212 Y124.307 E39.45369
G1 X149.354 Y107.165 E40.27007
G1 X149.354 Y104.052 E40.37491
G1 X120.898 Y75.597 E41.7301
G1 X124.354 Y75.596 E41.84648
G1 X75.644 Y124.306 E44.16629
G1 X73.44 Y124.305 E44.24051
G1 X50.645 Y101.51 E45.32612
G1 X50.645 Y98.394 E45.43106
G1 X73.443 Y75.596 E46.51681
G1 X75.643 Y75.596 E46.5909
G1 X124.353 Y124.306 E48.9107
G1 X126.555 Y124.307 E48.98486
G1 X149.354 Y101.508 E50.07066
G1 X149.354 Y98.396 E50.17546
G1 X126.555 Y75.597 E51.26126
G1 X130.011 Y75.596 E51.37764
G1 X81.301 Y124.306 E53.69745
G1 X79.097 Y124.305 E53.77167
G1 X50.645 Y95.853 E55.1267
G1 X50.645 Y92.737 E55.23163
G1 X67.786 Y75.596 E56.04797
G1 X69.986 Y75.596 E56.12205
G1 X118.696 Y124.306 E58.44186
G1 X120.898 Y124.307 E58.51602
G1 X149.354 Y95.851 E59.87123
G1 X149.354 Y92.739 E59.97603
G1 X132.212 Y75.597 E60.79242
G1 X135.668 Y75.596 E60.9088
G1 X86.958 Y124.306 E63.22861
G1 X84.754 Y124.305 E63.30283
G1 X50.645 Y90.196 E64.92727
G1 X50.645 Y87.08 E65.0322
G1 X62.129 Y75.596 E65.57913
G1 X64.329 Y75.596 E65.65321
G1 X113.039 Y124.306 E67.97302
G1 X115.242 Y124.307 E68.04721
G1 X149.354 Y90.195 E69.67179
G1 X149.354 Y87.082 E69.77662
G1 X137.869 Y75.597 E70.3236
G1 X141.325 Y75.596 E70.43998
G1 X92.615 Y124.306 E72.75979
G1 X90.411 Y124.305 E72.83401
G1 X50.645 Y84.539 E74.72786
G1 X50.645 Y81.424 E74.83276
G1 X56.473 Y75.596 E75.11032
G1 X58.672 Y75.596 E75.18437
G1 X107.382 Y124.306 E77.50418
G1 X109.585 Y124.307 E77.57837
G1 X149.354 Y84.538 E79.47236
G1 X149.354 Y81.425 E79.5772
G1 X143.526 Y75.597 E79.85476
G1 X146.982 Y75.596 E79.97114
G1 X98.272 Y124.306 E82.29095
G1 X96.068 Y124.305 E82.36517
G1 X50.645 Y78.882 E84.52844
G1 X50.645 Y75.767 E84.63334
G1 X50.816 Y75.596 E84.64148
G1 X53.016 Y75.596 E84.71557
G1 X101.725 Y124.306 E87.03535
G1 X103.928 Y124.307 E87.10954
G1 X149.354 Y78.881 E89.27295
G1 X149.354 Y75.768 E89.37778
G1 X149.183 Y75.597 E89.38592
G1 X149.355 Y75.597 E89.39172
M204 S5000
M205 X30 Y30
G0 F1440 X103.928 Y75.597
M204 S100
M205 X10 Y10
G1 F1200 X149.354 Y121.023 E91.55513
G1 X149.354 Y124.136 E91.65996
G1 X149.183 Y124.307 E91.6681
G1 X146.98 Y124.306 E91.74229
G1 X98.27 Y75.596 E94.0621
G1 X96.071 Y75.596 E94.13615
G1 X50.645 Y121.022 E96.29956
G1 X50.645 Y124.137 E96.40446
G1 X50.813 Y124.305 E96.41246
G1 X53.017 Y124.306 E96.48668
G1 X101.727 Y75.596 E98.80649
G1 X107.384 Y75.596 E98.997
G1 X58.674 Y124.306 E101.31681
G1 X56.47 Y124.305 E101.39103
G1 X50.645 Y118.48 E101.66844
G1 X50.645 Y115.365 E101.77334
G1 X90.414 Y75.596 E103.66734
G1 X92.614 Y75.596 E103.74142
G1 X141.323 Y124.306 E106.06121
G1 X143.526 Y124.307 E106.1354
G1 X149.354 Y118.479 E106.41295
G1 X149.354 Y115.366 E106.51779
G1 X109.585 Y75.597 E108.41178
G1 X113.04 Y75.596 E108.52813
G1 X64.331 Y124.306 E110.84792
G1 X62.127 Y124.305 E110.92214
G1 X50.645 Y112.823 E111.46897
G1 X50.645 Y109.708 E111.57387
G1 X84.757 Y75.596 E113.19845
G1 X86.957 Y75.596 E113.27254
G1 X135.666 Y124.306 E115.59232
G1 X137.869 Y124.307 E115.66651
G1 X149.354 Y112.822 E116.21348
G1 X149.354 Y109.709 E116.31831
G1 X115.242 Y75.597 E117.94289
G1 X118.697 Y75.596 E118.05924
G1 X69.988 Y124.306 E120.37903
G1 X67.783 Y124.305 E120.45328
G1 X67.708 Y124.305
M204 S5000
M205 X30 Y30
G0 F1440 X149.705 Y75.247
G0 X149.775 Y75.177
M204 S100
M205 X10 Y10
;TYPE:WALL-OUTER
G1 F1200 X149.775 Y124.727 E122.12192
G1 X50.225 Y124.727 E125.47436
G1 X50.225 Y75.177 E127.143
G1 X149.775 Y75.177 E130.49543
M204 S5000
M205 X30 Y30
G0 F1440 X149.325 Y75.495
;MESH:NONMESH
G0 F600 X149.325 Y75.495 Z0.33
G0 F1440 X79.325 Y75.371
;TIME_ELAPSED:193.420477
;LAYER:1
M106 S51
M204 S100
M205 X10 Y10
;TYPE:FILL
;MESH:Driver Holder.3mf
G1 F3600 X81.075 Y75.371 E130.54564
G1 X130.234 Y124.531 E132.54001
G1 X131.987 Y124.532 E132.59029
G1 X149.579 Y106.94 E133.30399
G1 X149.579 Y104.277 E133.38038
G1 X120.674 Y75.372 E134.55304
G1 X124.579 Y75.371 E134.66506
G1 X75.419 Y124.532 E136.65947
G1 X73.666 Y124.531 E136.70976
G1 X50.419 Y101.284 E137.65288
G1 X50.42 Y98.619 E137.72933
G1 X73.668 Y75.371 E138.67248
G1 X75.418 Y75.371 E138.72268
G1 X124.578 Y124.531 E140.71707
G1 X126.33 Y124.532 E140.76733
G1 X149.579 Y101.283 E141.71053
G1 X149.579 Y98.62 E141.78692
G1 X126.33 Y75.372 E142.7301
G1 X130.236 Y75.371 E142.84215
G1 X81.076 Y124.532 E144.83656
G1 X79.323 Y124.531 E144.88685
G1 X50.419 Y95.627 E146.05947
G1 X50.42 Y92.962 E146.13592
G1 X68.011 Y75.371 E146.84957
G1 X69.761 Y75.371 E146.89977
G1 X118.921 Y124.531 E148.89416
G1 X120.674 Y124.532 E148.94445
G1 X149.579 Y95.626 E150.11713
G1 X149.579 Y92.964 E150.19349
G1 X131.987 Y75.372 E150.90719
G1 X135.893 Y75.371 E151.01924
G1 X86.733 Y124.532 E153.01365
G1 X84.98 Y124.531 E153.06394
G1 X50.419 Y89.97 E154.46606
G1 X50.42 Y87.305 E154.54251
G1 X62.354 Y75.371 E155.02666
G1 X64.104 Y75.371 E155.07686
G1 X113.264 Y124.531 E157.07125
G1 X115.017 Y124.532 E157.12154
G1 X149.579 Y89.97 E158.5237
G1 X149.579 Y87.307 E158.60009
G1 X137.644 Y75.372 E159.08429
G1 X141.55 Y75.371 E159.19634
G1 X92.389 Y124.532 E161.19077
G1 X90.636 Y124.531 E161.24106
G1 X50.419 Y84.313 E162.87265
G1 X50.42 Y81.648 E162.9491
G1 X56.697 Y75.371 E163.20376
G1 X58.448 Y75.371 E163.25399
G1 X107.607 Y124.531 E165.24836
G1 X109.36 Y124.532 E165.29865
G1 X149.579 Y84.313 E166.93031
G1 X149.579 Y81.65 E167.0067
G1 X143.301 Y75.372 E167.26139
G1 X147.206 Y75.371 E167.37342
G1 X98.046 Y124.532 E169.36783
G1 X96.293 Y124.531 E169.41811
G1 X50.419 Y78.657 E171.27919
G1 X50.42 Y75.992 E171.35564
G1 X51.041 Y75.371 E171.38084
G1 X52.791 Y75.371 E171.43104
G1 X101.95 Y124.531 E173.42541
G1 X103.703 Y124.532 E173.4757
G1 X149.579 Y78.656 E175.33685
G1 X149.579 Y75.993 E175.41325
G1 X148.958 Y75.372 E175.43844
G1 X149.58 Y75.372 E175.45628
G1 X149.655 Y75.372
M204 S5000
M205 X30 Y30
G0 F4320 X103.703 Y75.372
M204 S100
M205 X10 Y10
G1 F3600 X149.579 Y121.248 E177.31744
G1 X149.579 Y123.911 E177.39384
G1 X148.958 Y124.532 E177.41903
G1 X147.205 Y124.531 E177.46932
G1 X98.046 Y75.371 E179.46369
G1 X96.295 Y75.371 E179.51392
G1 X50.42 Y121.246 E181.37504
G1 X50.419 Y123.911 E181.45149
G1 X51.038 Y124.531 E181.47662
G1 X52.791 Y124.532 E181.52691
G1 X101.952 Y75.371 E183.52134
G1 X107.608 Y75.371 E183.68359
G1 X58.448 Y124.532 E185.678
G1 X56.695 Y124.531 E185.72829
G1 X50.419 Y118.255 E185.9829
G1 X50.42 Y115.59 E186.05935
G1 X90.639 Y75.371 E187.69101
G1 X92.389 Y75.371 E187.74122
G1 X141.548 Y124.531 E189.73558
G1 X143.301 Y124.532 E189.78587
G1 X149.579 Y118.254 E190.04057
G1 X149.579 Y115.591 E190.11696
G1 X109.36 Y75.372 E191.74862
G1 X113.265 Y75.371 E191.86064
G1 X64.105 Y124.532 E193.85505
G1 X62.352 Y124.531 E193.90534
G1 X50.419 Y112.598 E194.38945
G1 X50.42 Y109.933 E194.4659
G1 X84.982 Y75.371 E195.86806
G1 X86.732 Y75.371 E195.91826
G1 X135.891 Y124.531 E197.91263
G1 X137.644 Y124.532 E197.96292
G1 X149.579 Y112.597 E198.44712
G1 X149.579 Y109.934 E198.52351
G1 X115.017 Y75.372 E199.92567
G1 X118.922 Y75.371 E200.03769
G1 X69.762 Y124.532 E202.0321
G1 X68.009 Y124.531 E202.08239
G1 X50.419 Y106.941 E202.796
G1 X50.42 Y104.276 E202.87245
G1 X79.325 Y75.371 E204.04511
G1 X79.378 Y75.318
M204 S5000
M205 X30 Y30
G0 F4320 X149.78 Y75.172
G0 X149.85 Y75.102
M204 S100
M205 X10 Y10
;TYPE:WALL-OUTER
G1 F2100 X149.85 Y124.802 E205.47085
G1 X50.15 Y124.802 E208.33093
G1 X50.15 Y75.102 E209.75667
G1 X149.85 Y75.102 E212.61675
M204 S5000
M205 X30 Y30
G0 F4320 X149.55 Y75.314
;MESH:NONMESH
G0 F600 X149.55 Y75.314 Z0.56
G0 F4320 X149.579 Y106.94
;TIME_ELAPSED:272.616902
;LAYER:2
M204 S100
M205 X10 Y10
;TYPE:FILL
;MESH:Driver Holder.3mf
G1 F6000 X149.579 Y104.277 E212.69314
G1 X120.674 Y75.372 E213.8658
G1 X124.579 Y75.371 E213.97782
G1 X75.419 Y124.532 E215.97223
G1 X73.666 Y124.531 E216.02252
G1 X50.419 Y101.284 E216.96563
G1 X50.42 Y98.619 E217.04208
G1 X73.668 Y75.371 E217.98524
G1 X75.418 Y75.371 E218.03544
G1 X124.578 Y124.531 E220.02983
G1 X126.33 Y124.532 E220.08009
G1 X149.579 Y101.283 E221.02329
G1 X149.579 Y98.62 E221.09968
G1 X126.33 Y75.372 E222.04286
G1 X130.236 Y75.371 E222.15491
G1 X81.076 Y124.532 E224.14932
G1 X79.323 Y124.531 E224.19961
G1 X50.419 Y95.627 E225.37222
G1 X50.42 Y92.962 E225.44867
G1 X68.011 Y75.371 E226.16233
G1 X69.761 Y75.371 E226.21253
G1 X118.921 Y124.531 E228.20692
G1 X120.674 Y124.532 E228.25721
G1 X149.579 Y95.626 E229.42989
G1 X149.579 Y92.964 E229.50625
G1 X131.987 Y75.372 E230.21995
G1 X135.893 Y75.371 E230.332
G1 X86.733 Y124.532 E232.32641
G1 X84.98 Y124.531 E232.3767
G1 X50.419 Y89.97 E233.77881
G1 X50.42 Y87.305 E233.85526
G1 X62.354 Y75.371 E234.33942
G1 X64.104 Y75.371 E234.38962
G1 X113.264 Y124.531 E236.38401
G1 X115.017 Y124.532 E236.4343
G1 X149.579 Y89.97 E237.83646
G1 X149.579 Y87.307 E237.91285
G1 X137.644 Y75.372 E238.39704
G1 X141.55 Y75.371 E238.50909
G1 X92.389 Y124.532 E240.50352
G1 X90.636 Y124.531 E240.55381
G1 X50.419 Y84.313 E242.18541
G1 X50.42 Y81.648 E242.26186
G1 X56.697 Y75.371 E242.51652
G1 X58.448 Y75.371 E242.56675
G1 X107.607 Y124.531 E244.56112
G1 X109.36 Y124.532 E244.6114
G1 X149.579 Y84.313 E246.24306
G1 X149.579 Y81.65 E246.31946
G1 X143.301 Y75.372 E246.57415
G1 X147.206 Y75.371 E246.68617
G1 X98.046 Y124.532 E248.68058
G1 X96.293 Y124.531 E248.73087
G1 X50.419 Y78.657 E250.59195
G1 X50.42 Y75.992 E250.6684
G1 X51.041 Y75.371 E250.69359
G1 X52.791 Y75.371 E250.74379
G1 X101.95 Y124.531 E252.73816
G1 X103.703 Y124.532 E252.78845
G1 X149.579 Y78.656 E254.64961
G1 X149.579 Y75.993 E254.726
G1 X148.958 Y75.372 E254.7512
G1 X149.58 Y75.372 E254.76904
G1 X149.655 Y75.372
M204 S5000
M205 X30 Y30
G0 F7200 X103.703 Y75.372
M204 S100
M205 X10 Y10
G1 F6000 X149.579 Y121.248 E256.6302
G1 X149.579 Y123.911 E256.70659
G1 X148.958 Y124.532 E256.73179
G1 X147.205 Y124.531 E256.78208
G1 X98.046 Y75.371 E258.77645
G1 X96.295 Y75.371 E258.82668
G1 X50.42 Y121.246 E260.6878
G1 X50.419 Y123.911 E260.76425
G1 X51.038 Y124.531 E260.78938
G1 X52.791 Y124.532 E260.83967
G1 X101.952 Y75.371 E262.8341
G1 X107.608 Y75.371 E262.99635
G1 X58.448 Y124.532 E264.99076
G1 X56.695 Y124.531 E265.04105
G1 X50.419 Y118.255 E265.29566
G1 X50.42 Y115.59 E265.37211
G1 X90.639 Y75.371 E267.00377
G1 X92.389 Y75.371 E267.05397
G1 X141.548 Y124.531 E269.04834
G1 X143.301 Y124.532 E269.09863
G1 X149.579 Y118.254 E269.35332
G1 X149.579 Y115.591 E269.42972
G1 X109.36 Y75.372 E271.06138
G1 X113.265 Y75.371 E271.1734
G1 X64.105 Y124.532 E273.16781
G1 X62.352 Y124.531 E273.2181
G1 X50.419 Y112.598 E273.70221
G1 X50.42 Y109.933 E273.77866
G1 X84.982 Y75.371 E275.18082
G1 X86.732 Y75.371 E275.23102
G1 X135.891 Y124.531 E277.22539
G1 X137.644 Y124.532 E277.27568
G1 X149.579 Y112.597 E277.75987
G1 X149.579 Y109.934 E277.83627
G1 X115.017 Y75.372 E279.23842
G1 X118.922 Y75.371 E279.35045
G1 X69.762 Y124.532 E281.34486
G1 X68.009 Y124.531 E281.39514
G1 X50.419 Y106.941 E282.10876
G1 X50.42 Y104.276 E282.18521
G1 X79.325 Y75.371 E283.35787
G1 X81.075 Y75.371 E283.40807
G1 X130.234 Y124.531 E285.40244
G1 X131.987 Y124.532 E285.45273
G1 X149.579 Y106.94 E286.16642
G1 X149.632 Y106.887
M204 S5000
M205 X30 Y30
G0 F7200 X149.78 Y124.732
G0 X149.85 Y124.802
M204 S100
M205 X10 Y10
;TYPE:WALL-OUTER
G1 F3000 X50.15 Y124.802 E289.0265
G1 X50.15 Y75.102 E290.45224
G1 X149.85 Y75.102 E293.31232
G1 X149.85 Y124.802 E294.73806
M204 S5000
M205 X30 Y30
G0 F7200 X149.55 Y124.59
;MESH:NONMESH
G0 F600 X149.55 Y124.59 Z0.79
G0 F7200 X124.579 Y75.371
;TIME_ELAPSED:346.575329
;LAYER:3
M204 S100
M205 X10 Y10
;TYPE:FILL
;MESH:Driver Holder.3mf
G1 F6000 X120.674 Y75.372 E294.85008
G1 X149.579 Y104.277 E296.02274
G1 X149.579 Y106.94 E296.09913
G1 X131.987 Y124.532 E296.81283
G1 X130.234 Y124.531 E296.86312
G1 X81.075 Y75.371 E298.85748
G1 X79.325 Y75.371 E298.90769
G1 X50.42 Y104.276 E300.08034
G1 X50.419 Y106.941 E300.15679
G1 X68.009 Y124.531 E300.87041
G1 X69.762 Y124.532 E300.9207
G1 X118.922 Y75.371 E302.91511
G1 X115.017 Y75.372 E303.02713
G1 X149.579 Y109.934 E304.42929
G1 X149.579 Y112.597 E304.50568
G1 X137.644 Y124.532 E304.98988
G1 X135.891 Y124.531 E305.04016
G1 X86.732 Y75.371 E307.03453
G1 X84.982 Y75.371 E307.08474
G1 X50.42 Y109.933 E308.48689
G1 X50.419 Y112.598 E308.56334
G1 X62.352 Y124.531 E309.04746
G1 X64.105 Y124.532 E309.09775
G1 X113.265 Y75.371 E311.09216
G1 X109.36 Y75.372 E311.20418
G1 X149.579 Y115.591 E312.83584
G1 X149.579 Y118.254 E312.91223
G1 X143.301 Y124.532 E313.16692
G1 X141.548 Y124.531 E313.21721
G1 X92.389 Y75.371 E315.21158
G1 X90.639 Y75.371 E315.26178
G1 X50.42 Y115.59 E316.89344
G1 X50.419 Y118.255 E316.96989
G1 X56.695 Y124.531 E317.22451
G1 X58.448 Y124.532 E317.27479
G1 X107.608 Y75.371 E319.2692
G1 X101.952 Y75.371 E319.43146
G1 X52.791 Y124.532 E321.42589
G1 X51.038 Y124.531 E321.47618
G1 X50.419 Y123.911 E321.50131
G1 X50.42 Y121.246 E321.57776
G1 X96.295 Y75.371 E323.43888
G1 X98.046 Y75.371 E323.48911
G1 X147.205 Y124.531 E325.48348
G1 X148.958 Y124.532 E325.53377
G1 X149.579 Y123.911 E325.55896
G1 X149.579 Y121.248 E325.63535
G1 X103.703 Y75.372 E327.49651
G1 X103.65 Y75.319
M204 S5000
M205 X30 Y30
G0 F7200 X149.58 Y75.372
M204 S100
M205 X10 Y10
G1 F6000 X148.958 Y75.372 E327.51436
G1 X149.579 Y75.993 E327.53955
G1 X149.579 Y78.656 E327.61594
G1 X103.703 Y124.532 E329.4771
G1 X101.95 Y124.531 E329.52739
G1 X52.791 Y75.371 E331.52176
G1 X51.041 Y75.371 E331.57196
G1 X50.42 Y75.992 E331.59715
G1 X50.419 Y78.657 E331.67361
G1 X96.293 Y124.531 E333.53468
G1 X98.046 Y124.532 E333.58497
G1 X147.206 Y75.371 E335.57938
G1 X143.301 Y75.372 E335.6914
G1 X149.579 Y81.65 E335.9461
G1 X149.579 Y84.313 E336.02249
G1 X109.36 Y124.532 E337.65415
G1 X107.607 Y124.531 E337.70444
