;FLAVOR:Marlin
;TIME:1827
;Filament used: 2.6184m
;Layer height: 0.3
;MINX:72.239
;MINY:63.382
;MINZ:0.15
;MAXX:132.716
;MAXY:142.342
;MAXZ:34.5
;Generated with Cura_SteamEngine 5.0.0
M140 S60
M105
M190 S60
M104 S230
M105
M109 S230
M82 ;absolute extrusion mode
G21 ;metric values
G90 ;absolute positioning
M82 ;set extruder to absolute mode
M107 ;start with the fan off

M206 X5 Y9 ;set home offsets

G28 X0 Y0 ;move X/Y to min endstops
G28 Z0 ;move Z to min endstops
G1 Z15.0 F9000 ;move the platform down 15mm
G92 E0 ;zero the extruded length
G1 F200 E3 ;extrude 3mm of feed stock
G92 E0 ;zero the extruded length again
G1 F9000

M301 D121.72 I2.14 P32.30

;Set max printing acceleration
M201 X100 Y100
;Set max travel acceleration
M202 X300 Y300
;Set max jerk
M556 X10 Y10
;Set max feedrate
M203 X1000 Y1000


;Put printing message on LCD screen
M117 Printing...
G92 E0
G92 E0
G1 F1500 E-2
;LAYER_COUNT:134
;LAYER:0
M107
G1 F600 Z1.15
G0 F3600 X91.368 Y65.504 Z1.15
G1 F600 Z0.15
G0 F3600 X90.4 Y71.543
;TYPE:SKIRT
G1 F1500 E0
G1 F3000 X90.435 Y71.193 E0.01974
G1 X90.782 Y69.131 E0.1371
G1 X90.742 Y68.787 E0.15654
G1 X90.818 Y68.064 E0.19734
G1 X90.932 Y67.584 E0.22503
G1 X90.962 Y66.822 E0.26783
G1 X91.021 Y66.361 E0.29392
G1 X91.157 Y65.917 E0.31998
G1 X91.368 Y65.504 E0.34601
G1 X91.646 Y65.132 E0.37208
G1 X91.984 Y64.813 E0.39816
G1 X92.482 Y64.491 E0.43145
G1 X92.901 Y64.291 E0.45751
G1 X93.383 Y64.158 E0.48557
G1 X93.93 Y64.102 E0.51643
G1 X96.57 Y64.101 E0.66461
G1 X97.012 Y63.763 E0.69584
G1 X97.43 Y63.56 E0.72192
G1 X97.876 Y63.432 E0.74796
G1 X98.395 Y63.382 E0.77723
G1 X101.395 Y63.382 E0.94561
G1 X101.858 Y63.422 E0.97169
G1 X102.307 Y63.541 E0.99776
G1 X102.729 Y63.734 E1.0238
G1 X103.218 Y64.102 E1.05815
G1 X110.998 Y64.099 E1.49482
G1 X111.461 Y64.139 E1.5209
G1 X112.005 Y64.294 E1.55265
G1 X112.654 Y64.597 E1.59285
G1 X113.026 Y64.874 E1.61888
G1 X113.346 Y65.212 E1.64501
G1 X113.602 Y65.598 E1.671
G1 X113.789 Y66.023 E1.69706
G1 X113.909 Y66.531 E1.72636
G1 X114.178 Y68.518 E1.8389
G1 X114.202 Y69.33 E1.88449
G1 X114.831 Y75.589 E2.23756
G1 X114.838 Y76.053 E2.26361
G1 X114.754 Y76.55 E2.2919
G1 X114.766 Y77.014 E2.31795
G1 X114.698 Y77.473 E2.34399
G1 X114.553 Y77.914 E2.37005
G1 X114.334 Y78.324 E2.39613
G1 X114.048 Y78.69 E2.4222
G1 X113.734 Y78.978 E2.44612
G1 X112.45 Y79.982 E2.5376
G1 X112.061 Y80.235 E2.56365
G1 X111.634 Y80.419 E2.58974
G1 X111.183 Y80.526 E2.61576
G1 X110.787 Y80.555 E2.63804
G1 X108.546 Y80.555 E2.76382
G1 X108.272 Y80.961 E2.79131
G1 X107.947 Y81.293 E2.81739
G1 X107.57 Y81.564 E2.84345
G1 X107.152 Y81.767 E2.86953
G1 X106.706 Y81.895 E2.89557
G1 X106.186 Y81.945 E2.92489
G1 X104.71 Y81.945 E3.00774
G1 X105.761 Y82.039 E3.06696
G1 X106.894 Y82.185 E3.13108
G1 X108.004 Y82.371 E3.19425
G1 X109.128 Y82.6 E3.25863
G1 X110.234 Y82.873 E3.32257
G1 X111.32 Y83.184 E3.38597
G1 X112.402 Y83.537 E3.44985
G1 X113.475 Y83.931 E3.51401
G1 X114.523 Y84.364 E3.57765
G1 X115.523 Y84.82 E3.63934
G1 X116.494 Y85.302 E3.70018
G1 X117.573 Y85.898 E3.76937
G1 X118.547 Y86.484 E3.83316
G1 X119.502 Y87.109 E3.89722
G1 X120.421 Y87.763 E3.96053
G1 X121.335 Y88.461 E4.02508
G1 X122.203 Y89.183 E4.08845
G1 X123.049 Y89.939 E4.15213
G1 X123.874 Y90.732 E4.21635
G1 X124.657 Y91.547 E4.27979
G1 X125.424 Y92.403 E4.3443
G1 X126.144 Y93.277 E4.40785
G1 X126.835 Y94.179 E4.47163
G1 X127.492 Y95.106 E4.5354
G1 X128.117 Y96.063 E4.59955
G1 X128.699 Y97.035 E4.66314
G1 X129.252 Y98.039 E4.72747
G1 X129.751 Y99.035 E4.79
G1 X130.194 Y99.993 E4.84924
G1 X130.663 Y101.139 E4.91874
G1 X131.056 Y102.21 E4.98277
G1 X131.405 Y103.285 E5.0462
G1 X131.72 Y104.39 E5.11069
G1 X131.987 Y105.493 E5.17439
G1 X132.211 Y106.596 E5.23756
G1 X132.402 Y107.725 E5.30183
G1 X132.544 Y108.844 E5.36514
G1 X132.64 Y109.882 E5.42364
G1 X132.701 Y111.023 E5.48778
G1 X132.716 Y112.259 E5.55715
G1 X132.69 Y113.407 E5.6216
G1 X132.621 Y114.531 E5.68481
G1 X132.509 Y115.665 E5.74877
G1 X132.352 Y116.801 E5.81313
G1 X132.155 Y117.906 E5.87613
G1 X131.917 Y119.025 E5.94034
G1 X131.634 Y120.137 E6.00474
G1 X131.312 Y121.216 E6.06794
G1 X130.95 Y122.297 E6.13192
G1 X130.545 Y123.366 E6.19609
G1 X130.1 Y124.411 E6.25983
G1 X129.621 Y125.433 E6.32318
G1 X129.107 Y126.437 E6.38649
G1 X128.589 Y127.366 E6.44619
G1 X127.947 Y128.407 E6.51483
G1 X127.311 Y129.363 E6.57928
G1 X126.646 Y130.28 E6.64286
G1 X125.945 Y131.177 E6.70675
G1 X125.215 Y132.041 E6.77024
G1 X124.513 Y132.815 E6.82889
G1 X123.647 Y133.696 E6.89822
G1 X122.812 Y134.486 E6.96274
G1 X121.965 Y135.223 E7.02576
G1 X121.076 Y135.947 E7.09011
G1 X120.181 Y136.616 E7.15282
G1 X119.315 Y137.224 E7.21221
G1 X118.271 Y137.889 E7.28168
G1 X117.303 Y138.456 E7.34465
G1 X116.293 Y139.004 E7.40914
G1 X115.265 Y139.507 E7.47338
G1 X114.231 Y139.965 E7.53685
G1 X113.176 Y140.387 E7.60063
G1 X112.096 Y140.774 E7.66502
G1 X111.017 Y141.111 E7.72846
G1 X109.923 Y141.412 E7.79215
G1 X108.807 Y141.674 E7.85649
G1 X107.696 Y141.889 E7.92
G1 X106.574 Y142.065 E7.98374
G1 X105.439 Y142.199 E8.04789
G1 X104.304 Y142.289 E8.11179
G1 X103.175 Y142.335 E8.17521
G1 X102.029 Y142.342 E8.23953
G1 X100.893 Y142.302 E8.30333
G1 X99.762 Y142.221 E8.36697
G1 X98.632 Y142.098 E8.43077
G1 X97.506 Y141.933 E8.49465
G1 X96.386 Y141.725 E8.55858
G1 X95.262 Y141.472 E8.62325
G1 X94.186 Y141.182 E8.68579
G1 X93.079 Y140.848 E8.75069
G1 X92.014 Y140.474 E8.81405
G1 X90.956 Y140.061 E8.87779
G1 X89.909 Y139.608 E8.94182
G1 X88.882 Y139.114 E9.00578
G1 X87.882 Y138.586 E9.06925
G1 X86.886 Y138.014 E9.13372
G1 X85.933 Y137.413 E9.19696
G1 X84.988 Y136.772 E9.26105
G1 X84.074 Y136.097 E9.32482
G1 X83.182 Y135.386 E9.38884
G1 X82.324 Y134.648 E9.45236
G1 X81.485 Y133.87 E9.51658
G1 X80.695 Y133.079 E9.57933
G1 X79.973 Y132.307 E9.63865
G1 X79.164 Y131.365 E9.70835
G1 X78.464 Y130.481 E9.77163
G1 X77.785 Y129.562 E9.83577
G1 X77.146 Y128.62 E9.89965
G1 X76.553 Y127.672 E9.96241
G1 X76.023 Y126.762 E10.02152
G1 X75.493 Y125.755 E10.08539
G1 X74.962 Y124.649 E10.15425
G1 X74.539 Y123.684 E10.21339
G1 X74.093 Y122.533 E10.28267
G1 X73.721 Y121.458 E10.34651
G1 X73.389 Y120.371 E10.41031
G1 X73.097 Y119.267 E10.4744
G1 X72.849 Y118.158 E10.53818
G1 X72.642 Y117.038 E10.60211
G1 X72.478 Y115.914 E10.66586
G1 X72.355 Y114.778 E10.72999
G1 X72.277 Y113.647 E10.79362
G1 X72.239 Y112.507 E10.85764
G1 X72.245 Y111.368 E10.92157
G1 X72.294 Y110.254 E10.98416
G1 X72.373 Y109.198 E11.04359
G1 X72.52 Y107.972 E11.1129
G1 X72.695 Y106.852 E11.17652
G1 X72.914 Y105.729 E11.24074
G1 X73.175 Y104.621 E11.30463
G1 X73.477 Y103.528 E11.36827
G1 X73.822 Y102.438 E11.43244
G1 X74.204 Y101.375 E11.49584
G1 X74.627 Y100.318 E11.55974
G1 X75.091 Y99.272 E11.62397
G1 X75.593 Y98.252 E11.68777
G1 X76.134 Y97.25 E11.75169
G1 X76.71 Y96.276 E11.8152
G1 X77.324 Y95.316 E11.87916
G1 X77.972 Y94.383 E11.94291
G1 X78.653 Y93.477 E12.00653
G1 X79.375 Y92.586 E12.07089
G1 X80.125 Y91.734 E12.1346
G1 X80.908 Y90.906 E12.19856
G1 X81.719 Y90.112 E12.26226
G1 X82.56 Y89.347 E12.32607
G1 X83.43 Y88.615 E12.38989
G1 X84.329 Y87.912 E12.45394
G1 X85.253 Y87.247 E12.51784
G1 X86.186 Y86.626 E12.58074
G1 X87.085 Y86.069 E12.6401
G1 X88.157 Y85.468 E12.70908
G1 X89.17 Y84.947 E12.77301
G1 X90.205 Y84.463 E12.83714
G1 X91.251 Y84.023 E12.90083
G1 X92.31 Y83.623 E12.96437
G1 X93.397 Y83.255 E13.02878
G1 X94.478 Y82.939 E13.09199
G1 X95.587 Y82.656 E13.15623
G1 X96.696 Y82.418 E13.21989
G1 X97.82 Y82.221 E13.28394
G1 X98.952 Y82.067 E13.34806
G1 X100.078 Y81.957 E13.41156
G1 X100.291 Y81.944 E13.42354
G1 X98.264 Y81.943 E13.53731
G1 X97.695 Y82.098 E13.57041
G1 X97.309 Y82.126 E13.59213
G1 X93.501 Y82.126 E13.80586
G1 X92.92 Y82.206 E13.83877
G1 X92.456 Y82.182 E13.86485
G1 X92.003 Y82.079 E13.89093
G1 X91.575 Y81.9 E13.91696
G1 X91.062 Y81.557 E13.9516
G1 X90.717 Y81.247 E13.97763
G1 X90.43 Y80.881 E14.00374
G1 X90.21 Y80.473 E14.02975
G1 X90.063 Y80.032 E14.05584
G1 X89.994 Y79.573 E14.0819
G1 X89.996 Y79.211 E14.10221
G1 X90.355 Y74.183 E14.38514
G1 X90.377 Y74.065 E14.39187
G1 X90.494 Y72.322 E14.48992
G1 X90.423 Y72.007 E14.50805
G1 X90.4 Y71.543 E14.53412
G0 F3600 X90.953 Y74.225
G1 F3000 X90.976 Y74.102 E14.54114
G1 X91.1 Y72.264 E14.64454
G1 X91.003 Y71.781 E14.67219
G1 X91.027 Y71.292 E14.69967
G1 X91.388 Y69.148 E14.8217
G1 X91.341 Y68.72 E14.84586
G1 X91.401 Y68.207 E14.87485
G1 X91.536 Y67.654 E14.9068
G1 X91.549 Y67.143 E14.93549
G1 X91.618 Y66.44 E14.97514
G1 X91.752 Y66.053 E14.99812
G1 X91.958 Y65.7 E15.02106
G1 X92.229 Y65.393 E15.04405
G1 X92.786 Y65.008 E15.08205
G1 X93.157 Y64.836 E15.105
G1 X93.505 Y64.746 E15.12518
G1 X93.93 Y64.702 E15.14916
G1 X96.825 Y64.701 E15.31165
G1 X97.219 Y64.342 E15.34156
G1 X97.579 Y64.147 E15.36454
G1 X97.97 Y64.026 E15.38751
G1 X98.395 Y63.982 E15.4115
G1 X101.395 Y63.982 E15.57987
G1 X101.802 Y64.022 E15.60283
G1 X102.194 Y64.14 E15.62581
G1 X102.556 Y64.332 E15.6488
G1 X102.965 Y64.702 E15.67976
G1 X110.998 Y64.699 E16.13062
G1 X111.406 Y64.739 E16.15363
G1 X112.016 Y64.944 E16.18975
G1 X112.379 Y65.133 E16.21272
G1 X112.699 Y65.389 E16.23572
G1 X112.963 Y65.702 E16.2587
G1 X113.161 Y66.06 E16.28167
G1 X113.314 Y66.611 E16.31376
G1 X113.583 Y68.598 E16.4263
G1 X113.602 Y69.36 E16.46908
G1 X114.234 Y75.649 E16.82384
G1 X114.236 Y76.058 E16.8468
G1 X114.135 Y76.515 E16.87307
G1 X114.159 Y77.074 E16.90447
G1 X114.076 Y77.475 E16.92745
G1 X113.917 Y77.852 E16.95042
G1 X113.688 Y78.191 E16.97338
G1 X113.365 Y78.505 E16.99866
G1 X112.081 Y79.509 E17.09014
G1 X111.735 Y79.729 E17.11316
G1 X111.353 Y79.877 E17.13615
G1 X110.787 Y79.955 E17.16822
G1 X108.156 Y79.955 E17.31589
G1 X107.937 Y80.406 E17.34403
G1 X107.678 Y80.723 E17.367
G1 X107.363 Y80.985 E17.39
G1 X107.003 Y81.18 E17.41298
G1 X106.612 Y81.301 E17.43595
G1 X106.187 Y81.345 E17.45993
G1 X98.142 Y81.343 E17.91147
G1 X97.914 Y81.437 E17.92531
G1 X97.309 Y81.526 E17.95963
G1 X93.44 Y81.526 E18.17679
G1 X92.851 Y81.608 E18.21016
G1 X92.443 Y81.572 E18.23315
G1 X92.05 Y81.459 E18.2561
G1 X91.562 Y81.184 E18.28754
G1 X91.122 Y80.801 E18.32028
G1 X90.881 Y80.471 E18.34322
G1 X90.708 Y80.1 E18.36619
G1 X90.61 Y79.702 E18.3892
G1 X90.594 Y79.253 E18.41442
G1 X90.953 Y74.225 E18.69734
G0 F3600 X91.552 Y74.268
G1 F3000 X91.573 Y74.152 E18.70396
G1 X91.706 Y72.181 E18.81483
G1 X91.625 Y71.925 E18.8299
G1 X91.619 Y71.392 E18.85982
G1 X91.999 Y69.137 E18.98817
G1 X91.942 Y68.663 E19.01497
G1 X92.14 Y67.711 E19.06954
G1 X92.161 Y66.87 E19.11676
G1 X92.215 Y66.528 E19.13619
G1 X92.345 Y66.208 E19.15558
G1 X92.546 Y65.926 E19.17501
G1 X93.089 Y65.526 E19.21287
G1 X93.626 Y65.333 E19.24489
G1 X93.93 Y65.302 E19.26205
G1 X97.125 Y65.3 E19.44137
G1 X97.241 Y65.123 E19.45325
G1 X97.491 Y64.885 E19.47262
G1 X97.79 Y64.71 E19.49207
G1 X98.12 Y64.607 E19.51147
G1 X98.395 Y64.582 E19.52697
G1 X101.395 Y64.582 E19.69535
G1 X101.739 Y64.622 E19.71478
G1 X102.064 Y64.739 E19.73417
G1 X102.354 Y64.928 E19.7536
G1 X102.664 Y65.302 E19.78086
G1 X110.999 Y65.299 E20.24868
G1 X111.342 Y65.339 E20.26806
G1 X111.792 Y65.501 E20.2949
G1 X112.096 Y65.666 E20.31432
G1 X112.354 Y65.896 E20.33372
G1 X112.553 Y66.18 E20.35318
G1 X112.719 Y66.692 E20.38339
G1 X112.988 Y68.679 E20.49593
G1 X113.002 Y69.391 E20.5359
G1 X113.637 Y75.709 E20.89229
G1 X113.632 Y76.055 E20.91172
G1 X113.515 Y76.454 E20.93505
G1 X113.569 Y76.772 E20.95316
G1 X113.547 Y77.117 E20.97256
G1 X113.447 Y77.448 E20.99197
G1 X113.274 Y77.747 E21.01136
G1 X112.995 Y78.033 E21.03378
G1 X111.711 Y79.037 E21.12526
G1 X111.416 Y79.217 E21.14466
G1 X111.087 Y79.325 E21.16409
G1 X110.787 Y79.355 E21.18102
G1 X107.674 Y79.355 E21.35574
G1 X107.647 Y79.589 E21.36896
G1 X107.53 Y79.914 E21.38835
G1 X107.341 Y80.204 E21.40777
G1 X107.091 Y80.442 E21.42715
G1 X106.792 Y80.617 E21.44659
G1 X106.462 Y80.72 E21.466
G1 X106.187 Y80.745 E21.48149
G1 X98.027 Y80.743 E21.93949
G1 X97.69 Y80.877 E21.95984
G1 X97.309 Y80.926 E21.9814
G1 X93.374 Y80.926 E22.20226
G1 X92.791 Y81.008 E22.2353
G1 X92.448 Y80.959 E22.25475
G1 X92.126 Y80.834 E22.27414
G1 X91.785 Y80.6 E22.29735
G1 X91.535 Y80.361 E22.31676
G1 X91.346 Y80.071 E22.33619
G1 X91.229 Y79.746 E22.35558
G1 X91.193 Y79.296 E22.38091
G1 X91.552 Y74.268 E22.66384
G0 F3600 X92.15 Y74.311
G1 F3000 X92.172 Y74.19 E22.67074
G1 X92.315 Y72.064 E22.79033
G1 X92.254 Y71.953 E22.79744
G1 X92.199 Y71.691 E22.81247
G1 X92.21 Y71.492 E22.82365
G1 X92.608 Y69.127 E22.95826
G1 X92.559 Y68.887 E22.97201
G1 X92.567 Y68.492 E22.99418
G1 X92.744 Y67.769 E23.03596
G1 X92.761 Y66.894 E23.08508
G1 X92.811 Y66.631 E23.10011
G1 X92.936 Y66.395 E23.11509
G1 X93.204 Y66.154 E23.13532
G1 X93.666 Y65.938 E23.16395
G1 X93.931 Y65.902 E23.17896
G1 X97.522 Y65.9 E23.38051
G1 X97.651 Y65.576 E23.40008
G1 X97.832 Y65.38 E23.41506
G1 X98.064 Y65.245 E23.43012
G1 X98.395 Y65.182 E23.44903
G1 X101.395 Y65.182 E23.61741
G1 X101.66 Y65.222 E23.63245
G1 X101.901 Y65.338 E23.64747
G1 X102.097 Y65.519 E23.66244
G1 X102.232 Y65.751 E23.67751
G1 X102.261 Y65.902 E23.68614
G1 X110.999 Y65.899 E24.17657
G1 X111.334 Y65.964 E24.19572
G1 X111.799 Y66.193 E24.22481
G1 X111.98 Y66.391 E24.23987
G1 X112.125 Y66.772 E24.26275
G1 X112.394 Y68.759 E24.37529
G1 X112.402 Y69.421 E24.41245
G1 X113.04 Y75.769 E24.77054
G1 X113.027 Y76.036 E24.78554
G1 X112.87 Y76.378 E24.80666
G1 X112.971 Y76.864 E24.83452
G1 X112.927 Y77.128 E24.84954
G1 X112.808 Y77.367 E24.86453
G1 X112.625 Y77.56 E24.87946
G1 X111.341 Y78.564 E24.97094
G1 X111.108 Y78.696 E24.98597
G1 X110.787 Y78.755 E25.00429
G1 X107.087 Y78.755 E25.21195
G1 X107.087 Y79.245 E25.23946
G1 X107.047 Y79.51 E25.2545
G1 X106.931 Y79.751 E25.26951
G1 X106.75 Y79.947 E25.28448
G1 X106.518 Y80.082 E25.29955
G1 X106.187 Y80.145 E25.31846
G1 X97.878 Y80.143 E25.78482
G1 X97.478 Y80.31 E25.80914
G1 X97.309 Y80.326 E25.81867
G1 X93.313 Y80.326 E26.04295
G1 X92.745 Y80.404 E26.07513
G1 X92.485 Y80.34 E26.09016
G1 X92.147 Y80.121 E26.11277
G1 X91.959 Y79.93 E26.12781
G1 X91.837 Y79.692 E26.14282
G1 X91.791 Y79.339 E26.1628
G1 X92.15 Y74.311 E26.44572
G0 F3600 X92.749 Y74.354
G1 F3000 X92.769 Y74.261 E26.45106
G1 X92.927 Y71.911 E26.58326
G1 X92.801 Y71.681 E26.59797
G1 X92.802 Y71.591 E26.60303
G1 X93.219 Y69.116 E26.7439
G1 X93.15 Y68.635 E26.77117
G1 X93.348 Y67.827 E26.81786
G1 X93.36 Y66.918 E26.86889
G1 X93.405 Y66.771 E26.87751
G1 X93.697 Y66.56 E26.89773
G1 X93.931 Y66.502 E26.91126
G1 X97.989 Y66.5 E27.13903
G1 X98.095 Y66.394 E27.14744
G1 X98.095 Y66.082 E27.16495
G1 X98.134 Y65.933 E27.1736
G1 X98.242 Y65.824 E27.18221
G1 X98.395 Y65.782 E27.19111
G1 X101.395 Y65.782 E27.35949
G1 X101.544 Y65.821 E27.36814
G1 X101.653 Y65.929 E27.37675
G1 X101.695 Y66.082 E27.38565
G1 X101.695 Y66.396 E27.40328
G1 X101.801 Y66.502 E27.41169
G1 X110.999 Y66.499 E27.92794
G1 X111.345 Y66.615 E27.94843
G1 X111.468 Y66.706 E27.95701
G1 X111.53 Y66.853 E27.96597
G1 X111.802 Y68.88 E28.08076
G1 X111.802 Y69.451 E28.1128
G1 X112.443 Y75.829 E28.47258
G1 X112.419 Y75.981 E28.48122
G1 X112.298 Y76.133 E28.49212
G1 X112.241 Y76.362 E28.50537
G1 X112.359 Y76.767 E28.52904
G1 X112.363 Y76.921 E28.53769
G1 X112.256 Y77.087 E28.54878
G1 X110.972 Y78.091 E28.64026
G1 X110.787 Y78.155 E28.65125
G1 X106.593 Y78.155 E28.88664
G1 X106.487 Y78.261 E28.89505
G1 X106.487 Y79.245 E28.95028
G1 X106.448 Y79.394 E28.95893
G1 X106.34 Y79.503 E28.96754
G1 X106.187 Y79.545 E28.97644
G1 X97.729 Y79.543 E29.45116
G1 X97.309 Y79.726 E29.47687
G1 X93.252 Y79.726 E29.70458
G1 X92.889 Y79.802 E29.7254
G1 X92.736 Y79.794 E29.73399
G1 X92.508 Y79.642 E29.74937
G1 X92.413 Y79.521 E29.75801
G1 X92.39 Y79.382 E29.76592
G1 X92.749 Y74.354 E30.04884
G1 F1500 E28.04884
G0 F3600 X92.385 Y74.329
G0 X86.503 Y87.135
G1 F1500 E30.04884
G1 F3000 X87.379 Y86.592 E30.10669
G1 X88.433 Y86.001 E30.17451
G1 X89.425 Y85.49 E30.23714
G1 X90.439 Y85.016 E30.29996
G1 X91.464 Y84.584 E30.36239
G1 X92.503 Y84.191 E30.42474
G1 X93.566 Y83.831 E30.48773
G1 X94.628 Y83.52 E30.54984
G1 X95.714 Y83.242 E30.61276
G1 X96.801 Y83.009 E30.67515
G1 X97.902 Y82.816 E30.73789
G1 X99.011 Y82.664 E30.80072
G1 X100.116 Y82.556 E30.86303
G1 X101.23 Y82.488 E30.92567
