;FLAVOR:Marlin
;TIME:759
;Filament used: 1.38139m
;Layer height: 0.3
;MINX:90.255
;MINY:83.682
;MINZ:0.1
;MAXX:114.707
;MAXY:121.73
;MAXZ:35.25
;Generated with Cura_SteamEngine 5.0.0
M140 S60
M105
M190 S60
M104 S230
M105
M109 S230
M82 ;absolute extrusion mode
G21 ;metric values
G90 ;absolute positioning
M82 ;set extruder to absolute mode
M107 ;start with the fan off

M206 X5 Y9 ;set home offsets

G28 X0 Y0 ;move X/Y to min endstops
G28 Z0 ;move Z to min endstops
G1 Z15.0 F9000 ;move the platform down 15mm
G92 E0 ;zero the extruded length
G1 F200 E3 ;extrude 3mm of feed stock
G92 E0 ;zero the extruded length again
G1 F9000

M301 D121.72 I2.14 P32.30

;Set max printing acceleration
M201 X100 Y100
;Set max travel acceleration
M202 X300 Y300
;Set max jerk
M556 X10 Y10
;Set max feedrate
M203 X1000 Y1000


;Put printing message on LCD screen
M117 Printing...
G92 E0
G92 E0
G1 F1500 E-2
;LAYER_COUNT:112
;LAYER:0
M107
G1 F600 Z1.1
G0 F3600 X91.189 Y96.161 Z1.1
G0 X90.255 Y98.211
;TYPE:SKIRT
G1 F600 Z0.1
G1 F1500 E0
G1 F3000 X90.294 Y97.749 E0.01735
G1 X90.411 Y97.299 E0.03475
G1 X90.603 Y96.877 E0.05209
G1 X90.865 Y96.493 E0.06949
G1 X91.189 Y96.161 E0.08685
G1 X91.565 Y95.888 E0.10423
G1 X91.982 Y95.684 E0.1216
G1 X92.428 Y95.555 E0.13897
G1 X92.947 Y95.503 E0.15849
G1 X111.947 Y95.448 E0.86943
G1 X112.41 Y95.487 E0.88682
G1 X112.859 Y95.604 E0.90418
G1 X113.282 Y95.796 E0.92156
G1 X113.665 Y96.059 E0.93894
G1 X113.998 Y96.382 E0.9563
G1 X114.27 Y96.758 E0.97367
G1 X114.474 Y97.176 E0.99107
G1 X114.603 Y97.622 E1.00844
G1 X114.655 Y98.141 E1.02796
G1 X114.707 Y118.48 E1.789
G1 X114.668 Y118.943 E1.80639
G1 X114.501 Y119.522 E1.82893
G1 X114.16 Y120.24 E1.85868
G1 X113.878 Y120.609 E1.87605
G1 X113.311 Y121.097 E1.90404
G1 X112.919 Y121.346 E1.92142
G1 X112.455 Y121.535 E1.94017
G1 X111.925 Y121.654 E1.96049
G1 X111.605 Y121.674 E1.97249
G1 X93.494 Y121.73 E2.65016
G1 X93.032 Y121.691 E2.66751
G1 X92.452 Y121.534 E2.69
G1 X92.023 Y121.355 E2.70739
G1 X91.632 Y121.106 E2.72473
G1 X91.195 Y120.686 E2.74741
G1 X90.726 Y120.058 E2.77674
G1 X90.468 Y119.441 E2.80177
G1 X90.332 Y118.806 E2.82606
G1 X90.318 Y118.544 E2.83588
G1 X90.255 Y98.211 E3.5967
G0 F3600 X90.855 Y98.21
G1 F3000 X90.894 Y97.802 E3.61204
G1 X91.011 Y97.41 E3.62734
G1 X91.202 Y97.047 E3.64269
G1 X91.459 Y96.729 E3.65799
G1 X91.773 Y96.467 E3.67329
G1 X92.133 Y96.271 E3.68863
G1 X92.523 Y96.148 E3.70393
G1 X92.949 Y96.103 E3.71996
G1 X111.949 Y96.048 E4.4309
G1 X112.356 Y96.087 E4.4462
G1 X112.749 Y96.204 E4.46154
G1 X113.111 Y96.395 E4.47685
G1 X113.429 Y96.652 E4.49215
G1 X113.691 Y96.967 E4.50748
G1 X113.887 Y97.326 E4.52279
G1 X114.01 Y97.717 E4.53812
G1 X114.055 Y98.143 E4.55415
G1 X114.107 Y118.482 E5.31519
G1 X114.068 Y118.889 E5.33049
G1 X113.82 Y119.598 E5.3586
G1 X113.627 Y119.959 E5.37391
G1 X113.367 Y120.276 E5.38926
G1 X112.947 Y120.62 E5.40957
G1 X112.599 Y120.836 E5.42489
G1 X112.205 Y120.984 E5.44064
G1 X111.603 Y121.074 E5.46342
G1 X93.492 Y121.13 E6.14109
G1 X92.847 Y121.031 E6.16551
G1 X92.258 Y120.801 E6.18917
G1 X91.921 Y120.569 E6.20448
G1 X91.452 Y120.056 E6.23049
G1 X91.223 Y119.717 E6.24579
G1 X90.995 Y119.101 E6.27037
G1 X90.918 Y118.543 E6.29145
G1 X90.855 Y98.21 E7.05227
G0 F3600 X91.455 Y98.208
G1 F3000 X91.494 Y97.864 E7.06522
G1 X91.61 Y97.538 E7.07817
G1 X91.798 Y97.248 E7.0911
G1 X92.048 Y97.009 E7.10404
G1 X92.345 Y96.832 E7.11698
G1 X92.675 Y96.729 E7.12991
G1 X92.951 Y96.703 E7.14029
G1 X111.951 Y96.648 E7.85122
G1 X112.294 Y96.687 E7.86414
G1 X112.62 Y96.803 E7.87709
G1 X112.91 Y96.991 E7.89002
G1 X113.15 Y97.241 E7.90299
G1 X113.326 Y97.539 E7.91594
G1 X113.429 Y97.869 E7.92887
G1 X113.455 Y98.144 E7.93921
G1 X113.507 Y118.483 E8.70025
G1 X113.468 Y118.827 E8.7132
G1 X113.265 Y119.368 E8.73482
G1 X113.097 Y119.67 E8.74775
G1 X112.583 Y120.143 E8.77389
G1 X112.107 Y120.387 E8.79391
G1 X111.602 Y120.474 E8.81308
G1 X93.491 Y120.53 E9.49075
G1 X92.817 Y120.391 E9.5165
G1 X92.502 Y120.248 E9.52945
G1 X92.119 Y119.92 E9.54832
G1 X91.725 Y119.383 E9.57324
G1 X91.573 Y118.94 E9.59076
G1 X91.518 Y118.541 E9.60583
G1 X91.455 Y98.208 E10.36665
G0 F3600 X92.055 Y98.206
G1 F3000 X92.094 Y97.941 E10.37667
G1 X92.209 Y97.699 E10.3867
G1 X92.39 Y97.502 E10.39671
G1 X92.621 Y97.367 E10.40672
G1 X92.952 Y97.303 E10.41933
G1 X111.952 Y97.248 E11.13027
G1 X112.217 Y97.287 E11.1403
G1 X112.459 Y97.402 E11.15032
G1 X112.656 Y97.583 E11.16033
G1 X112.791 Y97.814 E11.17034
G1 X112.855 Y98.146 E11.18299
G1 X112.907 Y118.485 E11.94403
G1 X112.838 Y118.832 E11.95727
G1 X112.573 Y119.367 E11.97961
G1 X112.219 Y119.666 E11.99695
G1 X111.858 Y119.835 E12.01187
G1 X111.6 Y119.874 E12.02163
G1 X93.489 Y119.93 E12.6993
G1 X92.999 Y119.819 E12.7181
G1 X92.759 Y119.701 E12.72811
G1 X92.375 Y119.29 E12.74916
G1 X92.201 Y118.957 E12.76321
G1 X92.118 Y118.539 E12.77916
G1 X92.055 Y98.206 E13.53998
G0 F3600 X92.655 Y98.204
G1 F3000 X92.694 Y98.055 E13.54574
G1 X92.801 Y97.945 E13.55148
G1 X92.954 Y97.903 E13.55742
G1 X111.954 Y97.848 E14.26836
G1 X112.103 Y97.887 E14.27412
G1 X112.213 Y97.994 E14.27986
G1 X112.255 Y98.147 E14.2858
G1 X112.307 Y118.486 E15.04684
G1 X112.157 Y118.908 E15.0636
G1 X112.062 Y119.031 E15.06941
G1 X111.76 Y119.238 E15.08311
G1 X111.598 Y119.274 E15.08932
G1 X93.487 Y119.33 E15.767
G1 X93.182 Y119.248 E15.77881
G1 X93.042 Y119.154 E15.78512
G1 X92.779 Y118.796 E15.80174
G1 X92.718 Y118.537 E15.8117
G1 X92.655 Y98.204 E16.57252
;MESH:M508 Duct.3mf
G0 F3600 X93.256 Y98.503
;TYPE:WALL-OUTER
G1 F3000 X93.318 Y118.48 E17.32001
G1 X93.43 Y118.697 E17.32915
G1 X93.629 Y118.73 E17.3367
G1 X111.523 Y118.674 E18.00625
G1 X111.657 Y118.568 E18.01265
G1 X111.697 Y118.482 E18.0162
G1 X111.706 Y118.415 E18.01873
G1 X111.655 Y98.449 E18.76581
G1 X93.256 Y98.503 E19.45426
G0 F3600 X93.256 Y98.703
G0 X93.838 Y99.082
;TYPE:SKIN
G1 F3000 X93.897 Y118.149 E20.1677
G1 X102.513 Y118.123 E20.4901
G1 X111.124 Y118.094 E20.8123
G1 X111.076 Y99.031 E21.5256
G1 X93.838 Y99.082 E22.17061
G0 F3600 X110.364 Y99.333
G1 F3000 X110.777 Y99.746 E22.19246
G0 F3600 X110.779 Y100.597
G1 F3000 X109.518 Y99.336 E22.25919
G0 F3600 X108.672 Y99.338
G1 F3000 X110.781 Y101.447 E22.37079
G0 F3600 X110.783 Y102.298
G1 F3000 X107.826 Y99.341 E22.52726
G0 F3600 X106.98 Y99.343
G1 F3000 X110.785 Y103.149 E22.72864
G0 F3600 X110.788 Y103.999
G1 F3000 X106.133 Y99.345 E22.97494
G0 F3600 X105.288 Y99.348
G1 F3000 X110.79 Y104.851 E23.26611
G0 F3600 X110.793 Y105.701
G1 F3000 X104.441 Y99.35 E23.60221
G0 F3600 X103.596 Y99.353
G1 F3000 X110.795 Y106.552 E23.98316
G0 F3600 X110.797 Y107.403
G1 F3000 X102.749 Y99.355 E24.40903
G0 F3600 X101.903 Y99.358
G1 F3000 X110.799 Y108.253 E24.87975
G0 F3600 X110.801 Y109.104
G1 F3000 X101.057 Y99.36 E25.39537
G0 F3600 X100.211 Y99.363
G1 F3000 X110.803 Y109.955 E25.95586
G0 F3600 X110.805 Y110.805
G1 F3000 X99.365 Y99.365 E26.56122
G0 F3600 X98.519 Y99.368
G1 F3000 X110.807 Y111.656 E27.21146
G0 F3600 X110.809 Y112.507
G1 F3000 X97.673 Y99.37 E27.9066
G0 F3600 X96.827 Y99.373
G1 F3000 X110.812 Y113.357 E28.64661
G0 F3600 X110.814 Y114.208
G1 F3000 X95.981 Y99.375 E29.43152
G0 F3600 X95.134 Y99.377
G1 F3000 X110.817 Y115.059 E30.26139
G0 F3600 X110.819 Y115.91
G1 F3000 X94.289 Y99.38 E31.1361
G0 F3600 X94.141 Y100.081
G1 F3000 X110.821 Y116.761 E32.01875
G0 F3600 X110.823 Y117.611
G1 F3000 X94.143 Y100.931 E32.90139
G0 F3600 X94.146 Y101.783
G1 F3000 X110.158 Y117.795 E33.74869
G0 F3600 X109.313 Y117.798
G1 F3000 X94.149 Y102.634 E34.55112
G0 F3600 X94.151 Y103.485
G1 F3000 X108.467 Y117.801 E35.30867
G0 F3600 X107.621 Y117.803
G1 F3000 X94.154 Y104.336 E36.0213
G0 F3600 X94.156 Y105.187
G1 F3000 X106.775 Y117.806 E36.68905
G0 F3600 X105.93 Y117.809
G1 F3000 X94.159 Y106.038 E37.31194
G0 F3600 X94.161 Y106.889
G1 F3000 X105.083 Y117.811 E37.88989
G0 F3600 X104.238 Y117.814
G1 F3000 X94.164 Y107.741 E38.42294
G0 F3600 X94.166 Y108.591
G1 F3000 X103.392 Y117.817 E38.91115
G0 F3600 X102.546 Y117.82
G1 F3000 X94.169 Y109.443 E39.35443
G0 F3600 X94.172 Y110.294
G1 F3000 X101.701 Y117.823 E39.75284
G0 F3600 X100.854 Y117.825
G1 F3000 X94.174 Y111.145 E40.10633
G0 F3600 X94.177 Y111.996
G1 F3000 X100.008 Y117.828 E40.41491
G0 F3600 X99.163 Y117.83
G1 F3000 X94.18 Y112.847 E40.67859
G0 F3600 X94.183 Y113.699
G1 F3000 X98.317 Y117.833 E40.89735
G0 F3600 X97.471 Y117.836
G1 F3000 X94.185 Y114.549 E41.07126
G0 F3600 X94.188 Y115.401
G1 F3000 X96.626 Y117.839 E41.20027
G0 F3600 X95.779 Y117.841
G1 F3000 X94.19 Y116.252 E41.28435
G0 F3600 X94.192 Y117.103
G1 F3000 X94.934 Y117.844 E41.32359
G1 F1500 E39.32359
;MESH:NONMESH
G0 F600 X94.934 Y117.844 Z0.3
G0 F3600 X93.38 Y98.626
G0 X93.152 Y97.103
;TIME_ELAPSED:28.247957
;LAYER:1
M106 S51
;TYPE:WALL-OUTER
;MESH:M508 Duct.3mf
G1 F1500 E41.32359
G1 F3000 X93.218 Y118.766 E42.04411
G1 X93.34 Y119.012 E42.05324
G1 X93.564 Y119.086 E42.06109
G1 X93.909 Y119.043 E42.07265
G1 X111.117 Y118.995 E42.645
G1 X111.438 Y119.032 E42.65574
G1 X111.597 Y119.018 E42.66105
G1 X111.719 Y118.925 E42.66615
G1 X111.808 Y118.63 E42.6764
G1 X111.776 Y106.351 E43.0848
G1 X111.751 Y97.05 E43.39416
G1 X93.152 Y97.103 E44.01277
G0 F5400 X93.152 Y97.303
G0 X93.553 Y97.502
;TYPE:WALL-INNER
G1 F4500 X93.618 Y118.686 E44.71735
G1 X93.908 Y118.643 E44.7271
G1 X111.116 Y118.595 E45.29945
G1 X111.404 Y118.63 E45.30909
G1 X111.407 Y118.304 E45.31994
G1 X111.376 Y106.352 E45.71746
G1 X111.352 Y97.451 E46.01351
G1 X93.553 Y97.502 E46.60551
G0 F5400 X93.935 Y97.881
;TYPE:SKIN
G1 F3000 X93.998 Y118.262 E47.28339
G1 X111.026 Y118.215 E47.84975
G1 X110.996 Y106.353 E48.24428
G1 X110.973 Y97.833 E48.52766
G1 X93.935 Y97.881 E49.09435
G0 F5400 X94.137 Y98.195
G1 F3000 X94.254 Y98.078 E49.09985
G0 F5400 X94.821 Y98.077
G1 F3000 X94.138 Y98.76 E49.13198
G0 F5400 X94.14 Y99.323
G1 F3000 X95.388 Y98.075 E49.19068
G0 F5400 X95.955 Y98.074
G1 F3000 X94.142 Y99.888 E49.27598
G0 F5400 X94.144 Y100.451
G1 F3000 X96.523 Y98.072 E49.38788
G0 F5400 X97.09 Y98.07
G1 F3000 X94.145 Y101.015 E49.5264
G0 F5400 X94.147 Y101.579
G1 F3000 X97.657 Y98.069 E49.6915
G0 F5400 X98.224 Y98.067
G1 F3000 X94.149 Y102.143 E49.8832
G0 F5400 X94.151 Y102.707
G1 F3000 X98.792 Y98.066 E50.1015
G0 F5400 X99.359 Y98.064
G1 F3000 X94.152 Y103.271 E50.34642
G0 F5400 X94.154 Y103.835
G1 F3000 X99.926 Y98.062 E50.61794
G0 F5400 X100.494 Y98.061
G1 F3000 X94.156 Y104.399 E50.91606
G0 F5400 X94.157 Y104.963
G1 F3000 X101.061 Y98.06 E51.24078
G0 F5400 X101.628 Y98.058
G1 F3000 X94.159 Y105.527 E51.5921
G0 F5400 X94.161 Y106.091
G1 F3000 X102.196 Y98.056 E51.97004
G0 F5400 X102.763 Y98.055
G1 F3000 X94.163 Y106.655 E52.37456
G0 F5400 X94.164 Y107.219
G1 F3000 X103.33 Y98.053 E52.8057
G0 F5400 X103.897 Y98.052
G1 F3000 X94.166 Y107.782 E53.26339
G0 F5400 X94.168 Y108.347
G1 F3000 X104.464 Y98.05 E53.74771
G0 F5400 X105.031 Y98.049
G1 F3000 X94.17 Y108.91 E54.25858
G0 F5400 X94.171 Y109.474
G1 F3000 X105.599 Y98.047 E54.79609
G0 F5400 X106.166 Y98.046
G1 F3000 X94.173 Y110.038 E55.36018
G0 F5400 X94.175 Y110.602
G1 F3000 X106.733 Y98.044 E55.95087
G0 F5400 X107.3 Y98.043
G1 F3000 X94.176 Y111.167 E56.56819
G0 F5400 X94.178 Y111.73
G1 F3000 X107.867 Y98.041 E57.21207
G0 F5400 X108.435 Y98.039
G1 F3000 X94.18 Y112.294 E57.88259
G0 F5400 X94.182 Y112.858
G1 F3000 X109.002 Y98.038 E58.57967
G0 F5400 X109.569 Y98.036
G1 F3000 X94.183 Y113.422 E59.30338
G0 F5400 X94.185 Y113.986
G1 F3000 X110.136 Y98.035 E60.05367
G0 F5400 X110.703 Y98.033
G1 F3000 X94.187 Y114.55 E60.83056
G0 F5400 X94.189 Y115.114
G1 F3000 X110.773 Y98.529 E61.61064
G0 F5400 X110.775 Y99.093
G1 F3000 X94.19 Y115.678 E62.39075
G0 F5400 X94.192 Y116.241
G1 F3000 X110.777 Y99.657 E63.17083
G0 F5400 X110.778 Y100.221
G1 F3000 X94.194 Y116.806 E63.95091
G0 F5400 X94.195 Y117.37
G1 F3000 X110.78 Y100.786 E64.731
G0 F5400 X110.781 Y101.35
G1 F3000 X94.197 Y117.934 E65.51106
G0 F5400 X94.637 Y118.06
G1 F3000 X110.783 Y101.914 E66.27052
G0 F5400 X110.784 Y102.478
G1 F3000 X95.204 Y118.059 E67.00338
G0 F5400 X95.771 Y118.057
G1 F3000 X110.785 Y103.043 E67.70959
G0 F5400 X110.787 Y103.607
G1 F3000 X96.339 Y118.055 E68.38918
G0 F5400 X96.906 Y118.054
G1 F3000 X110.789 Y104.17 E69.04222
G0 F5400 X110.79 Y104.735
G1 F3000 X97.473 Y118.052 E69.66861
G0 F5400 X98.041 Y118.05
G1 F3000 X110.792 Y105.299 E70.26837
G0 F5400 X110.793 Y105.863
G1 F3000 X98.608 Y118.049 E70.84154
G0 F5400 X99.175 Y118.047
G1 F3000 X110.795 Y106.428 E71.38809
G0 F5400 X110.796 Y106.992
G1 F3000 X99.743 Y118.045 E71.90799
G0 F5400 X100.31 Y118.044
G1 F3000 X110.797 Y107.556 E72.40129
G0 F5400 X110.799 Y108.12
G1 F3000 X100.877 Y118.042 E72.86799
G0 F5400 X101.444 Y118.041
G1 F3000 X110.8 Y108.685 E73.30807
G0 F5400 X110.802 Y109.248
G1 F3000 X102.012 Y118.039 E73.72154
G0 F5400 X102.579 Y118.038
G1 F3000 X110.804 Y109.812 E74.10845
G0 F5400 X110.805 Y110.377
G1 F3000 X103.146 Y118.036 E74.4687
G0 F5400 X103.713 Y118.035
G1 F3000 X110.807 Y110.941 E74.80238
G0 F5400 X110.808 Y111.505
G1 F3000 X104.281 Y118.033 E75.10942
G0 F5400 X104.848 Y118.031
G1 F3000 X110.809 Y112.07 E75.3898
G0 F5400 X110.811 Y112.634
G1 F3000 X105.415 Y118.03 E75.64361
G0 F5400 X105.982 Y118.028
G1 F3000 X110.812 Y113.198 E75.8708
G0 F5400 X110.814 Y113.762
G1 F3000 X106.55 Y118.026 E76.07137
G0 F5400 X107.117 Y118.025
G1 F3000 X110.816 Y114.326 E76.24536
G0 F5400 X110.817 Y114.89
G1 F3000 X107.684 Y118.023 E76.39272
G0 F5400 X108.251 Y118.022
G1 F3000 X110.819 Y115.454 E76.51352
G0 F5400 X110.82 Y116.019
G1 F3000 X108.819 Y118.02 E76.60764
G0 F5400 X109.386 Y118.018
G1 F3000 X110.822 Y116.583 E76.67516
G0 F5400 X110.823 Y117.147
G1 F3000 X109.953 Y118.017 E76.71608
G0 F5400 X110.52 Y118.016
G1 F3000 X110.824 Y117.712 E76.73038
G1 F1500 E74.73038
;MESH:NONMESH
G0 F600 X110.824 Y117.712 Z0.5
G0 F5400 X93.557 Y98.8
;TIME_ELAPSED:51.201309
;LAYER:2
;TYPE:FILL
;MESH:M508 Duct.3mf
G1 F1500 E76.73038
G1 F4006.7 X93.56 Y100.108 E76.79553
G1 X93.563 Y101.416 E76.86068
G1 X93.567 Y102.724 E76.92582
G1 F4013.4 X93.57 Y104.032 E76.99086
G1 X93.574 Y105.34 E77.0559
G1 F4020.1 X93.577 Y106.648 E77.12083
G1 X93.581 Y107.956 E77.18576
G1 X93.584 Y109.264 E77.25069
G1 F4026.8 X93.588 Y110.572 E77.31551
G1 X93.591 Y111.88 E77.38034
G1 F4033.6 X93.595 Y113.188 E77.44505
G1 X93.598 Y114.496 E77.50976
G1 X93.602 Y115.804 E77.57447
G1 F4040.4 X93.605 Y117.112 E77.63908
G1 X93.608 Y118.42 E77.70368
G0 F7200 X111.164 Y118.645
G0 X111.608 Y118.713
G1 F6469 X111.507 Y118.474 E77.71169
G1 F4809.6 X111.409 Y118.376 E77.71744
G1 F4026.8 X111.404 Y116.413 E77.81472
G1 X111.399 Y114.45 E77.912
G1 F4020.1 X111.394 Y112.487 E78.00945
G1 X111.389 Y110.524 E78.10689
G1 X111.383 Y108.561 E78.20434
G1 F4013.4 X111.378 Y106.598 E78.30194
G1 X111.373 Y104.635 E78.39955
G1 F4006.7 X111.368 Y102.672 E78.49732
G1 X111.363 Y100.709 E78.5951
G1 X111.357 Y98.746 E78.69287
G0 F7200 X111.47 Y96.488
G0 X111.749 Y96.208
;TYPE:WALL-OUTER
G1 F3000 X93.15 Y96.261 E79.31147
G1 X93.186 Y109.639 E79.75643
G1 X93.214 Y118.918 E80.06505
G1 X93.297 Y119.21 E80.07515
G1 X93.482 Y119.343 E80.08273
G1 X93.791 Y119.328 E80.09302
G1 X93.952 Y119.169 E80.10054
G1 X94.013 Y119.047 E80.10508
G1 X94.192 Y118.937 E80.11207
G1 X110.835 Y118.888 E80.66562
G1 X111.016 Y119.001 E80.67272
G1 X111.162 Y119.227 E80.68166
G1 X111.36 Y119.302 E80.68871
G1 X111.587 Y119.28 E80.69629
G1 X111.72 Y119.182 E80.70179
G1 X111.808 Y118.891 E80.7119
G1 X111.774 Y105.51 E81.15695
G1 X111.749 Y96.208 E81.46634
G0 F7200 X111.549 Y96.208
G0 X111.47 Y96.488
G0 X110.976 Y98.572
;TYPE:SKIN
G1 F3000 X111.039 Y98.425 E81.47166
G1 X111.175 Y98.371 E81.47653
G1 X111.375 Y98.37 E81.48318
G1 X111.37 Y96.59 E81.54238
G1 X93.532 Y96.64 E82.13568
G1 X93.537 Y98.42 E82.19488
G1 X93.735 Y98.42 E82.20147
G1 X93.873 Y98.473 E82.20638
G1 X93.936 Y98.619 E82.21167
G1 X93.986 Y118.346 E82.8678
G1 F3108.8 X93.973 Y118.608 E82.87622
G1 F3342.6 X93.88 Y118.756 E82.88144
G1 F3217.2 X94.197 Y118.557 E82.89304
G1 F3000 X110.826 Y118.508 E83.44613
G1 F3225.8 X111.141 Y118.702 E83.45757
G1 F3305.8 X111.041 Y118.483 E83.46484
G1 F3069.1 X111.032 Y118.303 E83.4707
G1 F3000 X110.976 Y98.572 E84.12696
