;FLAVOR:Marlin
;TIME:2666
;Filament used: 1.9602m
;Layer height: 0.2
;MINX:8.875
;MINY:8.875
;MINZ:0.2
;MAXX:211.125
;MAXY:211.125
;MAXZ:2
;Generated with Cura_SteamEngine 4.12.1
M140 S65
M105
M190 S65
M104 S205
M105
M109 S205
M82 ;absolute extrusion mode
G21 ;metric values
G90 ;absolute positioning
M82 ;set extruder to absolute mode
M107 ;start with the fan off
G206 X8 Y12 ;set home offsets
G28 X0 Y0 ;move X/Y to min endstops
G28 Z0 ;move Z to min endstops
G1 Z15.0 F9000 ;move the platform down 15mm
G92 E0 ;zero the extruded length
G1 F200 E3 ;extrude 3mm of feed stock
G92 E0 ;zero the extruded length again
G1 F9000

M301 D121.72 I2.14 P32.30

;Set max printing acceleration
M201 X200 Y200
;Set max travel acceleration
M202 X500 Y500
;Set max jerk
M556 X10 Y10
;Set max feedrate
M203 X1000 Y1000


;Put printing message on LCD screen
M117 Printing...
G92 E0
G92 E0
G1 F1800 E-1
;LAYER_COUNT:10
;LAYER:0
M107
M204 S500
M205 X30 Y30
G0 F2400 X9.217 Y9.193 Z0.2
M204 S100
M205 X10 Y10
;TYPE:SKIRT
G1 F1800 E0
G1 F1200 X9.457 Y9.015 E0.01118
G1 X9.736 Y8.906 E0.02239
G1 X10 Y8.875 E0.03233
G1 X210 Y8.875 E7.51587
G1 X210.297 Y8.915 E7.52708
G1 X210.572 Y9.031 E7.53825
G1 X210.807 Y9.217 E7.54946
G1 X210.985 Y9.457 E7.56064
G1 X211.094 Y9.736 E7.57185
G1 X211.125 Y10 E7.58179
G1 X211.125 Y210 E15.06533
G1 X211.085 Y210.297 E15.07654
G1 X210.969 Y210.572 E15.08771
G1 X210.783 Y210.807 E15.09892
G1 X210.543 Y210.985 E15.1101
G1 X210.264 Y211.094 E15.12131
G1 X210 Y211.125 E15.13126
G1 X10 Y211.125 E22.61479
G1 X9.703 Y211.085 E22.626
G1 X9.428 Y210.969 E22.63717
G1 X9.193 Y210.783 E22.64838
G1 X9.015 Y210.543 E22.65956
G1 X8.906 Y210.264 E22.67077
G1 X8.875 Y210 E22.68072
G1 X8.875 Y10 E30.16425
G1 X8.915 Y9.703 E30.17546
G1 X9.031 Y9.428 E30.18663
G1 X9.217 Y9.193 E30.19784
M204 S500
M205 X30 Y30
G0 F2400 X9.479 Y9.571
M204 S100
M205 X10 Y10
G1 F1200 X9.655 Y9.42 E30.20652
G1 X10 Y9.325 E30.21991
G1 X210 Y9.325 E37.70344
G1 X210.228 Y9.365 E37.7121
G1 X210.429 Y9.479 E37.72075
G1 X210.58 Y9.655 E37.72942
G1 X210.675 Y10 E37.74281
G1 X210.675 Y210 E45.22634
G1 X210.635 Y210.228 E45.235
G1 X210.521 Y210.429 E45.24365
G1 X210.345 Y210.58 E45.25233
G1 X210 Y210.675 E45.26572
G1 X10 Y210.675 E52.74925
G1 X9.772 Y210.635 E52.75791
G1 X9.571 Y210.521 E52.76656
G1 X9.42 Y210.345 E52.77523
G1 X9.325 Y210 E52.78862
G1 X9.325 Y10 E60.27215
G1 X9.365 Y9.772 E60.28081
G1 X9.479 Y9.571 E60.28946
M204 S500
M205 X30 Y30
G0 F2400 X9.814 Y9.873
M204 S100
M205 X10 Y10
G1 F1200 X10 Y9.775 E60.29733
G1 X210 Y9.775 E67.78086
G1 X210.127 Y9.814 E67.78583
G1 X210.225 Y10 E67.7937
G1 X210.225 Y210 E75.27723
G1 X210.186 Y210.127 E75.2822
G1 X210 Y210.225 E75.29006
G1 X10 Y210.225 E82.77359
G1 X9.873 Y210.186 E82.77857
G1 X9.775 Y210 E82.78643
G1 X9.775 Y10 E90.26996
G1 X9.814 Y9.873 E90.27493
M204 S500
M205 X30 Y30
G1 F1800 E89.27493
G0 F2400 X137.281 Y207.375
M204 S100
M205 X10 Y10
G1 F1800 E90.27493
G1 F1200 X207.375 Y207.375 E92.89769
G1 X207.375 Y137.281 E95.52044
G1 X206.429 Y140.456 E95.6444
G1 X205.37 Y143.63 E95.7696
G1 X204.205 Y146.764 E95.89471
G1 X202.937 Y149.861 E96.01993
G1 X201.568 Y152.912 E96.14505
G1 X200.099 Y155.917 E96.27021
G1 X198.532 Y158.871 E96.39533
G1 X196.866 Y161.774 E96.52057
G1 X195.107 Y164.618 E96.6457
G1 X193.254 Y167.403 E96.77086
G1 X191.309 Y170.126 E96.89607
G1 X189.276 Y172.782 E97.02123
G1 X187.156 Y175.369 E97.14638
G1 X184.953 Y177.885 E97.27151
G1 X182.666 Y180.328 E97.39672
G1 X180.301 Y182.691 E97.52182
G1 X177.858 Y184.977 E97.64701
G1 X175.341 Y187.18 E97.77217
G1 X172.754 Y189.298 E97.89727
G1 X170.095 Y191.332 E98.02254
G1 X167.373 Y193.274 E98.14765
G1 X164.587 Y195.127 E98.27285
G1 X161.742 Y196.885 E98.39799
G1 X158.839 Y198.549 E98.52319
G1 X155.884 Y200.116 E98.64834
G1 X152.878 Y201.585 E98.77353
G1 X149.826 Y202.951 E98.89865
G1 X146.731 Y204.219 E99.0238
G1 X143.593 Y205.383 E99.14903
G1 X140.421 Y206.44 E99.27414
G1 X137.281 Y207.375 E99.39673
M204 S500
M205 X30 Y30
G1 F1800 E98.39673
G0 F2400 X133.777 Y207.825
M204 S100
M205 X10 Y10
G1 F1800 E99.39673
G1 F1200 X207.825 Y207.825 E102.16743
G1 X207.825 Y133.782 E104.93794
G1 X207.798 Y133.901 E104.94251
G1 X206.953 Y137.123 E105.06715
G1 X206.002 Y140.314 E105.19174
G1 X204.948 Y143.473 E105.31634
G1 X203.789 Y146.594 E105.44092
G1 X202.527 Y149.676 E105.56553
G1 X201.163 Y152.714 E105.69014
G1 X199.701 Y155.706 E105.81474
G1 X198.141 Y158.647 E105.93931
G1 X196.483 Y161.537 E106.06398
G1 X194.732 Y164.369 E106.18857
G1 X192.887 Y167.141 E106.31316
G1 X190.952 Y169.852 E106.43779
G1 X188.928 Y172.497 E106.56241
G1 X186.818 Y175.073 E106.68701
G1 X184.624 Y177.577 E106.81158
G1 X182.348 Y180.009 E106.93621
G1 X179.993 Y182.363 E107.0608
G1 X177.562 Y184.639 E107.18541
G1 X175.056 Y186.832 E107.31001
G1 X172.48 Y188.941 E107.43458
G1 X169.834 Y190.965 E107.55924
G1 X167.124 Y192.899 E107.68381
G1 X164.35 Y194.744 E107.80847
G1 X161.518 Y196.495 E107.93305
G1 X158.628 Y198.151 E108.05769
G1 X155.686 Y199.711 E108.18229
G1 X152.694 Y201.174 E108.30691
G1 X149.656 Y202.535 E108.43147
G1 X146.574 Y203.797 E108.55608
G1 X143.451 Y204.956 E108.68073
G1 X140.293 Y206.009 E108.80529
G1 X137.101 Y206.959 E108.9299
G1 X133.879 Y207.802 E109.05452
G1 X133.777 Y207.825 E109.05843
M204 S500
M205 X30 Y30
G1 F1800 E108.05843
G0 F2400 X129.617 Y208.275
M204 S100
M205 X10 Y10
G1 F1800 E109.05843
G1 F1200 X208.275 Y208.275 E112.00163
G1 X208.275 Y129.617 E114.94483
G1 X208.094 Y130.554 E114.98054
G1 X207.363 Y133.787 E115.10456
G1 X206.522 Y136.994 E115.22862
G1 X205.575 Y140.171 E115.35266
G1 X204.526 Y143.316 E115.47671
G1 X203.372 Y146.423 E115.60073
G1 X202.116 Y149.492 E115.72481
G1 X200.759 Y152.517 E115.84887
G1 X199.304 Y155.495 E115.97288
G1 X197.751 Y158.423 E116.0969
G1 X196.1 Y161.3 E116.22102
G1 X194.357 Y164.12 E116.34506
G1 X192.521 Y166.88 E116.4691
G1 X190.595 Y169.579 E116.59316
G1 X188.58 Y172.212 E116.71723
G1 X186.479 Y174.776 E116.84126
G1 X184.295 Y177.27 E116.9653
G1 X182.03 Y179.691 E117.08935
G1 X179.686 Y182.034 E117.21336
G1 X177.265 Y184.3 E117.33744
G1 X174.771 Y186.484 E117.46149
G1 X172.207 Y188.584 E117.5855
G1 X169.573 Y190.599 E117.70959
G1 X166.875 Y192.524 E117.8336
G1 X164.113 Y194.361 E117.95772
G1 X161.294 Y196.104 E118.08173
G1 X158.417 Y197.754 E118.20583
G1 X155.489 Y199.307 E118.32985
G1 X152.51 Y200.763 E118.45392
G1 X149.485 Y202.118 E118.57794
G1 X146.417 Y203.375 E118.702
G1 X143.308 Y204.529 E118.82609
G1 X140.164 Y205.578 E118.9501
G1 X136.987 Y206.524 E119.07414
G1 X133.78 Y207.363 E119.19817
G1 X130.547 Y208.096 E119.32222
G1 X129.617 Y208.275 E119.35765
M204 S500
M205 X30 Y30
G1 F1800 E118.35765
G0 F2400 X12.625 Y137.281
M204 S100
M205 X10 Y10
G1 F1800 E119.35765
G1 F1200 X12.625 Y207.375 E121.98041
G1 X82.719 Y207.375 E124.60316
G1 X79.544 Y206.429 E124.72712
G1 X76.37 Y205.37 E124.85232
G1 X73.236 Y204.205 E124.97743
G1 X70.139 Y202.937 E125.10265
G1 X67.088 Y201.568 E125.22777
G1 X64.083 Y200.099 E125.35293
G1 X61.128 Y198.531 E125.4781
G1 X58.226 Y196.866 E125.60329
G1 X55.382 Y195.107 E125.72842
G1 X52.597 Y193.254 E125.85358
G1 X49.873 Y191.309 E125.97882
G1 X47.247 Y189.3 E126.10254
G1 X44.63 Y187.155 E126.22915
G1 X42.115 Y184.953 E126.35423
G1 X39.671 Y182.665 E126.4795
G1 X37.309 Y180.301 E126.60454
G1 X35.022 Y177.857 E126.72978
G1 X32.82 Y175.341 E126.85489
G1 X30.701 Y172.753 E126.98004
G1 X28.668 Y170.096 E127.10523
G1 X26.725 Y167.372 E127.23043
G1 X24.873 Y164.587 E127.35557
G1 X23.115 Y161.742 E127.48071
G1 X21.451 Y158.839 E127.60591
G1 X19.884 Y155.884 E127.73106
G1 X18.415 Y152.878 E127.85625
G1 X17.049 Y149.826 E127.98137
G1 X15.781 Y146.731 E128.10652
G1 X14.617 Y143.593 E128.23175
G1 X13.56 Y140.421 E128.35686
G1 X12.625 Y137.281 E128.47945
M204 S500
M205 X30 Y30
G1 F1800 E127.47945
G0 F2400 X12.175 Y133.777
M204 S100
M205 X10 Y10
G1 F1800 E128.47945
G1 F1200 X12.175 Y207.825 E131.25015
G1 X86.218 Y207.825 E134.02067
G1 X86.099 Y207.798 E134.02523
G1 X82.877 Y206.953 E134.14987
G1 X79.686 Y206.002 E134.27446
G1 X76.527 Y204.948 E134.39907
G1 X73.406 Y203.789 E134.52364
G1 X70.324 Y202.527 E134.64825
G1 X67.286 Y201.163 E134.77286
G1 X64.294 Y199.701 E134.89746
G1 X61.352 Y198.141 E135.02207
G1 X58.463 Y196.483 E135.1467
G1 X55.631 Y194.732 E135.27129
G1 X52.859 Y192.887 E135.39588
G1 X50.147 Y190.951 E135.52056
G1 X47.503 Y188.928 E135.64513
G1 X44.926 Y186.817 E135.76978
G1 X42.423 Y184.624 E135.8943
G1 X39.99 Y182.347 E136.01899
G1 X37.637 Y179.993 E136.14353
G1 X35.36 Y177.561 E136.26818
G1 X33.168 Y175.056 E136.39273
G1 X31.058 Y172.479 E136.51736
G1 X29.035 Y169.834 E136.64196
G1 X27.1 Y167.123 E136.76659
G1 X25.256 Y164.35 E136.89119
G1 X23.505 Y161.518 E137.01578
G1 X21.849 Y158.628 E137.14041
G1 X20.289 Y155.686 E137.26501
G1 X18.826 Y152.694 E137.38963
G1 X17.465 Y149.656 E137.51419
G1 X16.203 Y146.574 E137.63881
G1 X15.044 Y143.451 E137.76345
G1 X13.991 Y140.293 E137.88801
G1 X13.041 Y137.101 E138.01263
G1 X12.198 Y133.879 E138.13724
G1 X12.175 Y133.777 E138.14116
M204 S500
M205 X30 Y30
G1 F1800 E137.14116
G0 F2400 X11.725 Y129.617
M204 S100
M205 X10 Y10
G1 F1800 E138.14116
G1 F1200 X11.725 Y208.275 E141.08435
G1 X90.383 Y208.275 E144.02755
G1 X89.446 Y208.094 E144.06326
G1 X86.213 Y207.363 E144.18728
G1 X83.006 Y206.522 E144.31134
G1 X79.829 Y205.575 E144.43538
G1 X76.684 Y204.526 E144.55944
G1 X73.577 Y203.372 E144.68345
G1 X70.508 Y202.116 E144.80753
G1 X67.483 Y200.759 E144.93159
G1 X64.505 Y199.304 E145.05561
G1 X61.576 Y197.75 E145.17967
G1 X58.7 Y196.1 E145.30374
G1 X55.88 Y194.357 E145.42779
G1 X53.12 Y192.521 E145.55182
G1 X50.42 Y190.594 E145.67594
G1 X47.788 Y188.58 E145.79995
G1 X45.223 Y186.478 E145.92403
G1 X42.73 Y184.295 E146.04802
G1 X40.308 Y182.029 E146.17213
G1 X37.966 Y179.686 E146.29609
G1 X35.699 Y177.264 E146.42022
G1 X33.516 Y174.771 E146.54421
G1 X31.415 Y172.206 E146.66827
G1 X29.401 Y169.573 E146.79231
G1 X27.475 Y166.874 E146.91638
G1 X25.639 Y164.113 E147.04044
G1 X23.896 Y161.294 E147.16446
G1 X22.246 Y158.417 E147.28856
G1 X20.693 Y155.489 E147.41257
G1 X19.237 Y152.51 E147.53664
G1 X17.882 Y149.485 E147.66066
G1 X16.625 Y146.417 E147.78472
G1 X15.471 Y143.308 E147.90881
G1 X14.422 Y140.164 E148.03283
G1 X13.476 Y136.987 E148.15686
G1 X12.637 Y133.78 E148.2809
G1 X11.904 Y130.547 E148.40494
G1 X11.725 Y129.617 E148.44038
M204 S500
M205 X30 Y30
G1 F1800 E147.44038
G0 F2400 X137.281 Y12.625
M204 S100
M205 X10 Y10
G1 F1800 E148.44038
G1 F1200 X140.456 Y13.571 E148.56434
G1 X143.63 Y14.63 E148.68954
G1 X146.764 Y15.795 E148.81465
G1 X149.861 Y17.063 E148.93986
G1 X152.912 Y18.432 E149.06499
G1 X155.917 Y19.901 E149.19015
G1 X158.872 Y21.469 E149.31532
G1 X161.774 Y23.134 E149.44051
G1 X164.618 Y24.893 E149.56563
G1 X167.403 Y26.746 E149.6908
G1 X170.126 Y28.691 E149.81601
G1 X172.782 Y30.724 E149.94116
G1 X175.369 Y32.844 E150.06631
G1 X177.885 Y35.047 E150.19144
G1 X180.328 Y37.334 E150.31666
G1 X182.691 Y39.699 E150.44176
G1 X184.977 Y42.142 E150.56695
G1 X187.18 Y44.659 E150.6921
G1 X189.298 Y47.246 E150.81721
G1 X191.332 Y49.905 E150.94247
G1 X193.274 Y52.627 E151.06759
G1 X195.127 Y55.413 E151.19279
G1 X196.885 Y58.258 E151.31792
G1 X198.549 Y61.161 E151.44313
G1 X200.116 Y64.116 E151.56828
G1 X201.585 Y67.122 E151.69347
G1 X202.951 Y70.174 E151.81858
G1 X204.219 Y73.269 E151.94373
G1 X205.383 Y76.407 E152.06897
G1 X206.44 Y79.579 E152.19407
G1 X207.375 Y82.718 E152.31663
G1 X207.375 Y12.625 E154.93934
G1 X137.281 Y12.625 E157.5621
M204 S500
M205 X30 Y30
G1 F1800 E156.5621
G0 F2400 X133.782 Y12.175
M204 S100
M205 X10 Y10
G1 F1800 E157.5621
G1 F1200 X133.901 Y12.202 E157.56666
G1 X137.123 Y13.047 E157.6913
G1 X140.314 Y13.998 E157.81589
G1 X143.473 Y15.052 E157.9405
G1 X146.594 Y16.211 E158.06507
G1 X149.676 Y17.473 E158.18968
G1 X152.714 Y18.837 E158.31429
G1 X155.706 Y20.299 E158.43889
G1 X158.648 Y21.859 E158.56349
G1 X161.537 Y23.517 E158.68813
G1 X164.369 Y25.268 E158.81272
G1 X167.141 Y27.113 E158.93731
G1 X169.852 Y29.048 E159.06194
G1 X172.497 Y31.072 E159.18656
G1 X175.073 Y33.182 E159.31116
G1 X177.577 Y35.376 E159.43573
G1 X180.009 Y37.652 E159.56036
G1 X182.363 Y40.007 E159.68495
G1 X184.639 Y42.438 E159.80956
G1 X186.832 Y44.944 E159.93416
G1 X188.941 Y47.52 E160.05874
G1 X190.965 Y50.166 E160.18339
G1 X192.899 Y52.876 E160.30796
G1 X194.744 Y55.65 E160.43262
G1 X196.495 Y58.482 E160.55721
G1 X198.151 Y61.372 E160.68184
G1 X199.711 Y64.314 E160.80644
G1 X201.174 Y67.306 E160.93106
G1 X202.535 Y70.344 E161.05562
G1 X203.797 Y73.426 E161.18024
G1 X204.956 Y76.549 E161.30488
G1 X206.009 Y79.707 E161.42944
G1 X206.959 Y82.898 E161.55402
G1 X207.802 Y86.121 E161.67867
G1 X207.825 Y86.223 E161.68258
G1 X207.825 Y12.175 E164.45329
G1 X133.782 Y12.175 E167.2238
M204 S500
M205 X30 Y30
G1 F1800 E166.2238
G0 F2400 X129.617 Y11.725
M204 S100
M205 X10 Y10
G1 F1800 E167.2238
G1 F1200 X130.554 Y11.906 E167.25951
G1 X133.787 Y12.637 E167.38354
G1 X136.994 Y13.478 E167.50759
G1 X140.171 Y14.425 E167.63164
G1 X143.316 Y15.474 E167.75569
G1 X146.423 Y16.628 E167.8797
G1 X149.492 Y17.884 E168.00378
G1 X152.517 Y19.241 E168.12784
G1 X155.495 Y20.696 E168.25186
G1 X158.424 Y22.25 E168.37592
G1 X161.3 Y23.9 E168.49999
G1 X164.12 Y25.643 E168.62404
G1 X166.88 Y27.479 E168.74807
G1 X169.579 Y29.405 E168.87214
G1 X172.212 Y31.42 E168.9962
G1 X174.776 Y33.521 E169.12023
G1 X177.27 Y35.705 E169.24428
G1 X179.691 Y37.97 E169.36833
G1 X182.034 Y40.314 E169.49234
G1 X184.3 Y42.735 E169.61642
G1 X186.484 Y45.229 E169.74046
G1 X188.584 Y47.793 E169.86447
G1 X190.599 Y50.427 E169.98856
G1 X192.524 Y53.125 E170.11258
G1 X194.361 Y55.887 E170.23669
G1 X196.104 Y58.706 E170.36071
G1 X197.754 Y61.583 E170.48481
G1 X199.307 Y64.511 E170.60882
G1 X200.763 Y67.49 E170.73289
G1 X202.118 Y70.515 E170.85692
G1 X203.375 Y73.583 E170.98097
G1 X204.529 Y76.692 E171.10506
G1 X205.578 Y79.836 E171.22908
G1 X206.524 Y83.012 E171.35308
G1 X207.363 Y86.22 E171.47715
G1 X208.096 Y89.453 E171.60119
G1 X208.275 Y90.383 E171.63663
G1 X208.275 Y11.725 E174.57983
G1 X129.617 Y11.725 E177.52302
M204 S500
M205 X30 Y30
G1 F1800 E176.52302
G0 F2400 X41.743 Y40.553
M204 S100
M205 X10 Y10
G1 F1800 E177.52302
G1 F1200 X39.401 Y42.936 E177.64804
G1 X37.211 Y45.32 E177.76917
G1 X35.043 Y47.845 E177.8937
G1 X33.01 Y50.382 E178.01535
G1 X31.041 Y53.014 E178.13834
G1 X29.14 Y55.746 E178.26288
G1 X27.373 Y58.476 E178.38456
G1 X25.67 Y61.314 E178.5084
G1 X24.066 Y64.205 E178.63211
G1 X22.574 Y67.121 E178.75467
G1 X21.186 Y70.077 E178.87686
G1 X19.874 Y73.134 E179.00134
G1 X18.681 Y76.189 E179.12406
G1 X17.591 Y79.302 E179.24747
G1 X16.616 Y82.405 E179.36918
G1 X15.738 Y85.575 E179.49226
G1 X14.952 Y88.833 E179.61766
G1 X14.301 Y92.01 E179.73901
G1 X13.751 Y95.237 E179.86149
G1 X13.303 Y98.533 E179.98596
G1 X12.97 Y101.806 E180.10906
G1 X12.749 Y105.066 E180.23132
G1 X12.639 Y108.336 E180.35374
G1 X12.639 Y111.664 E180.47827
G1 X12.749 Y114.935 E180.60073
G1 X12.97 Y118.195 E180.72299
G1 X13.303 Y121.467 E180.84606
G1 X13.749 Y124.751 E180.97006
G1 X14.3 Y127.985 E181.09282
G1 X14.959 Y131.192 E181.21532
G1 X15.727 Y134.387 E181.33828
G1 X16.617 Y137.595 E181.46285
G1 X17.593 Y140.71 E181.58499
G1 X18.679 Y143.801 E181.70758
G1 X19.878 Y146.875 E181.83104
G1 X21.186 Y149.923 E181.95515
G1 X22.573 Y152.878 E182.07729
G1 X24.066 Y155.795 E182.1999
G1 X25.67 Y158.686 E182.32361
G1 X27.365 Y161.509 E182.44682
G1 X29.156 Y164.279 E182.57024
G1 X31.034 Y166.976 E182.69322
G1 X32.999 Y169.607 E182.81609
G1 X35.067 Y172.185 E182.93975
G1 X37.186 Y174.651 E183.06141
G1 X39.43 Y177.094 E183.18553
G1 X41.728 Y179.433 E183.30822
G1 X44.109 Y181.696 E183.43113
G1 X46.571 Y183.883 E183.55435
G1 X49.09 Y185.972 E183.6768
G1 X51.721 Y188.009 E183.80131
G1 X54.357 Y189.911 E183.92293
G1 X57.098 Y191.751 E184.04646
G1 X59.912 Y193.505 E184.17054
G1 X62.726 Y195.129 E184.2921
G1 X65.644 Y196.685 E184.41584
G1 X68.61 Y198.141 E184.53947
G1 X71.59 Y199.479 E184.6617
G1 X74.681 Y200.747 E184.78671
G1 X77.71 Y201.865 E184.90753
G1 X80.859 Y202.912 E185.0317
G1 X84.011 Y203.843 E185.15467
