;FLAVOR:Marlin
;TIME:4101
;Filament used: 4.47908m
;Layer height: 0.2
;MINX:46.252
;MINY:58.615
;MINZ:0.3
;MAXX:141.349
;MAXY:161.323
;MAXZ:7.1
;Generated with Cura_SteamEngine 4.12.1
M140 S60
M105
M190 S60
M104 S205
M105
M109 S205
M82 ;absolute extrusion mode
G21 ;metric values
G90 ;absolute positioning
M82 ;set extruder to absolute mode
M107 ;start with the fan off
G28 X0 Y0 ;move X/Y to min endstops
G28 Z0 ;move Z to min endstops
G1 Z15.0 F9000 ;move the platform down 15mm
G92 E0 ;zero the extruded length
G1 F200 E3 ;extrude 3mm of feed stock
G92 E0 ;zero the extruded length again
G1 F9000

M301 D121.72 I2.14 P32.30

;Set max printing acceleration
M201 X200 Y200
;Set max travel acceleration
M202 X500 Y500
;Set max feedrate
M203 X1000 Y1000
;Set max jerk
M556 X10 Y10


;Put printing message on LCD screen
M117 Printing...
G92 E0
G92 E0
G1 F1500 E-6.5
;LAYER_COUNT:30
;LAYER:0
M107
G1 F600 Z1.3
G0 F3600 X50.478 Y79.921 Z1.3
;TYPE:SKIRT
G1 F600 Z0.3
G1 F1500 E0
G1 F2400 X50.914 Y79.657 E0.01907
G1 X51.366 Y79.415 E0.03826
G1 X51.889 Y79.178 E0.05974
G1 X53.336 Y78.603 E0.118
G1 X55.88 Y77.552 E0.221
G1 X58.387 Y76.432 E0.32374
G1 X60.847 Y75.249 E0.42588
G1 X63.316 Y73.974 E0.52985
G1 X65.677 Y72.67 E0.63077
G1 X68.04 Y71.274 E0.73347
G1 X70.376 Y69.806 E0.8367
G1 X72.642 Y68.289 E0.93874
G1 X74.877 Y66.7 E1.04135
G1 X77.06 Y65.054 E1.14365
G1 X79.207 Y63.336 E1.24654
G1 X81.887 Y61.048 E1.37839
G1 X82.432 Y60.581 E1.40524
G1 X82.918 Y60.227 E1.42774
G1 X83.477 Y59.867 E1.45262
G1 X84.166 Y59.503 E1.48178
G1 X84.685 Y59.278 E1.50294
G1 X85.169 Y59.096 E1.52229
G1 X85.649 Y58.951 E1.54105
G1 X86.363 Y58.781 E1.56852
G1 X87.122 Y58.668 E1.59723
G1 X87.683 Y58.628 E1.61828
G1 X88.229 Y58.615 E1.63871
G1 X88.901 Y58.617 E1.66386
G1 X136.608 Y59.451 E3.44921
G1 X137.275 Y59.472 E3.47418
G1 X137.92 Y59.547 E3.49848
G1 X138.409 Y59.662 E3.51728
G1 X138.891 Y59.854 E3.53669
G1 X139.335 Y60.087 E3.55545
G1 X139.786 Y60.415 E3.57632
G1 X140.159 Y60.75 E3.59508
G1 X140.533 Y61.21 E3.61726
G1 X140.803 Y61.633 E3.63604
G1 X141.031 Y62.142 E3.65691
G1 X141.188 Y62.618 E3.67566
G1 X141.276 Y63.145 E3.69565
G1 X141.292 Y63.838 E3.72159
G1 X141.233 Y64.496 E3.74631
G1 X141.17 Y65.007 E3.76558
G1 X140.931 Y66.758 E3.8317
G1 X140.638 Y69.489 E3.93448
G1 X140.423 Y72.207 E4.03649
G1 X140.285 Y74.957 E4.13952
G1 X140.224 Y77.677 E4.24132
G1 X140.242 Y80.435 E4.34452
G1 X140.335 Y83.153 E4.44628
G1 X140.506 Y85.886 E4.54875
G1 X140.857 Y89.551 E4.68651
G1 X140.871 Y89.897 E4.69947
G1 X140.849 Y91.364 E4.75437
G1 X140.83 Y92.311 E4.78981
G1 X140.873 Y96.046 E4.92957
G1 X140.905 Y97.094 E4.9688
G1 X140.892 Y97.865 E4.99766
G1 X140.831 Y98.519 E5.02223
G1 X140.674 Y99.994 E5.07774
G1 X140.462 Y102.711 E5.17971
G1 X140.327 Y105.462 E5.28277
G1 X140.269 Y108.174 E5.38427
G1 X140.29 Y110.939 E5.48773
G1 X140.386 Y113.653 E5.58935
G1 X140.562 Y116.408 E5.69264
G1 X140.816 Y119.154 E5.79583
G1 X141.145 Y121.871 E5.89824
G1 X141.297 Y122.996 E5.94071
G1 X141.349 Y123.883 E5.97396
G1 X141.293 Y124.971 E6.01472
G1 X141.254 Y125.572 E6.03726
G1 X141.152 Y128.331 E6.14057
G1 X141.135 Y131.852 E6.27231
G1 X141.16 Y133.74 E6.34297
G1 X141.159 Y150.542 E6.97166
G1 X141.151 Y151.074 E6.99156
G1 X141.142 Y151.266 E6.99876
G1 X141.1 Y151.819 E7.01951
G1 X140.985 Y152.456 E7.04373
G1 X140.798 Y153.037 E7.06657
G1 X140.556 Y153.575 E7.08864
G1 X140.433 Y153.799 E7.0982
G1 X140.128 Y154.255 E7.11873
G1 X137.96 Y156.87 E7.24583
G1 X136.96 Y158.16 E7.3069
G1 X136.014 Y159.357 E7.36399
G1 X135.52 Y159.897 E7.39138
G1 X134.968 Y160.361 E7.41836
G1 X134.532 Y160.642 E7.43777
G1 X133.98 Y160.909 E7.46071
G1 X133.324 Y161.141 E7.48675
G1 X133.107 Y161.198 E7.49514
G1 X132.569 Y161.29 E7.51557
G1 X132.087 Y161.32 E7.53364
G1 X130.893 Y161.323 E7.57831
G1 X85.511 Y160.53 E9.27666
G1 X84.754 Y160.506 E9.305
G1 X83.886 Y160.405 E9.3377
G1 X83.393 Y160.297 E9.35658
G1 X82.632 Y160.031 E9.38675
G1 X81.931 Y159.684 E9.41601
G1 X81.417 Y159.363 E9.43869
G1 X80.992 Y159.031 E9.45887
G1 X79.959 Y158.158 E9.50947
G1 X79.663 Y157.902 E9.52412
G1 X77.577 Y156.196 E9.62495
G1 X75.36 Y154.485 E9.72974
G1 X73.178 Y152.897 E9.83072
G1 X70.904 Y151.339 E9.93386
G1 X68.593 Y149.851 E10.0367
G1 X66.258 Y148.438 E10.13883
G1 X63.9 Y147.102 E10.24023
G1 X61.445 Y145.799 E10.34423
G1 X59.025 Y144.604 E10.44522
G1 X56.508 Y143.446 E10.54889
G1 X53.99 Y142.374 E10.65129
G1 X51.44 Y141.372 E10.75381
G1 X49.54 Y140.678 E10.8295
G1 X48.875 Y140.436 E10.85597
G1 X48.675 Y140.35 E10.86412
G1 X48.231 Y140.116 E10.8829
G1 X47.78 Y139.786 E10.90381
G1 X47.407 Y139.451 E10.92257
G1 X47.049 Y139.012 E10.94377
G1 X46.779 Y138.589 E10.96254
G1 X46.539 Y138.055 E10.98445
G1 X46.381 Y137.579 E11.00322
G1 X46.283 Y136.96 E11.02667
G1 X46.252 Y136.268 E11.05259
G1 X46.284 Y88.26 E12.84893
G1 X46.294 Y87.534 E12.8761
G1 X46.339 Y86.71 E12.90698
G1 X46.43 Y86.056 E12.93168
G1 X46.561 Y85.407 E12.95646
G1 X46.776 Y84.675 E12.98501
G1 X46.958 Y84.186 E13.00453
G1 X47.22 Y83.591 E13.02886
G1 X47.615 Y82.868 E13.05968
G1 X48.013 Y82.271 E13.08653
G1 X48.375 Y81.793 E13.10897
G1 X48.886 Y81.222 E13.13764
G1 X49.275 Y80.849 E13.1578
G1 X49.851 Y80.364 E13.18598
G1 X50.478 Y79.921 E13.2147
G1 F1500 E6.7147
G1 F600 Z1.3
;MESH:?????????2.3mf(2)
G0 F3600 X54.899 Y94.793 Z1.3
;TYPE:WALL-INNER
G1 F600 Z0.3
G1 F1500 E13.2147
G1 F2400 X55.352 Y94.825 E13.2317
G1 X57.406 Y94.828 E13.30855
G1 X57.842 Y94.797 E13.32491
G1 X58.351 Y94.68 E13.34445
G1 X59.111 Y94.329 E13.37577
G1 X59.494 Y94.04 E13.39373
G1 X59.821 Y93.714 E13.411
G1 X60.122 Y93.307 E13.42995
G1 X60.346 Y92.882 E13.44792
G1 X60.577 Y92.08 E13.47915
G1 X60.609 Y91.627 E13.49614
G1 X60.612 Y87.575 E13.64776
G1 X60.582 Y87.139 E13.66411
G1 X60.464 Y86.626 E13.68381
G1 X60.113 Y85.869 E13.71503
G1 X59.827 Y85.487 E13.73289
G1 X59.499 Y85.157 E13.7503
G1 X59.089 Y84.857 E13.76931
G1 X58.666 Y84.633 E13.78722
G1 X57.862 Y84.402 E13.81852
G1 X57.41 Y84.371 E13.83547
G1 X55.36 Y84.368 E13.91217
G1 X54.922 Y84.398 E13.9286
G1 X54.43 Y84.513 E13.94751
G1 X53.982 Y84.687 E13.96549
G1 X53.283 Y85.141 E13.99668
G1 X52.941 Y85.483 E14.01478
G1 X52.642 Y85.89 E14.03367
G1 X52.418 Y86.314 E14.05162
G1 X52.187 Y87.116 E14.08284
G1 X52.155 Y87.569 E14.09984
G1 X52.152 Y91.62 E14.25142
G1 X52.182 Y92.056 E14.26777
G1 X52.3 Y92.57 E14.2875
G1 X52.651 Y93.324 E14.31862
G1 X52.937 Y93.709 E14.33657
G1 X53.265 Y94.039 E14.35398
G1 X53.675 Y94.338 E14.37296
G1 X54.098 Y94.563 E14.39089
G1 X54.899 Y94.793 E14.42207
G0 F3600 X63.273 Y94.304
G1 F2400 X63.773 Y94.353 E14.44087
G1 X70.425 Y94.356 E14.68978
G1 X71.136 Y94.318 E14.71642
G1 X71.89 Y94.19 E14.74503
G1 X72.594 Y93.989 E14.77243
G1 X73.287 Y93.706 E14.80044
G1 X73.958 Y93.339 E14.82905
G1 X74.56 Y92.919 E14.85652
G1 X75.133 Y92.413 E14.88512
G1 X75.637 Y91.86 E14.91312
G1 X76.067 Y91.267 E14.94053
G1 X76.437 Y90.615 E14.96858
G1 X76.737 Y89.911 E14.99721
G1 X76.951 Y89.214 E15.0245
G1 X77.088 Y88.477 E15.05254
G1 X77.14 Y87.778 E15.07877
G1 X77.178 Y87.374 E15.09396
G1 X77.373 Y86.934 E15.11196
G1 X77.718 Y86.601 E15.1299
G1 X78.164 Y86.425 E15.14785
G1 X78.59 Y86.405 E15.1638
G1 X79.066 Y86.508 E15.18203
G1 X79.477 Y86.795 E15.20078
G1 X79.732 Y87.191 E15.21841
G1 X79.823 Y87.717 E15.23838
G1 X78.971 Y134.645 E16.99461
G1 X78.919 Y135.103 E17.01185
G1 X78.781 Y135.531 E17.02868
G1 X78.568 Y135.913 E17.04505
G1 X78.28 Y136.25 E17.06163
G1 X77.921 Y136.53 E17.07867
G1 X77.54 Y136.724 E17.09467
G1 X77.112 Y136.844 E17.1113
G1 X76.709 Y136.874 E17.12642
G1 X76.509 Y136.789 E17.13455
G1 X76.437 Y136.555 E17.14371
G1 X77.032 Y103.691 E18.37361
G1 X77.002 Y102.946 E18.40151
G1 X76.888 Y102.207 E18.42948
G1 X76.686 Y101.469 E18.45811
G1 X76.402 Y100.757 E18.4868
G1 X76.032 Y100.069 E18.51603
G1 X75.605 Y99.455 E18.54401
G1 X75.102 Y98.88 E18.5726
G1 X74.535 Y98.364 E18.60128
G1 X73.915 Y97.916 E18.6299
G1 X73.247 Y97.541 E18.65857
G1 X72.524 Y97.24 E18.68787
G1 X71.807 Y97.03 E18.71583
G1 X71.051 Y96.899 E18.74454
G1 X70.309 Y96.857 E18.77234
G1 X57.307 Y96.85 E19.25885
G1 X56.673 Y96.897 E19.28264
G1 X56.012 Y97.046 E19.30799
G1 X55.382 Y97.285 E19.3332
G1 X54.778 Y97.619 E19.35903
G1 X54.25 Y98.016 E19.38375
G1 X53.775 Y98.496 E19.40901
G1 X53.365 Y99.049 E19.43477
G1 X53.048 Y99.63 E19.45954
G1 X52.813 Y100.264 E19.48484
G1 X52.67 Y100.922 E19.51003
G1 X52.624 Y101.569 E19.5343
G1 X52.602 Y134.56 E20.76875
G1 X52.57 Y134.957 E20.78365
G1 X52.356 Y135.611 E20.8094
G1 X52.169 Y135.914 E20.82272
G1 X51.951 Y136.172 E20.83536
G1 X51.668 Y136.415 E20.84932
G1 X51.391 Y136.588 E20.86154
G1 X51.054 Y136.729 E20.87521
G1 X50.425 Y136.837 E20.89909
G1 X50.279 Y136.795 E20.90477
G1 X50.197 Y136.713 E20.90911
G1 X50.151 Y136.524 E20.91639
G1 X50.184 Y87.635 E22.7457
G1 X50.22 Y87.003 E22.76939
G1 X50.324 Y86.401 E22.79225
G1 X50.48 Y85.864 E22.81317
G1 X50.709 Y85.311 E22.83557
G1 X50.991 Y84.802 E22.85734
G1 X51.334 Y84.321 E22.87945
G1 X51.726 Y83.884 E22.90141
G1 X52.171 Y83.486 E22.92375
G1 X52.655 Y83.145 E22.94591
G1 X53.16 Y82.866 E22.96749
G1 X53.712 Y82.638 E22.98984
G1 X54.268 Y82.479 E23.01148
G1 X54.844 Y82.382 E23.03333
G1 X55.48 Y82.347 E23.05717
G1 X73.549 Y82.359 E23.73327
G1 X73.813 Y82.386 E23.7432
G1 X74.26 Y82.568 E23.76126
G1 X74.61 Y82.917 E23.77975
G1 X74.798 Y83.369 E23.79807
G1 X74.798 Y83.848 E23.81599
G1 X74.616 Y84.295 E23.83405
G1 X74.271 Y84.642 E23.85236
G1 X73.82 Y84.832 E23.87067
G1 X73.532 Y84.859 E23.8815
G1 X63.772 Y84.854 E24.24669
G1 X63.279 Y84.901 E24.26522
G1 X62.753 Y85.064 E24.28583
G1 X62.285 Y85.313 E24.30566
G1 X61.861 Y85.663 E24.32623
G1 X61.526 Y86.073 E24.34605
G1 X61.268 Y86.558 E24.3666
G1 X61.114 Y87.064 E24.38639
G1 X61.066 Y87.566 E24.40526
G1 X61.064 Y91.647 E24.55796
G1 X61.111 Y92.14 E24.57649
G1 X61.274 Y92.665 E24.59706
G1 X61.523 Y93.133 E24.6169
G1 X61.873 Y93.557 E24.63747
G1 X62.283 Y93.892 E24.65728
G1 X62.768 Y94.15 E24.67784
G1 X63.273 Y94.304 E24.69759
G0 F3600 X63.332 Y94.008
G1 F2400 X63.788 Y94.053 E24.71474
G1 X70.417 Y94.056 E24.96278
G1 X71.103 Y94.019 E24.98849
G1 X71.824 Y93.897 E25.01585
G1 X72.496 Y93.705 E25.042
G1 X73.158 Y93.435 E25.06875
G1 X73.8 Y93.084 E25.09613
G1 X74.374 Y92.683 E25.12233
G1 X74.922 Y92.199 E25.14968
G1 X75.404 Y91.67 E25.17646
G1 X75.814 Y91.104 E25.20261
G1 X76.168 Y90.482 E25.22939
G1 X76.455 Y89.808 E25.2568
G1 X76.659 Y89.142 E25.28287
G1 X76.79 Y88.438 E25.30966
G1 X76.841 Y87.75 E25.33547
G1 X76.882 Y87.315 E25.35182
G1 X76.974 Y87.032 E25.36296
G1 X77.128 Y86.759 E25.37469
G1 X77.319 Y86.534 E25.38573
G1 X77.552 Y86.349 E25.39686
G1 X77.831 Y86.207 E25.40858
G1 X78.117 Y86.127 E25.41969
G1 X78.599 Y86.104 E25.43774
G1 X78.903 Y86.14 E25.4492
G1 X79.186 Y86.232 E25.46033
G1 X79.465 Y86.389 E25.47231
G1 X79.692 Y86.584 E25.48351
G1 X79.878 Y86.817 E25.49466
G1 X80.013 Y87.081 E25.50576
G1 X80.097 Y87.386 E25.5176
G1 X80.123 Y87.708 E25.52968
G1 X79.271 Y134.664 E27.28696
G1 X79.214 Y135.165 E27.30582
G1 X79.056 Y135.653 E27.32502
G1 X78.815 Y136.085 E27.34353
G1 X78.487 Y136.47 E27.36245
G1 X78.087 Y136.782 E27.38143
G1 X77.647 Y137.006 E27.39991
G1 X77.166 Y137.141 E27.4186
G1 X76.684 Y137.177 E27.43669
G1 X76.448 Y137.119 E27.44578
G1 X76.282 Y136.994 E27.45356
G1 X76.177 Y136.823 E27.46106
G1 X76.136 Y136.578 E27.47036
G1 X76.732 Y103.694 E28.701
G1 X76.703 Y102.975 E28.72793
G1 X76.594 Y102.27 E28.75462
G1 X76.401 Y101.564 E28.78201
G1 X76.13 Y100.884 E28.8094
G1 X75.776 Y100.226 E28.83735
G1 X75.368 Y99.64 E28.86407
G1 X74.887 Y99.09 E28.89141
G1 X74.346 Y98.597 E28.9188
G1 X73.753 Y98.169 E28.94616
G1 X73.115 Y97.811 E28.97354
G1 X72.424 Y97.523 E29.00155
G1 X71.739 Y97.323 E29.02825
G1 X71.017 Y97.198 E29.05567
G1 X70.3 Y97.157 E29.08254
G1 X57.318 Y97.15 E29.5683
G1 X56.717 Y97.195 E29.59085
G1 X56.099 Y97.334 E29.61455
G1 X55.508 Y97.558 E29.6382
G1 X54.942 Y97.871 E29.6624
G1 X54.448 Y98.243 E29.68554
G1 X54.003 Y98.692 E29.70919
G1 X53.618 Y99.211 E29.73337
G1 X53.322 Y99.755 E29.75655
G1 X53.102 Y100.348 E29.78021
G1 X52.968 Y100.965 E29.80384
G1 X52.924 Y101.58 E29.82691
G1 X52.902 Y134.572 E31.06139
G1 X52.867 Y135.004 E31.07761
G1 X52.772 Y135.389 E31.09245
G1 X52.627 Y135.742 E31.10673
G1 X52.41 Y136.094 E31.1222
G1 X52.165 Y136.384 E31.1364
G1 X51.848 Y136.656 E31.15203
G1 X51.528 Y136.856 E31.16615
G1 X51.149 Y137.014 E31.18152
G1 X50.77 Y137.108 E31.19613
G1 X50.396 Y137.141 E31.21018
G1 X50.121 Y137.063 E31.22087
G1 X49.926 Y136.864 E31.2313
G1 X49.851 Y136.559 E31.24305
G1 X49.884 Y87.618 E33.07431
G1 X49.921 Y86.97 E33.09859
G1 X50.03 Y86.337 E33.12263
G1 X50.196 Y85.765 E33.14491
G1 X50.438 Y85.18 E33.1686
G1 X50.736 Y84.643 E33.19158
G1 X51.103 Y84.129 E33.21521
G1 X51.513 Y83.671 E33.23821
G1 X51.981 Y83.253 E33.26169
G1 X52.499 Y82.888 E33.2854
G1 X53.024 Y82.598 E33.30785
G1 X53.613 Y82.355 E33.33169
G1 X54.208 Y82.185 E33.35484
G1 X54.813 Y82.083 E33.3778
G1 X55.463 Y82.047 E33.40216
G1 X73.561 Y82.059 E34.07934
G1 X73.874 Y82.091 E34.09112
G1 X74.176 Y82.183 E34.10293
G1 X74.429 Y82.318 E34.11366
G1 X74.679 Y82.526 E34.12583
G1 X74.86 Y82.748 E34.13654
G1 X75.005 Y83.021 E34.14811
G1 X75.094 Y83.311 E34.15946
G1 X75.123 Y83.614 E34.17085
G1 X75.093 Y83.909 E34.18195
G1 X75.001 Y84.211 E34.19376
G1 X74.866 Y84.464 E34.20449
G1 X74.658 Y84.714 E34.21666
G1 X74.437 Y84.894 E34.22732
G1 X74.157 Y85.043 E34.23919
G1 X73.876 Y85.128 E34.25018
G1 X73.549 Y85.159 E34.26247
G1 X63.786 Y85.154 E34.62777
G1 X63.338 Y85.197 E34.64461
G1 X62.869 Y85.342 E34.66298
G1 X62.453 Y85.564 E34.68063
G1 X62.075 Y85.876 E34.69897
G1 X61.777 Y86.24 E34.71657
G1 X61.547 Y86.673 E34.73491
G1 X61.41 Y87.123 E34.75252
G1 X61.366 Y87.58 E34.76969
G1 X61.364 Y91.633 E34.92135
G1 X61.407 Y92.081 E34.93819
G1 X61.552 Y92.549 E34.95652
G1 X61.774 Y92.965 E34.97416
G1 X62.086 Y93.343 E34.9925
G1 X62.45 Y93.641 E35.01011
G1 X62.883 Y93.871 E35.02845
G1 X63.332 Y94.008 E35.04602
G0 F3600 X63.313 Y94.106
G0 X57.988 Y94.52
G0 X54.935 Y94.594
G0 X54.952 Y94.496
G1 F2400 X55.363 Y94.525 E35.06143
G1 X57.395 Y94.528 E35.13747
G1 X57.798 Y94.499 E35.15258
G1 X58.254 Y94.395 E35.17009
G1 X58.956 Y94.07 E35.19903
G1 X59.297 Y93.813 E35.21501
G1 X59.593 Y93.518 E35.23065
G1 X59.867 Y93.147 E35.2479
G1 X60.066 Y92.769 E35.26389
G1 X60.28 Y92.027 E35.29278
G1 X60.309 Y91.616 E35.3082
G1 X60.312 Y87.585 E35.45903
G1 X60.284 Y87.183 E35.47411
G1 X60.179 Y86.724 E35.49173
G1 X59.854 Y86.024 E35.5206
G1 X59.599 Y85.683 E35.53654
G1 X59.303 Y85.385 E35.55225
G1 X58.93 Y85.112 E35.56955
G1 X58.553 Y84.913 E35.5855
G1 X57.81 Y84.699 E35.61443
G1 X57.4 Y84.671 E35.62981
G1 X55.37 Y84.668 E35.70577
G1 X54.967 Y84.696 E35.72088
G1 X54.519 Y84.8 E35.73809
G1 X54.119 Y84.955 E35.75414
G1 X53.473 Y85.375 E35.78297
G1 X53.169 Y85.679 E35.79906
G1 X52.897 Y86.05 E35.81627
G1 X52.698 Y86.427 E35.83222
G1 X52.484 Y87.169 E35.86112
G1 X52.455 Y87.58 E35.87654
G1 X52.452 Y91.61 E36.02733
G1 X52.48 Y92.012 E36.04241
G1 X52.585 Y92.472 E36.06006
G1 X52.91 Y93.17 E36.08887
G1 X53.165 Y93.513 E36.10487
G1 X53.461 Y93.811 E36.12058
G1 X53.834 Y94.083 E36.13786
G1 X54.211 Y94.283 E36.15382
G1 X54.952 Y94.496 E36.18267
G0 F3600 X55.005 Y94.199
;TYPE:WALL-OUTER
G1 F2400 X55.374 Y94.225 E36.19651
G1 X57.384 Y94.228 E36.27172
G1 X57.753 Y94.201 E36.28557
G1 X58.157 Y94.109 E36.30107
G1 X58.801 Y93.811 E36.32762
G1 X59.1 Y93.586 E36.34163
G1 X59.365 Y93.322 E36.35562
G1 X59.612 Y92.987 E36.3712
G1 X59.786 Y92.656 E36.38519
G1 X59.983 Y91.974 E36.41175
G1 X60.009 Y91.605 E36.42559
G1 X60.012 Y87.595 E36.57564
G1 X59.986 Y87.227 E36.58944
G1 X59.894 Y86.822 E36.60498
G1 X59.595 Y86.179 E36.63151
G1 X59.371 Y85.879 E36.64552
G1 X59.107 Y85.613 E36.65955
G1 X58.771 Y85.367 E36.67513
G1 X58.44 Y85.193 E36.68912
G1 X57.758 Y84.996 E36.71568
G1 X57.39 Y84.971 E36.72948
G1 X55.38 Y84.968 E36.80469
G1 X55.011 Y84.994 E36.81853
G1 X54.607 Y85.087 E36.83405
G1 X54.257 Y85.223 E36.8481
G1 X53.663 Y85.609 E36.8746
G1 X53.397 Y85.875 E36.88868
G1 X53.152 Y86.209 E36.90418
G1 X52.978 Y86.54 E36.91817
G1 X52.781 Y87.222 E36.94473
G1 X52.755 Y87.591 E36.95857
