;FLAVOR:Marlin
;TIME:222
;Filament used: 0.253027m
;Layer height: 0.3
;MINX:83.325
;MINY:90.76
;MINZ:0.2
;MAXX:121.692
;MAXY:114.24
;MAXZ:6.9
;Generated with Cura_SteamEngine main
M140 S65
M105
M190 S65
M104 S220
M105
M109 S220
M82 ;absolute extrusion mode
G21 ;metric values
G90 ;absolute positioning
M82 ;set extruder to absolute mode
M107 ;start with the fan off

M206 X5 Y9 ;set home offsets

G28 X0 Y0 ;move X/Y to min endstops
G28 Z0 ;move Z to min endstops
G1 Z15.0 F9000 ;move the platform down 15mm
G92 E0 ;zero the extruded length
G1 F200 E3 ;extrude 3mm of feed stock
G92 E0 ;zero the extruded length again
G1 F9000

;M301 D121.72 I2.14 P32.30
M301 D17.09 I0.93 P78.40

;Set max printing acceleration
M201 X100 Y100
;Set max travel acceleration
M202 X300 Y300
;Set max jerk
M556 X10 Y10
;Set max feedrate
M203 X1000 Y1000


;Put printing message on LCD screen
M117 Printing...
G92 E0
G92 E0
G1 F1500 E-1
;LAYER_COUNT:22
;LAYER:0
M107
G1 F600 Z1.2
G0 F1800 X86.204 Y96.463 Z1.2
G1 F600 Z0.2
G0 F1800 X84.585 Y98.851
G0 X84.083 Y99.992
G0 X83.325 Y103.016
;TYPE:SKIRT
G1 F1500 E0
G1 F1200 X83.327 Y101.956 E0.07051
G1 X83.476 Y100.896 E0.14172
G1 X83.764 Y99.883 E0.21177
G1 X84.291 Y98.682 E0.29902
G1 X84.88 Y97.829 E0.36797
G1 X85.434 Y97.173 E0.42509
G1 X86.204 Y96.463 E0.49476
G1 X86.898 Y95.969 E0.55142
G1 X87.535 Y95.602 E0.60033
G1 X88.523 Y95.182 E0.67174
G1 X89.55 Y94.904 E0.74252
G1 X90.589 Y94.771 E0.8122
G1 X91.664 Y94.782 E0.88371
G1 X92.717 Y94.939 E0.95453
G1 X93.766 Y95.253 E1.02737
G1 X94.289 Y95.472 E1.06508
G1 X95.155 Y95.936 E1.13044
G1 X95.856 Y96.433 E1.1876
G1 X96.451 Y96.958 E1.24038
G1 X97.162 Y97.713 E1.30937
G1 X97.86 Y98.816 E1.3962
G1 X98.272 Y99.721 E1.46235
G1 X98.439 Y100.226 E1.49773
G1 X98.597 Y99.493 E1.54761
G1 X98.893 Y98.557 E1.61291
G1 X99.159 Y97.879 E1.66136
G1 X99.529 Y97.096 E1.71896
G1 X99.92 Y96.402 E1.77195
G1 X100.419 Y95.636 E1.83277
G1 X101.168 Y94.7 E1.91251
G1 X101.924 Y93.931 E1.98424
G1 X102.472 Y93.45 E2.03275
G1 X103.103 Y92.965 E2.08569
G1 X103.767 Y92.522 E2.13878
G1 X104.519 Y92.092 E2.19641
G1 X105.235 Y91.749 E2.24922
G1 X105.913 Y91.476 E2.29784
G1 X106.736 Y91.209 E2.35539
G1 X107.62 Y90.986 E2.41604
G1 X108.807 Y90.809 E2.49587
G1 X109.886 Y90.76 E2.56772
G1 X110.681 Y90.783 E2.62063
G1 X111.408 Y90.851 E2.6692
G1 X112.266 Y90.99 E2.72702
G1 X113.035 Y91.173 E2.7796
G1 X113.734 Y91.386 E2.82821
G1 X114.544 Y91.697 E2.88593
G1 X115.204 Y92.002 E2.93429
G1 X115.965 Y92.419 E2.99201
G1 X116.633 Y92.849 E3.04486
G1 X117.274 Y93.324 E3.09793
G1 X117.829 Y93.796 E3.1464
G1 X118.402 Y94.352 E3.19951
G1 X118.935 Y94.944 E3.25249
G1 X119.467 Y95.626 E3.31003
G1 X119.912 Y96.288 E3.36309
G1 X120.42 Y97.17 E3.4308
G1 X120.794 Y97.999 E3.4913
G1 X121.074 Y98.746 E3.54436
G1 X121.302 Y99.51 E3.5974
G1 X121.538 Y100.567 E3.66944
G1 X121.674 Y101.758 E3.74918
G1 X121.692 Y102.853 E3.82203
G1 X121.591 Y104.097 E3.90506
G1 X121.354 Y105.313 E3.98747
G1 X121.096 Y106.187 E4.04809
G1 X120.794 Y107.001 E4.10584
G1 X120.421 Y107.828 E4.16619
G1 X119.877 Y108.769 E4.23849
G1 X119.469 Y109.373 E4.28698
G1 X118.936 Y110.055 E4.34456
G1 X118.403 Y110.647 E4.39755
G1 X117.83 Y111.203 E4.45066
G1 X117.221 Y111.718 E4.50371
G1 X116.634 Y112.151 E4.55223
G1 X115.907 Y112.616 E4.60964
G1 X115.266 Y112.968 E4.65828
G1 X114.484 Y113.328 E4.71555
G1 X113.734 Y113.614 E4.76894
G1 X112.972 Y113.844 E4.82189
G1 X112.264 Y114.01 E4.87027
G1 X111.408 Y114.149 E4.92795
G1 X110.614 Y114.221 E4.98099
G1 X109.886 Y114.24 E5.02943
G1 X108.805 Y114.191 E5.10141
G1 X107.902 Y114.06 E5.16211
G1 X106.943 Y113.854 E5.22736
G1 X105.75 Y113.473 E5.31066
G1 X104.608 Y112.962 E5.39389
G1 X103.824 Y112.513 E5.45399
G1 X103.159 Y112.075 E5.50696
G1 X102.472 Y111.55 E5.56447
G1 X101.873 Y111.021 E5.61763
G1 X101.36 Y110.503 E5.66613
G1 X100.652 Y109.678 E5.73844
G1 X99.971 Y108.698 E5.81783
G1 X99.528 Y107.903 E5.87837
G1 X99.159 Y107.121 E5.93589
G1 X98.893 Y106.443 E5.98434
G1 X98.572 Y105.412 E6.05617
G1 X98.437 Y104.761 E6.10039
G1 X98.274 Y105.279 E6.13651
G1 X98.051 Y105.797 E6.17403
G1 X97.578 Y106.663 E6.23967
G1 X96.952 Y107.54 E6.31134
G1 X96.159 Y108.312 E6.38496
G1 X95.346 Y108.966 E6.45437
G1 X93.986 Y109.686 E6.55673
G1 X92.695 Y110.084 E6.6466
G1 X91.58 Y110.221 E6.72133
G1 X90.573 Y110.246 E6.78833
G1 X89.504 Y110.086 E6.86024
G1 X88.503 Y109.81 E6.92931
G1 X87.746 Y109.501 E6.9837
G1 X86.831 Y108.992 E7.05335
G1 X85.963 Y108.358 E7.12485
G1 X85.04 Y107.408 E7.21296
G1 X84.468 Y106.57 E7.28045
G1 X84.195 Y106.092 E7.31707
G1 X83.754 Y105.09 E7.38989
G1 X83.468 Y104.066 E7.46061
G1 X83.325 Y103.016 E7.53111
G0 F1800 X84.125 Y102.948
G1 F1200 X84.129 Y101.997 E7.59437
G1 X84.258 Y101.077 E7.65616
G1 X84.525 Y100.138 E7.7211
G1 X85.002 Y99.06 E7.79952
G1 X85.538 Y98.283 E7.86231
G1 X86.018 Y97.722 E7.91142
G1 X86.699 Y97.094 E7.97304
G1 X87.298 Y96.662 E8.02217
G1 X87.906 Y96.313 E8.06881
G1 X88.798 Y95.936 E8.13322
G1 X89.69 Y95.695 E8.19469
G1 X90.65 Y95.572 E8.25907
G1 X91.615 Y95.583 E8.32327
G1 X92.532 Y95.72 E8.38494
G1 X93.463 Y95.993 E8.44948
G1 X93.893 Y96.169 E8.48039
G1 X94.748 Y96.627 E8.54491
G1 X95.314 Y97.023 E8.59086
G1 X95.869 Y97.507 E8.63984
G1 X96.515 Y98.193 E8.70252
G1 X97.162 Y99.212 E8.78282
G1 X97.553 Y100.075 E8.84584
G1 X97.758 Y100.723 E8.89105
G1 X97.942 Y101.679 E8.95581
G1 X97.99 Y102.369 E9.00182
G1 X97.963 Y103.123 E9.05201
G1 X97.818 Y104.039 E9.1137
G1 X97.537 Y104.969 E9.17833
G1 X97.349 Y105.414 E9.21046
G1 X96.905 Y106.227 E9.27208
G1 X96.329 Y107.03 E9.33782
G1 X95.672 Y107.676 E9.39911
G1 X94.889 Y108.303 E9.46584
G1 X93.695 Y108.935 E9.5557
G1 X92.543 Y109.293 E9.63595
G1 X91.56 Y109.421 E9.70189
G1 X90.603 Y109.442 E9.76557
G1 X89.682 Y109.304 E9.82752
G1 X88.771 Y109.054 E9.89036
G1 X88.081 Y108.773 E9.93992
G1 X87.255 Y108.311 E10.00287
G1 X86.503 Y107.763 E10.06477
G1 X85.653 Y106.887 E10.14596
G1 X85.129 Y106.119 E10.20781
G1 X84.883 Y105.681 E10.24123
G1 X84.505 Y104.808 E10.30451
G1 X84.257 Y103.919 E10.3659
G1 X84.125 Y102.948 E10.43109
G0 F1800 X83.727 Y101.986
G1 F1200 X83.868 Y100.98 E10.49866
G1 X84.131 Y100.054 E10.5627
G1 X84.642 Y98.878 E10.64799
G1 X85.209 Y98.056 E10.71442
G1 X85.747 Y97.428 E10.76942
G1 X86.484 Y96.754 E10.83586
G1 X87.098 Y96.315 E10.88607
G1 X87.684 Y95.977 E10.93107
G1 X88.652 Y95.561 E11.00116
G1 X89.666 Y95.293 E11.07092
G1 X90.614 Y95.172 E11.1345
G1 X91.631 Y95.181 E11.20215
G1 X92.671 Y95.342 E11.27215
G1 X93.556 Y95.602 E11.33351
G1 X94.1 Y95.825 E11.37262
G1 X94.977 Y96.299 E11.43894
G1 X95.543 Y96.695 E11.48489
G1 X96.16 Y97.233 E11.53934
G1 X96.846 Y97.961 E11.60588
G1 X97.508 Y99.008 E11.68828
G1 X97.934 Y99.954 E11.7573
G1 X98.139 Y100.602 E11.80251
G1 X98.341 Y101.651 E11.87357
G1 X98.389 Y102.341 E11.91958
G1 X98.365 Y103.113 E11.97096
G1 X98.213 Y104.102 E12.03752
G1 X97.906 Y105.124 E12.1085
G1 X97.7 Y105.606 E12.14337
G1 X97.256 Y106.419 E12.20499
G1 X96.646 Y107.279 E12.27513
G1 X95.953 Y107.961 E12.33981
G1 X95.125 Y108.63 E12.41062
G1 X93.832 Y109.314 E12.50792
G1 X92.61 Y109.691 E12.59299
G1 X91.57 Y109.821 E12.66271
G1 X90.598 Y109.845 E12.72739
G1 X89.552 Y109.684 E12.79779
G1 X88.598 Y109.417 E12.86368
G1 X87.952 Y109.154 E12.91008
G1 X87.081 Y108.673 E12.97627
G1 X86.228 Y108.057 E13.04626
G1 X85.35 Y107.152 E13.13014
G1 X84.798 Y106.344 E13.19523
G1 X84.543 Y105.895 E13.22958
G1 X84.13 Y104.952 E13.29806
G1 X83.855 Y103.946 E13.36743
G1 X83.73 Y103.029 E13.429
G1 X83.727 Y101.986 E13.49838
G1 F1500 E12.49838
G0 F1800 X83.661 Y101.986
G0 X83.804 Y100.968
G0 X84.083 Y99.992
G0 X84.585 Y98.851
G0 X85.176 Y97.991
G0 X85.675 Y97.407
G0 X86.413 Y96.727
G0 X87.036 Y96.277
G0 X87.689 Y95.902
G0 X88.632 Y95.5
G0 X89.614 Y95.235
G0 X90.607 Y95.108
G0 X91.639 Y95.117
G0 X92.644 Y95.267
G0 X94.1 Y95.751
G0 X94.98 Y96.223
G0 X95.61 Y96.664
G0 X96.185 Y97.165
G0 X96.895 Y97.919
G0 X97.565 Y98.977
G0 X97.983 Y99.897
G0 X98.213 Y100.621
G0 X98.436 Y102.108
G0 X98.618 Y102.095
G1 F1500 E13.49838
G1 F1200 X98.667 Y101.369 E13.54678
G1 X98.778 Y100.564 E13.60084
G1 X98.979 Y99.612 E13.66556
G1 X99.265 Y98.703 E13.72895
G1 X99.531 Y98.025 E13.7774
G1 X99.878 Y97.291 E13.8314
G1 X100.255 Y96.62 E13.8826
G1 X100.754 Y95.854 E13.94341
G1 X101.519 Y94.906 E14.02445
G1 X102.157 Y94.261 E14.0848
G1 X102.767 Y93.725 E14.13881
G1 X103.346 Y93.282 E14.18731
G1 X104.022 Y92.834 E14.24125
G1 X104.693 Y92.452 E14.29262
G1 X105.385 Y92.12 E14.34367
G1 X106.063 Y91.847 E14.39229
G1 X106.834 Y91.597 E14.44621
G1 X107.718 Y91.374 E14.50685
G1 X108.864 Y91.205 E14.58391
G1 X109.876 Y91.16 E14.65129
G1 X110.604 Y91.179 E14.69974
G1 X111.41 Y91.255 E14.75359
G1 X112.174 Y91.379 E14.80508
G1 X112.919 Y91.556 E14.85601
G1 X113.618 Y91.769 E14.90462
G1 X114.377 Y92.06 E14.9587
G1 X115.037 Y92.365 E15.00706
G1 X115.714 Y92.735 E15.05838
G1 X116.396 Y93.171 E15.11223
G1 X117.015 Y93.629 E15.16345
G1 X117.6 Y94.128 E15.2146
G1 X118.123 Y94.638 E15.26319
G1 X118.663 Y95.242 E15.31708
G1 X119.136 Y95.85 E15.36833
G1 X119.567 Y96.489 E15.4196
G1 X120.027 Y97.279 E15.48041
G1 X120.429 Y98.163 E15.54501
G1 X120.712 Y98.925 E15.59908
G1 X120.928 Y99.66 E15.65004
G1 X121.141 Y100.614 E15.71506
G1 X121.27 Y101.703 E15.78801
G1 X121.29 Y102.92 E15.86897
G1 X121.197 Y104.011 E15.94181
G1 X120.97 Y105.2 E16.02233
G1 X120.699 Y106.113 E16.08568
G1 X120.429 Y106.837 E16.13708
G1 X120.028 Y107.719 E16.20153
G1 X119.567 Y108.511 E16.26249
G1 X119.113 Y109.182 E16.31639
G1 X118.638 Y109.788 E16.3676
G1 X118.124 Y110.361 E16.41881
G1 X117.601 Y110.871 E16.4674
G1 X117.016 Y111.37 E16.51855
G1 X116.396 Y111.829 E16.56987
G1 X115.715 Y112.265 E16.62365
G1 X115.074 Y112.617 E16.6723
G1 X114.376 Y112.94 E16.72346
G1 X113.618 Y113.231 E16.77747
G1 X112.919 Y113.444 E16.82608
G1 X112.173 Y113.62 E16.87707
G1 X111.411 Y113.745 E16.92843
G1 X110.604 Y113.821 E16.98235
G1 X109.876 Y113.84 E17.0308
G1 X108.863 Y113.795 E17.09825
G1 X107.96 Y113.664 E17.15894
G1 X106.97 Y113.448 E17.22635
G1 X105.865 Y113.087 E17.30368
G1 X104.862 Y112.643 E17.37664
G1 X104.023 Y112.166 E17.44084
G1 X103.346 Y111.718 E17.49484
G1 X102.767 Y111.275 E17.54334
G1 X102.188 Y110.768 E17.59453
G1 X101.617 Y110.191 E17.64853
G1 X101.017 Y109.496 E17.70961
G1 X100.321 Y108.503 E17.79027
G1 X99.878 Y107.708 E17.85081
G1 X99.531 Y106.975 E17.90476
G1 X99.265 Y106.297 E17.95321
G1 X98.979 Y105.388 E18.0166
G1 X98.778 Y104.436 E18.08132
G1 X98.667 Y103.631 E18.13537
G1 X98.618 Y102.906 E18.18371
G1 X98.618 Y102.095 E18.23766
G0 F1800 X99.017 Y102.122
G1 F1200 X99.066 Y101.396 E18.28606
G1 X99.169 Y100.645 E18.33649
G1 X99.355 Y99.751 E18.39723
G1 X99.638 Y98.849 E18.46012
G1 X99.909 Y98.159 E18.50943
G1 X100.227 Y97.486 E18.55894
G1 X100.59 Y96.839 E18.60829
G1 X101.101 Y96.056 E18.67049
G1 X101.79 Y95.202 E18.74348
G1 X102.452 Y94.533 E18.80609
G1 X103.01 Y94.043 E18.85548
G1 X103.6 Y93.592 E18.90488
G1 X104.221 Y93.181 E18.95442
G1 X104.866 Y92.813 E19.00382
G1 X105.534 Y92.491 E19.05315
G1 X106.212 Y92.218 E19.10177
G1 X106.932 Y91.985 E19.15211
G1 X107.836 Y91.758 E19.21411
G1 X108.941 Y91.599 E19.28837
G1 X109.865 Y91.56 E19.34989
G1 X110.607 Y91.58 E19.39927
G1 X111.347 Y91.65 E19.44871
G1 X112.082 Y91.768 E19.49823
G1 X112.79 Y91.935 E19.54662
G1 X113.515 Y92.156 E19.59704
G1 X114.209 Y92.423 E19.6465
G1 X114.869 Y92.728 E19.69486
G1 X115.534 Y93.093 E19.74533
G1 X116.159 Y93.493 E19.79469
G1 X116.756 Y93.934 E19.84406
G1 X117.321 Y94.415 E19.89342
G1 X117.853 Y94.935 E19.9429
G1 X118.348 Y95.488 E19.99227
G1 X118.805 Y96.074 E20.04171
G1 X119.221 Y96.69 E20.09115
G1 X119.681 Y97.48 E20.15196
G1 X120.069 Y98.34 E20.21472
G1 X120.329 Y99.038 E20.26427
G1 X120.538 Y99.749 E20.31357
G1 X120.744 Y100.661 E20.37576
G1 X120.873 Y101.75 E20.44871
G1 X120.892 Y102.866 E20.52296
G1 X120.798 Y103.977 E20.59713
G1 X120.587 Y105.087 E20.67229
G1 X120.329 Y105.961 E20.7329
G1 X120.064 Y106.672 E20.78338
G1 X119.682 Y107.518 E20.84513
G1 X119.214 Y108.321 E20.90695
G1 X118.798 Y108.936 E20.95634
G1 X118.34 Y109.521 E21.00576
G1 X117.845 Y110.074 E21.05513
G1 X117.312 Y110.593 E21.10462
G1 X116.746 Y111.074 E21.15403
G1 X116.148 Y111.514 E21.20342
G1 X115.522 Y111.914 E21.25283
G1 X114.869 Y112.273 E21.3024
G1 X114.197 Y112.582 E21.3516
G1 X113.515 Y112.844 E21.4002
G1 X112.79 Y113.065 E21.45062
G1 X112.082 Y113.231 E21.499
G1 X111.334 Y113.352 E21.5494
G1 X110.593 Y113.421 E21.5989
G1 X109.851 Y113.44 E21.64828
G1 X108.94 Y113.401 E21.70893
G1 X108.017 Y113.268 E21.77097
G1 X107.093 Y113.067 E21.83387
G1 X106.027 Y112.721 E21.90842
G1 X105.006 Y112.268 E21.98272
G1 X104.211 Y111.812 E22.04369
G1 X103.589 Y111.4 E22.09332
G1 X103.01 Y110.957 E22.14181
G1 X102.442 Y110.458 E22.19211
G1 X101.92 Y109.93 E22.2415
G1 X101.307 Y109.219 E22.30394
G1 X100.681 Y108.326 E22.37649
G1 X100.221 Y107.501 E22.43932
G1 X99.904 Y106.829 E22.48875
G1 X99.633 Y106.138 E22.53812
G1 X99.355 Y105.249 E22.60008
G1 X99.167 Y104.341 E22.66176
G1 X99.066 Y103.604 E22.71125
G1 X99.017 Y102.879 E22.75958
G1 X99.017 Y102.122 E22.80994
G1 F1500 E21.80994
G1 F600 Z1.2
G0 F1800 X85.671 Y104.501 Z1.2
G1 F600 Z0.2
G1 F1500 E22.80994
G1 F1200 X86.016 Y105.255 E22.8651
G1 X86.384 Y105.852 E22.91175
G1 X86.97 Y106.556 E22.97268
G1 X87.601 Y107.085 E23.02745
G1 X88.28 Y107.525 E23.08127
G1 X88.816 Y107.785 E23.1209
G1 X89.619 Y108.073 E23.17765
G1 X90.609 Y108.222 E23.24425
G1 X91.42 Y108.243 E23.29821
G1 X92.434 Y108.083 E23.3665
G1 X93.199 Y107.821 E23.42029
G1 X93.933 Y107.462 E23.47464
G1 X94.607 Y107.004 E23.52885
G1 X95.06 Y106.605 E23.569
G1 X95.603 Y105.993 E23.62343
G1 X96.054 Y105.309 E23.67793
G1 X96.415 Y104.583 E23.73186
G1 X96.682 Y103.607 E23.79917
G1 X96.768 Y102.998 E23.84008
G1 X96.788 Y102.388 E23.88068
G1 X96.714 Y101.572 E23.93519
G1 X96.524 Y100.777 E23.98956
G1 X96.231 Y100.03 E24.04294
G1 X95.824 Y99.315 E24.09766
G1 X95.324 Y98.67 E24.15195
G1 X94.745 Y98.09 E24.20647
G1 X94.086 Y97.63 E24.25993
G1 X93.558 Y97.337 E24.3001
G1 X92.781 Y97.012 E24.35612
G1 X91.81 Y96.812 E24.42207
G1 X90.97 Y96.761 E24.47805
G1 X90.593 Y96.778 E24.50315
G1 X89.775 Y96.904 E24.55821
G1 X88.996 Y97.141 E24.61237
G1 X88.249 Y97.491 E24.66725
G1 X87.751 Y97.805 E24.70641
G1 X87.103 Y98.335 E24.7621
G1 X86.694 Y98.765 E24.80157
G1 X86.204 Y99.427 E24.85636
G1 X85.82 Y100.14 E24.91023
G1 X85.538 Y100.904 E24.9644
G1 X85.366 Y101.712 E25.01935
G1 X85.325 Y102.1 E25.04531
G1 X85.327 Y102.936 E25.10092
G1 X85.368 Y103.31 E25.12595
G1 X85.547 Y104.127 E25.18158
G1 X85.671 Y104.501 E25.20779
G1 F1500 E24.20779
G0 F1800 X85.73 Y104.474
G0 X89.713 Y107.682
G1 F1500 E25.20779
G1 F1200 X90.646 Y107.823 E25.27056
G1 X91.395 Y107.842 E25.3204
G1 X92.34 Y107.693 E25.38404
G1 X93.043 Y107.453 E25.43345
G1 X93.729 Y107.117 E25.48427
G1 X94.365 Y106.685 E25.53541
G1 X94.774 Y106.324 E25.5717
G1 X95.286 Y105.748 E25.62296
G1 X95.707 Y105.108 E25.67392
G1 X96.04 Y104.441 E25.72351
G1 X96.289 Y103.526 E25.78659
G1 X96.37 Y102.954 E25.82502
G1 X96.388 Y102.401 E25.86183
G1 X96.319 Y101.639 E25.91272
G1 X96.143 Y100.904 E25.963
G1 X95.863 Y100.19 E26.01401
G1 X95.495 Y99.542 E26.06358
G1 X95.025 Y98.937 E26.11455
G1 X94.486 Y98.397 E26.1653
G1 X93.868 Y97.966 E26.21542
G1 X93.39 Y97.701 E26.25178
G1 X92.658 Y97.395 E26.30455
G1 X91.761 Y97.21 E26.36548
G1 X90.806 Y97.151 E26.42912
G1 X89.867 Y97.294 E26.49231
G1 X89.136 Y97.517 E26.54315
G1 X88.445 Y97.84 E26.59388
G1 X87.98 Y98.133 E26.63045
G1 X87.381 Y98.623 E26.68192
G1 X87.001 Y99.022 E26.71858
G1 X86.545 Y99.639 E26.76961
G1 X86.183 Y100.311 E26.82039
G1 X85.924 Y101.016 E26.87035
G1 X85.762 Y101.772 E26.92178
G1 X85.725 Y102.122 E26.94519
G1 X85.727 Y102.91 E26.99761
G1 X85.764 Y103.247 E27.02016
G1 X85.973 Y104.199 E27.085
G1 X86.368 Y105.064 E27.14825
G1 X86.712 Y105.622 E27.19186
G1 X87.255 Y106.273 E27.24825
G1 X87.833 Y106.758 E27.29844
G1 X88.481 Y107.179 E27.34984
G1 X88.974 Y107.418 E27.38629
G1 X89.713 Y107.682 E27.43849
G1 F1500 E26.43849
G0 F1800 X93.901 Y107.407
G0 X94.137 Y107.807
G1 F1500 E27.43849
G1 F1200 X94.853 Y107.321 E27.49605
G1 X95.339 Y106.893 E27.53913
