;FLAVOR:Marlin
;TIME:150
;Filament used: 0.115831m
;Layer height: 0.3
;MINX:89.961
;MINY:89.953
;MINZ:0.2
;MAXX:115.033
;MAXY:115.038
;MAXZ:5.9
;Generated with Cura_SteamEngine main
M140 S65
M105
M190 S65
M104 S220
M105
M109 S220
M82 ;absolute extrusion mode
G21 ;metric values
G90 ;absolute positioning
M82 ;set extruder to absolute mode
M107 ;start with the fan off

M206 X5 Y9 ;set home offsets

G28 X0 Y0 ;move X/Y to min endstops
G28 Z0 ;move Z to min endstops
G1 Z15.0 F9000 ;move the platform down 15mm
G92 E0 ;zero the extruded length
G1 F200 E3 ;extrude 3mm of feed stock
G92 E0 ;zero the extruded length again
G1 F9000

;M301 D121.72 I2.14 P32.30
M301 D17.09 I0.93 P78.40

;Set max printing acceleration
M201 X100 Y100
;Set max travel acceleration
M202 X300 Y300
;Set max jerk
M556 X10 Y10
;Set max feedrate
M203 X1000 Y1000


;Put printing message on LCD screen
M117 Printing...
G92 E0
G92 E0
G1 F1500 E-1
;LAYER_COUNT:21
;LAYER:0
M107
G1 F600 Z1.2
G0 F1800 X93.49 Y93.778 Z1.2
G1 F600 Z0.2
G0 F1800 X89.961 Y102.652
;TYPE:SKIRT
G1 F1500 E0
G1 F1200 X89.977 Y101.658 E0.06613
G1 X90.115 Y100.532 E0.14159
G1 X90.278 Y99.69 E0.19864
G1 X90.496 Y98.874 E0.25483
G1 X90.77 Y98.063 E0.31177
G1 X91.049 Y97.388 E0.36036
G1 X91.549 Y96.369 E0.43586
G1 X92.222 Y95.297 E0.52006
G1 X92.839 Y94.505 E0.58684
G1 X93.49 Y93.778 E0.65176
G1 X94.1 Y93.189 E0.70816
G1 X94.754 Y92.637 E0.76509
G1 X95.341 Y92.204 E0.81361
G1 X96.054 Y91.744 E0.87006
G1 X96.799 Y91.33 E0.92675
G1 X97.809 Y90.858 E1.00091
G1 X99.038 Y90.436 E1.08735
G1 X100.003 Y90.21 E1.15328
G1 X100.847 Y90.069 E1.2102
G1 X101.694 Y89.986 E1.26681
G1 X102.829 Y89.953 E1.34235
G1 X103.82 Y90.03 E1.40847
G1 X104.66 Y90.147 E1.46488
G1 X105.76 Y90.381 E1.53969
G1 X106.834 Y90.733 E1.61487
G1 X107.772 Y91.11 E1.68212
G1 X108.657 Y91.576 E1.74865
G1 X109.379 Y92.015 E1.80486
G1 X110.174 Y92.583 E1.86986
G1 X110.738 Y93.047 E1.91844
G1 X111.359 Y93.627 E1.97496
G1 X112.018 Y94.338 E2.03945
G1 X112.556 Y95.008 E2.09661
G1 X113.131 Y95.829 E2.16329
G1 X113.62 Y96.706 E2.23008
G1 X114.034 Y97.582 E2.29453
G1 X114.344 Y98.382 E2.3516
G1 X114.643 Y99.336 E2.41811
G1 X114.868 Y100.439 E2.49299
G1 X114.98 Y101.285 E2.54976
G1 X115.029 Y102.013 E2.59829
G1 X115.033 Y102.864 E2.6549
G1 X114.98 Y103.712 E2.71142
G1 X114.868 Y104.558 E2.76819
G1 X114.643 Y105.662 E2.84314
G1 X114.302 Y106.734 E2.91797
G1 X114.036 Y107.412 E2.96642
G1 X113.676 Y108.184 E3.02308
G1 X113.201 Y109.032 E3.08773
G1 X112.652 Y109.876 E3.15471
G1 X111.841 Y110.879 E3.24051
G1 X111.146 Y111.582 E3.30627
G1 X110.411 Y112.228 E3.37136
G1 X109.619 Y112.833 E3.43766
G1 X108.532 Y113.506 E3.5227
G1 X107.364 Y114.068 E3.60893
G1 X106.315 Y114.444 E3.68305
G1 X105.353 Y114.721 E3.74965
G1 X104.241 Y114.917 E3.82476
G1 X103.237 Y115.028 E3.89195
G1 X101.971 Y115.038 E3.97617
G1 X100.849 Y114.929 E4.05115
G1 X100.001 Y114.788 E4.10834
G1 X99.181 Y114.591 E4.16444
G1 X98.482 Y114.378 E4.21304
G1 X97.428 Y113.978 E4.28804
G1 X96.533 Y113.529 E4.35464
G1 X95.691 Y113.03 E4.41975
G1 X94.869 Y112.463 E4.48618
G1 X94.102 Y111.811 E4.55314
G1 X93.49 Y111.221 E4.60969
G1 X92.84 Y110.495 E4.67451
G1 X92.391 Y109.92 E4.72304
G1 X91.753 Y108.982 E4.7985
G1 X91.282 Y108.103 E4.86484
G1 X90.812 Y107.078 E4.93985
G1 X90.462 Y106.011 E5.01455
G1 X90.251 Y105.186 E5.07119
G1 X90.115 Y104.468 E5.1198
G1 X90 Y103.501 E5.18458
G1 X89.961 Y102.652 E5.24112
G0 F1800 X90.361 Y102.659
G1 F1200 X90.377 Y101.683 E5.30605
G1 X90.508 Y100.606 E5.37822
G1 X90.643 Y99.888 E5.42682
G1 X90.85 Y99.087 E5.48185
G1 X91.14 Y98.216 E5.54292
G1 X91.458 Y97.455 E5.59778
G1 X91.895 Y96.57 E5.66344
G1 X92.554 Y95.52 E5.7459
G1 X93.216 Y94.677 E5.8172
G1 X93.702 Y94.134 E5.86568
G1 X94.36 Y93.493 E5.92678
G1 X94.915 Y93.02 E5.97529
G1 X95.579 Y92.526 E6.03034
G1 X96.269 Y92.081 E6.08496
G1 X97.077 Y91.637 E6.14629
G1 X97.963 Y91.227 E6.21123
G1 X99.139 Y90.824 E6.29392
G1 X100.19 Y90.581 E6.36568
G1 X101.005 Y90.452 E6.42057
G1 X101.827 Y90.378 E6.47547
G1 X102.814 Y90.353 E6.54115
G1 X103.88 Y90.439 E6.61229
G1 X104.603 Y90.543 E6.66088
G1 X105.661 Y90.769 E6.73284
G1 X106.594 Y91.071 E6.79808
G1 X107.597 Y91.47 E6.86988
G1 X108.47 Y91.93 E6.93552
G1 X109.251 Y92.41 E6.9965
G1 X109.844 Y92.834 E7.04499
G1 X110.554 Y93.418 E7.10615
G1 X111.153 Y93.986 E7.16106
G1 X111.648 Y94.521 E7.20954
G1 X112.228 Y95.237 E7.27084
G1 X112.793 Y96.044 E7.33637
G1 X113.271 Y96.901 E7.40164
G1 X113.625 Y97.643 E7.45633
G1 X113.962 Y98.501 E7.51765
G1 X114.256 Y99.439 E7.58304
G1 X114.456 Y100.399 E7.64827
G1 X114.581 Y101.312 E7.70957
G1 X114.63 Y102.04 E7.75811
G1 X114.63 Y102.958 E7.81917
G1 X114.571 Y103.781 E7.87406
G1 X114.456 Y104.598 E7.92894
G1 X114.256 Y105.563 E7.9945
G1 X113.962 Y106.497 E8.05963
G1 X113.626 Y107.353 E8.1208
G1 X113.269 Y108.101 E8.17594
G1 X112.866 Y108.814 E8.23042
G1 X112.332 Y109.636 E8.29562
G1 X111.541 Y110.614 E8.3793
G1 X110.79 Y111.368 E8.45009
G1 X110.168 Y111.91 E8.50497
G1 X109.391 Y112.503 E8.56999
G1 X108.334 Y113.158 E8.6527
G1 X107.219 Y113.694 E8.735
G1 X106.295 Y114.03 E8.8004
G1 X105.254 Y114.332 E8.8725
G1 X104.292 Y114.506 E8.93753
G1 X103.211 Y114.628 E9.0099
G1 X101.988 Y114.638 E9.09126
G1 X101.005 Y114.546 E9.15693
G1 X100.093 Y114.399 E9.21838
G1 X99.385 Y114.232 E9.26677
G1 X98.505 Y113.963 E9.32798
G1 X97.586 Y113.61 E9.39347
G1 X96.713 Y113.172 E9.45844
G1 X95.999 Y112.752 E9.51354
G1 X95.105 Y112.14 E9.58561
G1 X94.361 Y111.507 E9.65059
G1 X93.701 Y110.864 E9.71189
G1 X93.215 Y110.32 E9.76041
G1 X92.649 Y109.595 E9.82159
G1 X92.097 Y108.776 E9.88729
G1 X91.594 Y107.832 E9.95845
G1 X91.187 Y106.936 E10.02391
G1 X90.849 Y105.91 E10.09577
G1 X90.644 Y105.112 E10.15057
G1 X90.508 Y104.394 E10.19919
G1 X90.4 Y103.481 E10.26034
G1 X90.361 Y102.659 E10.31508
G0 F1800 X90.762 Y102.733
G1 F1200 X90.776 Y101.758 E10.37995
G1 X90.901 Y100.68 E10.45214
G1 X91.036 Y99.962 E10.50073
G1 X91.255 Y99.126 E10.55822
G1 X91.485 Y98.435 E10.60667
G1 X91.789 Y97.694 E10.65995
G1 X92.273 Y96.722 E10.73218
G1 X92.912 Y95.712 E10.81168
G1 X93.47 Y94.996 E10.87206
G1 X94.048 Y94.351 E10.92967
G1 X94.619 Y93.798 E10.98255
G1 X95.229 Y93.281 E11.03574
G1 X95.816 Y92.848 E11.08426
G1 X96.543 Y92.383 E11.14167
G1 X97.245 Y92 E11.19486
G1 X98.069 Y91.619 E11.25525
G1 X99.201 Y91.225 E11.33498
G1 X100.186 Y90.989 E11.40236
G1 X101.042 Y90.85 E11.46005
G1 X101.837 Y90.778 E11.51315
G1 X102.753 Y90.755 E11.5741
G1 X103.823 Y90.835 E11.64548
G1 X104.546 Y90.939 E11.69407
G1 X105.507 Y91.145 E11.75944
G1 X106.536 Y91.475 E11.83133
G1 X107.475 Y91.858 E11.89879
G1 X108.284 Y92.284 E11.95961
G1 X109.019 Y92.736 E12.017
G1 X109.612 Y93.16 E12.0655
G1 X110.28 Y93.709 E12.12301
G1 X110.811 Y94.209 E12.17153
G1 X111.354 Y94.793 E12.22458
G1 X111.9 Y95.466 E12.28222
G1 X112.423 Y96.213 E12.34288
G1 X112.952 Y97.156 E12.41481
G1 X113.29 Y97.875 E12.46766
G1 X113.557 Y98.554 E12.51619
G1 X113.878 Y99.587 E12.58815
G1 X114.076 Y100.548 E12.65342
G1 X114.182 Y101.339 E12.7065
G1 X114.231 Y102.067 E12.75504
G1 X114.231 Y102.931 E12.81251
G1 X114.175 Y103.727 E12.86559
G1 X114.076 Y104.449 E12.91407
G1 X113.853 Y105.508 E12.98606
G1 X113.58 Y106.377 E13.04665
G1 X113.291 Y107.12 E13.09968
G1 X112.92 Y107.905 E13.15744
G1 X112.531 Y108.596 E13.21019
G1 X112.032 Y109.364 E13.27111
G1 X111.214 Y110.375 E13.35762
G1 X110.526 Y111.068 E13.42258
G1 X109.978 Y111.549 E13.47108
G1 X109.197 Y112.148 E13.53656
G1 X108.15 Y112.802 E13.61867
G1 X107.014 Y113.343 E13.70237
G1 X106.158 Y113.654 E13.76296
G1 X105.119 Y113.95 E13.83482
G1 X104.153 Y114.122 E13.90009
G1 X103.139 Y114.229 E13.96792
G1 X101.955 Y114.233 E14.04668
G1 X101.042 Y114.148 E14.10767
G1 X100.184 Y114.009 E14.16549
G1 X99.415 Y113.826 E14.21807
G1 X98.716 Y113.613 E14.26668
G1 X97.706 Y113.222 E14.33873
G1 X96.892 Y112.814 E14.39929
G1 X96.145 Y112.371 E14.45707
G1 X95.314 Y111.792 E14.52444
G1 X94.62 Y111.202 E14.58503
G1 X93.999 Y110.597 E14.6427
G1 X93.513 Y110.053 E14.69123
G1 X92.981 Y109.371 E14.74877
G1 X92.467 Y108.609 E14.80991
G1 X91.958 Y107.666 E14.88119
G1 X91.542 Y106.736 E14.94896
G1 X91.236 Y105.809 E15.0139
G1 X91.037 Y105.037 E15.06693
G1 X90.901 Y104.319 E15.11554
G1 X90.799 Y103.461 E15.17302
G1 X90.762 Y102.733 E15.22151
G0 F1800 X91.161 Y102.672
G1 F1200 X91.18 Y101.704 E15.28591
G1 X91.294 Y100.754 E15.34956
G1 X91.429 Y100.036 E15.39816
G1 X91.635 Y99.253 E15.45202
G1 X91.879 Y98.522 E15.50328
G1 X92.158 Y97.847 E15.55187
G1 X92.582 Y96.987 E15.61565
G1 X93.228 Y95.958 E15.69647
G1 X93.812 Y95.211 E15.75954
G1 X94.298 Y94.668 E15.80802
G1 X94.879 Y94.102 E15.86197
G1 X95.434 Y93.629 E15.91048
G1 X96.054 Y93.17 E15.9618
G1 X96.735 Y92.734 E16.01559
G1 X97.413 Y92.363 E16.067
G1 X98.237 Y91.982 E16.12738
G1 X99.389 Y91.587 E16.2084
G1 X100.277 Y91.379 E16.26906
G1 X101.039 Y91.254 E16.32043
G1 X101.847 Y91.178 E16.37442
G1 X102.763 Y91.155 E16.43537
G1 X103.766 Y91.231 E16.50228
G1 X104.489 Y91.335 E16.55087
G1 X105.48 Y91.551 E16.61834
G1 X106.387 Y91.846 E16.68178
G1 X107.233 Y92.186 E16.74243
G1 X108.098 Y92.638 E16.80736
G1 X108.786 Y93.061 E16.86108
G1 X109.379 Y93.485 E16.90957
G1 X110.005 Y94 E16.96349
G1 X110.536 Y94.5 E17.01201
G1 X111.086 Y95.094 E17.06586
G1 X111.573 Y95.696 E17.11737
G1 X112.096 Y96.443 E17.17803
G1 X112.572 Y97.291 E17.24272
G1 X112.917 Y98.021 E17.29643
G1 X113.199 Y98.741 E17.34786
G1 X113.472 Y99.612 E17.40858
G1 X113.679 Y100.602 E17.47586
G1 X113.783 Y101.366 E17.52715
G1 X113.832 Y102.094 E17.57569
G1 X113.832 Y102.904 E17.62957
G1 X113.783 Y103.631 E17.67804
G1 X113.679 Y104.395 E17.72933
G1 X113.471 Y105.388 E17.79682
G1 X113.185 Y106.296 E17.86014
G1 X112.903 Y107.011 E17.91127
G1 X112.591 Y107.672 E17.95989
G1 X112.195 Y108.378 E18.01374
G1 X111.696 Y109.146 E18.07466
G1 X110.93 Y110.094 E18.15574
G1 X110.293 Y110.738 E18.21599
G1 X109.714 Y111.248 E18.26732
G1 X108.954 Y111.83 E18.331
G1 X107.925 Y112.467 E18.4115
G1 X106.933 Y112.944 E18.48472
G1 X105.983 Y113.291 E18.552
G1 X105.107 Y113.543 E18.61263
G1 X104.109 Y113.724 E18.6801
G1 X103.136 Y113.829 E18.7452
G1 X102.052 Y113.837 E18.81731
G1 X101.04 Y113.744 E18.88492
G1 X100.276 Y113.62 E18.9364
G1 X99.531 Y113.443 E18.98734
G1 X98.832 Y113.23 E19.03595
G1 X97.939 Y112.888 E19.09956
G1 X97.034 Y112.436 E19.16685
G1 X96.372 Y112.042 E19.21809
G1 X95.621 Y111.524 E19.27878
G1 X94.879 Y110.897 E19.3434
G1 X94.298 Y110.331 E19.39736
G1 X93.786 Y109.756 E19.44857
G1 X93.313 Y109.148 E19.49982
G1 X92.767 Y108.333 E19.56507
G1 X92.34 Y107.536 E19.62522
G1 X91.945 Y106.668 E19.68865
G1 X91.623 Y105.708 E19.75601
G1 X91.43 Y104.963 E19.8072
G1 X91.294 Y104.245 E19.85581
G1 X91.202 Y103.481 E19.907
G1 X91.161 Y102.672 E19.96089
G0 F1800 X91.561 Y102.679
G1 F1200 X91.577 Y101.751 E20.02263
G1 X91.687 Y100.828 E20.08446
G1 X91.822 Y100.11 E20.13306
G1 X92.014 Y99.379 E20.18333
G1 X92.249 Y98.675 E20.2327
G1 X92.534 Y97.987 E20.28224
G1 X92.941 Y97.164 E20.34332
G1 X93.543 Y96.204 E20.41869
G1 X94.11 Y95.478 E20.47997
G1 X94.606 Y94.925 E20.52938
G1 X95.138 Y94.407 E20.57878
G1 X95.704 Y93.925 E20.62823
G1 X96.302 Y93.485 E20.67762
G1 X96.928 Y93.085 E20.72703
G1 X97.581 Y92.726 E20.7766
G1 X98.405 Y92.345 E20.83699
G1 X99.48 Y91.976 E20.9126
G1 X100.368 Y91.768 E20.97327
G1 X101.116 Y91.647 E21.02367
G1 X101.857 Y91.578 E21.07317
G1 X102.773 Y91.555 E21.13413
G1 X103.709 Y91.627 E21.19657
G1 X104.446 Y91.734 E21.24611
G1 X105.357 Y91.932 E21.30813
G1 X106.238 Y92.217 E21.36972
G1 X107.084 Y92.557 E21.43037
G1 X107.923 Y92.999 E21.49345
G1 X108.553 Y93.386 E21.54264
G1 X109.157 Y93.819 E21.59207
G1 X109.731 Y94.291 E21.64151
G1 X110.272 Y94.801 E21.69096
G1 X110.775 Y95.346 E21.7403
G1 X111.245 Y95.925 E21.78991
G1 X111.768 Y96.672 E21.85057
G1 X112.229 Y97.498 E21.91349
G1 X112.545 Y98.168 E21.96277
G1 X112.817 Y98.86 E22.01223
G1 X113.095 Y99.75 E22.07425
G1 X113.283 Y100.657 E22.13587
G1 X113.384 Y101.393 E22.18528
G1 X113.433 Y102.121 E22.23382
G1 X113.433 Y102.877 E22.28411
G1 X113.384 Y103.604 E22.33258
G1 X113.281 Y104.354 E22.38294
G1 X113.095 Y105.249 E22.44375
G1 X112.812 Y106.15 E22.50657
G1 X112.541 Y106.84 E22.55588
G1 X112.222 Y107.514 E22.60548
G1 X111.86 Y108.16 E22.65474
G1 X111.361 Y108.928 E22.71567
G1 X110.645 Y109.813 E22.79139
G1 X109.998 Y110.466 E22.85254
G1 X109.439 Y110.956 E22.90199
G1 X108.695 Y111.523 E22.96421
G1 X107.752 Y112.106 E23.03796
G1 X106.741 Y112.591 E23.11255
G1 X105.872 Y112.906 E23.17404
G1 X104.977 Y113.163 E23.23598
G1 X104.065 Y113.327 E23.29762
G1 X103.154 Y113.428 E23.35859
G1 X102.049 Y113.437 E23.4321
G1 X101.103 Y113.349 E23.4953
G1 X100.368 Y113.231 E23.54482
G1 X99.66 Y113.064 E23.59321
G1 X98.935 Y112.843 E23.64362
G1 X98.064 Y112.507 E23.70572
G1 X97.238 Y112.092 E23.76721
G1 X96.599 Y111.713 E23.81664
G1 X95.848 Y111.195 E23.87732
G1 X95.138 Y110.592 E23.93929
G1 X94.596 Y110.064 E23.98962
G1 X94.101 Y109.51 E24.03904
G1 X93.644 Y108.924 E24.08847
G1 X93.13 Y108.162 E24.14962
G1 X92.687 Y107.336 E24.21197
G1 X92.301 Y106.483 E24.27425
G1 X92.01 Y105.607 E24.33565
G1 X91.823 Y104.888 E24.38507
G1 X91.685 Y104.157 E24.43455
G1 X91.598 Y103.42 E24.48392
G1 X91.561 Y102.679 E24.53327
G1 F1500 E23.53327
G1 F600 Z1.2
G0 F1800 X97.975 Y102.71 Z1.2
G1 F600 Z0.2
G1 F1500 E24.53327
G1 F1200 X98.02 Y103.197 E24.56581
G1 X98.133 Y103.697 E24.59991
G1 X98.409 Y104.442 E24.65275
G1 X98.814 Y105.131 E24.70592
G1 X99.118 Y105.519 E24.73871
G1 X99.557 Y105.948 E24.77954
G1 X99.963 Y106.25 E24.8132
G1 X100.381 Y106.508 E24.84587
G1 X100.936 Y106.756 E24.88631
G1 X101.506 Y106.923 E24.92582
G1 X102.006 Y107.001 E24.95948
G1 X102.503 Y107.034 E24.99262
G1 X103.1 Y106.993 E25.03242
G1 X103.604 Y106.891 E25.06663
G1 X104.076 Y106.75 E25.0994
G1 X104.627 Y106.503 E25.13956
G1 X105.135 Y106.188 E25.17933
G1 X105.524 Y105.869 E25.21279
G1 X105.889 Y105.509 E25.24689
G1 X106.191 Y105.121 E25.2796
G1 X106.593 Y104.437 E25.33237
G1 X106.9 Y103.588 E25.39243
G1 X106.989 Y103.086 E25.42634
G1 X107.03 Y102.125 E25.49033
G1 X106.895 Y101.392 E25.53991
G1 X106.588 Y100.553 E25.59934
G1 X106.186 Y99.87 E25.65206
G1 X105.869 Y99.467 E25.68616
G1 X105.51 Y99.116 E25.71956
G1 X105.127 Y98.803 E25.75246
G1 X104.609 Y98.486 E25.79286
G1 X104.065 Y98.244 E25.83247
G1 X103.594 Y98.106 E25.86512
G1 X103.086 Y98.004 E25.89958
G1 X102.607 Y97.973 E25.93151
G1 X101.791 Y98.026 E25.98591
G1 X101.309 Y98.125 E26.01864
G1 X100.823 Y98.293 E26.05285
G1 X100.371 Y98.496 E26.08581
G1 X99.624 Y99.001 E26.14579
G1 X99.055 Y99.56 E26.19885
G1 X98.746 Y99.955 E26.23221
G1 X98.445 Y100.469 E26.27183
G1 X98.25 Y100.935 E26.30543
G1 X98.1 Y101.409 E26.3385
G1 X98.011 Y101.905 E26.37202
G1 X97.975 Y102.71 E26.42563
G0 F1800 X97.575 Y102.725
G1 F1200 X97.624 Y103.26 E26.46136
G1 X97.747 Y103.804 E26.49846
G1 X98.046 Y104.611 E26.55571
G1 X98.492 Y105.369 E26.61422
G1 X98.823 Y105.791 E26.64989
G1 X99.292 Y106.25 E26.69354
G1 X99.736 Y106.58 E26.73034
G1 X100.199 Y106.865 E26.76651
G1 X100.795 Y107.131 E26.80993
G1 X101.415 Y107.313 E26.85291
G1 X101.963 Y107.399 E26.88981
G1 X102.503 Y107.435 E26.92581
G1 X103.155 Y107.39 E26.96928
G1 X103.696 Y107.28 E27.00601
G1 X104.219 Y107.125 E27.04229
G1 X104.815 Y106.857 E27.08576
G1 X105.372 Y106.512 E27.12935
G1 X105.792 Y106.167 E27.1655
G1 X106.19 Y105.775 E27.20266
G1 X106.515 Y105.357 E27.23788
G1 X107.044 Y104.452 E27.30761
G1 X107.29 Y103.681 E27.36145
G1 X107.385 Y103.146 E27.39759
G1 X107.431 Y102.092 E27.46777
G1 X107.285 Y101.297 E27.52154
G1 X107.039 Y100.534 E27.57487
G1 X106.507 Y99.632 E27.64453
G1 X106.171 Y99.204 E27.68072
G1 X105.778 Y98.82 E27.71727
G1 X105.355 Y98.474 E27.75363
G1 X104.8 Y98.133 E27.79696
G1 X104.204 Y97.869 E27.84032
G1 X103.669 Y97.713 E27.87739
G1 X103.146 Y97.607 E27.91289
G1 X102.613 Y97.572 E27.94842
G1 X101.732 Y97.63 E28.00715
G1 X101.199 Y97.739 E28.04334
G1 X100.681 Y97.918 E28.0798
G1 X100.186 Y98.14 E28.11588
G1 X99.495 Y98.568 E28.16995
G1 X98.747 Y99.304 E28.23976
G1 X98.417 Y99.726 E28.27539
G1 X98.085 Y100.292 E28.31904
G1 X97.872 Y100.802 E28.35581
G1 X97.711 Y101.31 E28.39126
