;FLAVOR:Marlin
;TIME:260
;Filament used: 0.296642m
;Layer height: 0.3
;MINX:84.412
;MINY:81.205
;MINZ:0.2
;MAXX:120.588
;MAXY:123.745
;MAXZ:6.9
;Generated with Cura_SteamEngine main
M140 S65
M105
M190 S65
M104 S220
M105
M109 S220
M82 ;absolute extrusion mode
G21 ;metric values
G90 ;absolute positioning
M82 ;set extruder to absolute mode
M107 ;start with the fan off

M206 X5 Y9 ;set home offsets

G28 X0 Y0 ;move X/Y to min endstops
G28 Z0 ;move Z to min endstops
G1 Z15.0 F9000 ;move the platform down 15mm
G92 E0 ;zero the extruded length
G1 F200 E3 ;extrude 3mm of feed stock
G92 E0 ;zero the extruded length again
G1 F9000

;M301 D121.72 I2.14 P32.30
M301 D17.09 I0.93 P78.40

;Set max printing acceleration
M201 X100 Y100
;Set max travel acceleration
M202 X300 Y300
;Set max jerk
M556 X10 Y10
;Set max feedrate
M203 X1000 Y1000


;Put printing message on LCD screen
M117 Printing...
G92 E0
G92 E0
G1 F1500 E-1
;LAYER_COUNT:22
;LAYER:0
M107
G1 F600 Z1.2
G0 F1800 X87.698 Y84.801 Z1.2
G1 F600 Z0.2
G0 F1800 X86.19 Y87.378
G0 X85.462 Y88.969
G0 X85.213 Y89.809
G0 X84.412 Y93.183
;TYPE:SKIRT
G1 F1500 E0
G1 F1200 X84.426 Y92.208 E0.06486
G1 X84.551 Y91.13 E0.13705
G1 X84.686 Y90.412 E0.18565
G1 X84.905 Y89.576 E0.24314
G1 X85.135 Y88.885 E0.29158
G1 X85.439 Y88.144 E0.34486
G1 X85.923 Y87.172 E0.41709
G1 X86.562 Y86.162 E0.4966
G1 X87.12 Y85.446 E0.55698
G1 X87.698 Y84.801 E0.61459
G1 X88.269 Y84.248 E0.66747
G1 X88.879 Y83.731 E0.72066
G1 X89.466 Y83.298 E0.76918
G1 X90.193 Y82.833 E0.82659
G1 X90.895 Y82.45 E0.87978
G1 X91.719 Y82.069 E0.94017
G1 X92.851 Y81.675 E1.0199
G1 X93.836 Y81.439 E1.08728
G1 X94.692 Y81.3 E1.14497
G1 X95.487 Y81.228 E1.19807
G1 X96.403 Y81.205 E1.25902
G1 X97.473 Y81.285 E1.33039
G1 X98.196 Y81.389 E1.37898
G1 X99.157 Y81.595 E1.44436
G1 X100.186 Y81.925 E1.51624
G1 X101.125 Y82.308 E1.5837
G1 X101.934 Y82.734 E1.64452
G1 X102.669 Y83.186 E1.70192
G1 X103.262 Y83.61 E1.75041
G1 X103.93 Y84.159 E1.80793
G1 X104.461 Y84.659 E1.85645
G1 X105.004 Y85.243 E1.90949
G1 X105.55 Y85.916 E1.96714
G1 X106.073 Y86.663 E2.0278
G1 X106.602 Y87.606 E2.09972
G1 X106.94 Y88.325 E2.15257
G1 X107.207 Y89.004 E2.20111
G1 X107.528 Y90.037 E2.27306
G1 X107.726 Y90.998 E2.33833
G1 X107.832 Y91.789 E2.39142
G1 X107.881 Y92.517 E2.43996
G1 X107.881 Y93.381 E2.49743
G1 X107.825 Y94.177 E2.55051
G1 X107.726 Y94.899 E2.59899
G1 X107.503 Y95.958 E2.67098
G1 X107.23 Y96.827 E2.73157
G1 X106.941 Y97.57 E2.7846
G1 X106.57 Y98.355 E2.84236
G1 X106.181 Y99.046 E2.89511
G1 X105.682 Y99.814 E2.95603
G1 X104.93 Y100.751 E3.03595
G1 X104.648 Y101.044 E3.063
G1 X105.257 Y100.825 E3.10605
G1 X106.231 Y100.55 E3.17338
G1 X107.197 Y100.378 E3.23865
G1 X108.211 Y100.271 E3.30647
G1 X109.395 Y100.267 E3.38523
G1 X110.308 Y100.352 E3.44623
G1 X111.166 Y100.491 E3.50405
G1 X111.935 Y100.674 E3.55663
G1 X112.634 Y100.887 E3.60524
G1 X113.644 Y101.278 E3.67728
G1 X114.458 Y101.686 E3.73785
G1 X115.205 Y102.129 E3.79562
G1 X116.036 Y102.708 E3.863
G1 X116.729 Y103.297 E3.92349
G1 X117.35 Y103.902 E3.98117
G1 X117.836 Y104.446 E4.02969
G1 X118.368 Y105.128 E4.08723
G1 X118.883 Y105.891 E4.14846
G1 X119.392 Y106.834 E4.21975
G1 X119.807 Y107.762 E4.28737
G1 X120.114 Y108.69 E4.35239
G1 X120.298 Y109.397 E4.40099
G1 X120.459 Y110.247 E4.45853
G1 X120.551 Y111.038 E4.51151
G1 X120.588 Y111.767 E4.56006
G1 X120.574 Y112.742 E4.62493
G1 X120.449 Y113.82 E4.69712
G1 X120.314 Y114.538 E4.74571
G1 X120.095 Y115.374 E4.8032
G1 X119.865 Y116.065 E4.85165
G1 X119.561 Y116.806 E4.90492
G1 X119.077 Y117.778 E4.97715
G1 X118.438 Y118.788 E5.05666
G1 X117.88 Y119.504 E5.11704
G1 X117.302 Y120.149 E5.17465
G1 X116.731 Y120.702 E5.22753
G1 X116.121 Y121.219 E5.28072
G1 X115.534 Y121.652 E5.32924
G1 X114.806 Y122.117 E5.3867
G1 X114.106 Y122.498 E5.43972
G1 X113.186 Y122.919 E5.50702
G1 X112.052 Y123.303 E5.58666
G1 X111.164 Y123.511 E5.64733
G1 X110.308 Y123.65 E5.70502
G1 X109.513 Y123.722 E5.75812
G1 X108.597 Y123.745 E5.81907
G1 X107.527 Y123.665 E5.89045
G1 X106.804 Y123.561 E5.93904
G1 X105.843 Y123.355 E6.00441
G1 X104.814 Y123.025 E6.0763
G1 X103.873 Y122.641 E6.1439
G1 X103.066 Y122.216 E6.20457
G1 X102.331 Y121.764 E6.26197
G1 X101.737 Y121.339 E6.31056
G1 X101.07 Y120.791 E6.36798
G1 X100.538 Y120.29 E6.41659
G1 X99.952 Y119.657 E6.47397
G1 X99.492 Y119.09 E6.52254
G1 X98.871 Y118.199 E6.59479
G1 X98.428 Y117.404 E6.65533
G1 X98.059 Y116.622 E6.71285
G1 X97.793 Y115.944 E6.76129
G1 X97.472 Y114.913 E6.83312
G1 X97.274 Y113.951 E6.89846
G1 X97.168 Y113.159 E6.95161
G1 X97.119 Y112.433 E7.00001
G1 X97.119 Y111.569 E7.05749
G1 X97.175 Y110.773 E7.11057
G1 X97.274 Y110.051 E7.15905
G1 X97.497 Y108.992 E7.23104
G1 X97.77 Y108.123 E7.29163
G1 X98.059 Y107.38 E7.34466
G1 X98.43 Y106.595 E7.40242
G1 X98.819 Y105.904 E7.45516
G1 X99.318 Y105.136 E7.51609
G1 X100.07 Y104.199 E7.59601
G1 X100.352 Y103.906 E7.62306
G1 X99.743 Y104.125 E7.66611
G1 X98.769 Y104.4 E7.73343
G1 X97.803 Y104.572 E7.7987
G1 X96.789 Y104.679 E7.86653
G1 X95.605 Y104.683 E7.94529
G1 X94.692 Y104.598 E8.00629
G1 X93.834 Y104.459 E8.0641
G1 X93.065 Y104.276 E8.11669
G1 X92.366 Y104.063 E8.16529
G1 X91.356 Y103.672 E8.23734
G1 X90.542 Y103.264 E8.29791
G1 X89.795 Y102.821 E8.35568
G1 X88.964 Y102.242 E8.42305
G1 X88.27 Y101.652 E8.48365
G1 X87.649 Y101.047 E8.54132
G1 X87.163 Y100.503 E8.58984
G1 X86.631 Y99.821 E8.64738
G1 X86.117 Y99.059 E8.70852
G1 X85.608 Y98.116 E8.7798
G1 X85.192 Y97.186 E8.84758
G1 X84.886 Y96.259 E8.91251
G1 X84.687 Y95.487 E8.96555
G1 X84.551 Y94.769 E9.01416
G1 X84.449 Y93.911 E9.07163
G1 X84.412 Y93.183 E9.12012
G0 F1800 X84.811 Y93.122
G1 F1200 X84.83 Y92.154 E9.18453
G1 X84.944 Y91.204 E9.24817
G1 X85.079 Y90.486 E9.29677
G1 X85.285 Y89.703 E9.35063
G1 X85.529 Y88.972 E9.40189
G1 X85.808 Y88.297 E9.45048
G1 X86.232 Y87.437 E9.51426
G1 X86.878 Y86.408 E9.59508
G1 X87.462 Y85.661 E9.65816
G1 X87.948 Y85.118 E9.70663
G1 X88.529 Y84.552 E9.76059
G1 X89.084 Y84.079 E9.80909
G1 X89.704 Y83.62 E9.86041
G1 X90.385 Y83.184 E9.9142
G1 X91.063 Y82.813 E9.96561
G1 X91.887 Y82.432 E10.026
G1 X93.039 Y82.037 E10.10701
G1 X93.927 Y81.829 E10.16768
G1 X94.689 Y81.704 E10.21904
G1 X95.497 Y81.628 E10.27303
G1 X96.413 Y81.605 E10.33398
G1 X97.416 Y81.681 E10.40089
G1 X98.139 Y81.785 E10.44948
G1 X99.13 Y82.001 E10.51695
G1 X100.037 Y82.296 E10.5804
G1 X100.883 Y82.636 E10.64105
G1 X101.748 Y83.088 E10.70597
G1 X102.436 Y83.511 E10.75969
G1 X103.029 Y83.935 E10.80818
G1 X103.655 Y84.45 E10.86211
G1 X104.186 Y84.95 E10.91062
G1 X104.736 Y85.544 E10.96447
G1 X105.223 Y86.146 E11.01598
G1 X105.746 Y86.893 E11.07664
G1 X106.222 Y87.741 E11.14133
G1 X106.567 Y88.471 E11.19504
G1 X106.849 Y89.191 E11.24648
G1 X107.122 Y90.062 E11.3072
G1 X107.329 Y91.052 E11.37447
G1 X107.433 Y91.816 E11.42576
G1 X107.482 Y92.544 E11.4743
G1 X107.482 Y93.354 E11.52818
G1 X107.433 Y94.081 E11.57665
G1 X107.329 Y94.845 E11.62794
G1 X107.121 Y95.838 E11.69543
G1 X106.835 Y96.746 E11.75876
G1 X106.553 Y97.461 E11.80988
G1 X106.241 Y98.122 E11.85851
G1 X105.845 Y98.828 E11.91235
G1 X105.346 Y99.596 E11.97328
G1 X104.58 Y100.544 E12.05435
G1 X103.943 Y101.188 E12.11461
G1 X103.364 Y101.698 E12.16593
G1 X102.604 Y102.28 E12.22961
G1 X101.575 Y102.917 E12.31011
G1 X100.583 Y103.394 E12.38333
G1 X99.633 Y103.741 E12.45061
G1 X98.757 Y103.993 E12.51125
G1 X97.759 Y104.174 E12.57872
G1 X96.786 Y104.279 E12.64382
G1 X95.702 Y104.287 E12.71593
G1 X94.69 Y104.194 E12.78353
G1 X93.926 Y104.07 E12.83501
G1 X93.181 Y103.893 E12.88595
G1 X92.482 Y103.68 E12.93456
G1 X91.589 Y103.338 E12.99817
G1 X90.684 Y102.886 E13.06546
G1 X90.022 Y102.492 E13.11671
G1 X89.271 Y101.974 E13.1774
G1 X88.529 Y101.347 E13.24202
G1 X87.948 Y100.781 E13.29597
G1 X87.436 Y100.206 E13.34719
G1 X86.963 Y99.598 E13.39843
G1 X86.417 Y98.783 E13.46368
G1 X85.99 Y97.986 E13.52383
G1 X85.595 Y97.118 E13.58727
G1 X85.273 Y96.158 E13.65462
G1 X85.08 Y95.413 E13.70582
G1 X84.944 Y94.695 E13.75443
G1 X84.852 Y93.931 E13.80562
G1 X84.811 Y93.122 E13.8595
G0 F1800 X85.211 Y93.129
G1 F1200 X85.227 Y92.201 E13.92124
G1 X85.337 Y91.278 E13.98307
G1 X85.472 Y90.56 E14.03167
G1 X85.664 Y89.829 E14.08195
G1 X85.899 Y89.125 E14.13132
G1 X86.184 Y88.437 E14.18085
G1 X86.591 Y87.614 E14.24193
G1 X87.193 Y86.654 E14.31731
G1 X87.76 Y85.928 E14.37858
G1 X88.256 Y85.375 E14.428
G1 X88.788 Y84.857 E14.47739
G1 X89.354 Y84.375 E14.52684
G1 X89.952 Y83.935 E14.57623
G1 X90.578 Y83.535 E14.62565
G1 X91.231 Y83.176 E14.67522
G1 X92.055 Y82.795 E14.7356
G1 X93.13 Y82.426 E14.81121
G1 X94.018 Y82.218 E14.87188
G1 X94.766 Y82.097 E14.92228
G1 X95.507 Y82.028 E14.97179
G1 X96.423 Y82.005 E15.03274
G1 X97.359 Y82.077 E15.09519
G1 X98.096 Y82.184 E15.14473
G1 X99.007 Y82.382 E15.20674
G1 X99.888 Y82.667 E15.26833
G1 X100.734 Y83.007 E15.32899
G1 X101.573 Y83.449 E15.39207
G1 X102.203 Y83.836 E15.44125
G1 X102.807 Y84.269 E15.49069
G1 X103.381 Y84.741 E15.54012
G1 X103.922 Y85.251 E15.58958
G1 X104.425 Y85.796 E15.63891
G1 X104.895 Y86.375 E15.68852
G1 X105.418 Y87.122 E15.74918
G1 X105.879 Y87.948 E15.8121
G1 X106.195 Y88.618 E15.86138
G1 X106.467 Y89.31 E15.91084
G1 X106.745 Y90.2 E15.97286
G1 X106.933 Y91.107 E16.03448
G1 X107.034 Y91.843 E16.0839
G1 X107.083 Y92.571 E16.13243
G1 X107.083 Y93.327 E16.18272
G1 X107.034 Y94.054 E16.23119
G1 X106.931 Y94.804 E16.28155
G1 X106.745 Y95.699 E16.34236
G1 X106.462 Y96.6 E16.40518
G1 X106.191 Y97.29 E16.45449
G1 X105.872 Y97.964 E16.5041
G1 X105.51 Y98.61 E16.55336
G1 X105.011 Y99.378 E16.61428
G1 X104.295 Y100.263 E16.69
G1 X103.648 Y100.916 E16.75115
G1 X103.089 Y101.406 E16.8006
G1 X102.345 Y101.973 E16.86283
G1 X101.402 Y102.556 E16.93657
G1 X100.391 Y103.041 E17.01116
G1 X99.522 Y103.356 E17.07265
G1 X98.627 Y103.613 E17.13459
G1 X97.715 Y103.777 E17.19623
G1 X96.804 Y103.878 E17.2572
G1 X95.699 Y103.887 E17.33071
G1 X94.753 Y103.799 E17.39391
G1 X94.018 Y103.681 E17.44343
G1 X93.31 Y103.514 E17.49182
G1 X92.585 Y103.293 E17.54224
G1 X91.714 Y102.957 E17.60434
G1 X90.888 Y102.542 E17.66583
G1 X90.249 Y102.163 E17.71525
G1 X89.498 Y101.645 E17.77594
G1 X88.788 Y101.042 E17.8379
G1 X88.246 Y100.514 E17.88823
G1 X87.751 Y99.96 E17.93765
G1 X87.294 Y99.374 E17.98709
G1 X86.78 Y98.612 E18.04823
G1 X86.337 Y97.786 E18.11058
G1 X85.951 Y96.933 E18.17286
G1 X85.66 Y96.057 E18.23426
G1 X85.473 Y95.338 E18.28368
G1 X85.335 Y94.607 E18.33317
G1 X85.248 Y93.87 E18.38253
G1 X85.211 Y93.129 E18.43189
G1 F1500 E17.43189
G0 F1800 X84.747 Y93.153
G0 X84.877 Y94.685
G0 X85.216 Y96.196
G0 X85.522 Y97.113
G0 X86.376 Y98.844
G0 X87.399 Y100.263
G0 X88.363 Y101.27
G0 X97.815 Y109.093
G0 X97.879 Y109.112
G1 F1500 E18.43189
G1 F1200 X98.165 Y108.204 E18.49521
G1 X98.447 Y107.489 E18.54634
G1 X98.759 Y106.828 E18.59496
G1 X99.155 Y106.122 E18.64881
G1 X99.654 Y105.354 E18.70973
G1 X100.42 Y104.406 E18.79081
G1 X101.057 Y103.762 E18.85106
G1 X101.636 Y103.252 E18.90239
G1 X102.396 Y102.67 E18.96606
G1 X103.425 Y102.033 E19.04657
G1 X104.417 Y101.556 E19.11979
G1 X105.367 Y101.209 E19.18707
G1 X106.243 Y100.957 E19.2477
G1 X107.241 Y100.776 E19.31517
G1 X108.214 Y100.671 E19.38027
G1 X109.298 Y100.663 E19.45238
G1 X110.31 Y100.756 E19.51998
G1 X111.074 Y100.88 E19.57147
G1 X111.819 Y101.057 E19.62241
G1 X112.518 Y101.27 E19.67102
G1 X113.411 Y101.612 E19.73463
G1 X114.316 Y102.064 E19.80192
G1 X114.978 Y102.458 E19.85316
G1 X115.729 Y102.976 E19.91385
G1 X116.47 Y103.602 E19.97838
G1 X117.051 Y104.168 E20.03233
G1 X117.563 Y104.743 E20.08355
G1 X118.036 Y105.351 E20.13479
G1 X118.583 Y106.167 E20.20014
G1 X119.01 Y106.964 E20.26028
G1 X119.427 Y107.888 E20.32772
G1 X119.727 Y108.791 E20.39101
G1 X119.911 Y109.498 E20.43961
G1 X120.062 Y110.294 E20.4935
G1 X120.148 Y111.018 E20.542
G1 X120.189 Y111.828 E20.59595
G1 X120.17 Y112.796 E20.66036
G1 X120.056 Y113.746 E20.72401
G1 X119.921 Y114.464 E20.7726
G1 X119.715 Y115.247 E20.82646
G1 X119.471 Y115.978 E20.87773
G1 X119.192 Y116.653 E20.92631
G1 X118.768 Y117.513 E20.99009
G1 X118.122 Y118.542 E21.07091
G1 X117.538 Y119.289 E21.13399
G1 X117.052 Y119.832 E21.18246
G1 X116.471 Y120.398 E21.23642
G1 X115.916 Y120.871 E21.28493
G1 X115.296 Y121.33 E21.33624
G1 X114.614 Y121.766 E21.39009
G1 X113.973 Y122.117 E21.4387
G1 X113.056 Y122.54 E21.50588
G1 X111.961 Y122.913 E21.58283
G1 X111.073 Y123.121 E21.6435
G1 X110.311 Y123.246 E21.69486
G1 X109.503 Y123.322 E21.74885
G1 X108.587 Y123.345 E21.8098
G1 X107.584 Y123.269 E21.87671
G1 X106.861 Y123.165 E21.9253
G1 X105.87 Y122.949 E21.99277
G1 X104.963 Y122.654 E22.05621
G1 X104.115 Y122.313 E22.11701
G1 X103.252 Y121.862 E22.18179
G1 X102.564 Y121.439 E22.23551
G1 X101.97 Y121.014 E22.2841
G1 X101.345 Y120.5 E22.33792
G1 X100.813 Y119.999 E22.38654
G1 X100.263 Y119.405 E22.44039
G1 X99.803 Y118.838 E22.48895
G1 X99.221 Y118.004 E22.5566
G1 X98.778 Y117.209 E22.61714
G1 X98.431 Y116.476 E22.67109
G1 X98.165 Y115.798 E22.71954
G1 X97.879 Y114.889 E22.78293
G1 X97.678 Y113.937 E22.84765
G1 X97.567 Y113.132 E22.90171
G1 X97.518 Y112.406 E22.95011
G1 X97.518 Y111.596 E23.00399
G1 X97.567 Y110.869 E23.05246
G1 X97.671 Y110.105 E23.10375
G1 X97.879 Y109.112 E23.17124
G0 F1800 X97.917 Y111.623
G1 F1200 X97.966 Y110.896 E23.21971
G1 X98.069 Y110.146 E23.27007
G1 X98.255 Y109.251 E23.33088
G1 X98.538 Y108.35 E23.3937
G1 X98.809 Y107.66 E23.44301
G1 X99.128 Y106.986 E23.49261
G1 X99.49 Y106.34 E23.54187
G1 X99.989 Y105.572 E23.6028
G1 X100.705 Y104.687 E23.67852
G1 X101.352 Y104.034 E23.73967
G1 X101.911 Y103.544 E23.78912
G1 X102.655 Y102.977 E23.85134
G1 X103.598 Y102.394 E23.92509
G1 X104.609 Y101.909 E23.99968
G1 X105.478 Y101.594 E24.06117
G1 X106.373 Y101.337 E24.12311
G1 X107.285 Y101.173 E24.18475
G1 X108.196 Y101.072 E24.24572
G1 X109.301 Y101.063 E24.31923
G1 X110.247 Y101.151 E24.38243
G1 X110.982 Y101.269 E24.43195
G1 X111.69 Y101.436 E24.48034
G1 X112.415 Y101.657 E24.53075
G1 X113.286 Y101.993 E24.59285
G1 X114.112 Y102.408 E24.65434
G1 X114.751 Y102.787 E24.70377
G1 X115.502 Y103.305 E24.76445
G1 X116.211 Y103.907 E24.82632
G1 X116.753 Y104.435 E24.87666
G1 X117.248 Y104.989 E24.92608
G1 X117.705 Y105.575 E24.97551
G1 X118.22 Y106.338 E25.03674
G1 X118.663 Y107.164 E25.09909
G1 X119.048 Y108.015 E25.16123
G1 X119.34 Y108.892 E25.22271
G1 X119.524 Y109.599 E25.27131
G1 X119.665 Y110.341 E25.32155
G1 X119.752 Y111.079 E25.37098
G1 X119.789 Y111.821 E25.4204
G1 X119.773 Y112.749 E25.48214
G1 X119.663 Y113.672 E25.54398
G1 X119.528 Y114.39 E25.59257
G1 X119.336 Y115.121 E25.64285
G1 X119.101 Y115.825 E25.69222
G1 X118.816 Y116.513 E25.74176
G1 X118.409 Y117.336 E25.80283
G1 X117.807 Y118.296 E25.87821
G1 X117.24 Y119.022 E25.93949
G1 X116.744 Y119.575 E25.9889
G1 X116.212 Y120.093 E26.03829
G1 X115.646 Y120.575 E26.08775
G1 X115.048 Y121.015 E26.13713
G1 X114.422 Y121.415 E26.18655
G1 X113.769 Y121.772 E26.23605
G1 X112.926 Y122.162 E26.29784
G1 X111.87 Y122.524 E26.3721
G1 X110.982 Y122.732 E26.43277
G1 X110.234 Y122.853 E26.48317
G1 X109.493 Y122.922 E26.53268
G1 X108.577 Y122.945 E26.59363
G1 X107.641 Y122.873 E26.65608
G1 X106.904 Y122.766 E26.70562
G1 X105.993 Y122.568 E26.76763
G1 X105.112 Y122.283 E26.82923
G1 X104.264 Y121.942 E26.89002
G1 X103.427 Y121.501 E26.95296
G1 X102.797 Y121.114 E27.00214
G1 X102.192 Y120.68 E27.05167
G1 X101.619 Y120.209 E27.10101
G1 X101.077 Y119.698 E27.15056
G1 X100.574 Y119.153 E27.1999
G1 X100.105 Y118.575 E27.24941
G1 X99.581 Y117.827 E27.31016
G1 X99.121 Y117.002 E27.37299
G1 X98.804 Y116.33 E27.42242
G1 X98.533 Y115.639 E27.47179
G1 X98.255 Y114.75 E27.53375
G1 X98.067 Y113.842 E27.59544
G1 X97.966 Y113.105 E27.64492
G1 X97.917 Y112.379 E27.69332
G1 X97.917 Y111.623 E27.74361
G1 F1500 E26.74361
G1 F600 Z1.2
G0 F1800 X90.425 Y92.709 Z1.2
G1 F600 Z0.2
G1 F1500 E27.74361
G1 F1200 X90.425 Y93.216 E27.77734
G1 X90.482 Y93.837 E27.81882
G1 X90.677 Y94.704 E27.87793
G1 X90.97 Y95.399 E27.92811
G1 X91.338 Y96.09 E27.98018
G1 X91.875 Y96.775 E28.03808
G1 X92.425 Y97.312 E28.08922
G1 X92.933 Y97.691 E28.13138
G1 X93.47 Y98.021 E28.1733
G1 X94.169 Y98.333 E28.22422
G1 X94.889 Y98.545 E28.27415
