;FLAVOR:Marlin
;TIME:3746
;Filament used: 9.02811m
;Layer height: 0.3
;MINX:56.407
;MINY:61.959
;MINZ:0.1
;MAXX:148.969
;MAXY:154.517
;MAXZ:56.03
;Generated with Cura_SteamEngine 5.0.0
M140 S60
M105
M190 S60
M104 S200
M105
M109 S200
M82 ;absolute extrusion mode
G21 ;metric values
G90 ;absolute positioning
M82 ;set extruder to absolute mode
M107 ;start with the fan off

M206 X5 Y9 ;set home offsets

G28 X0 Y0 ;move X/Y to min endstops
G28 Z0 ;move Z to min endstops
G1 Z15.0 F9000 ;move the platform down 15mm
G92 E0 ;zero the extruded length
G1 F200 E3 ;extrude 3mm of feed stock
G92 E0 ;zero the extruded length again
G1 F9000

M301 D121.72 I2.14 P32.30

;Set max printing acceleration
M201 X100 Y100
;Set max travel acceleration
M202 X300 Y300
;Set max jerk
M556 X10 Y10
;Set max feedrate
M203 X1000 Y1000


;Put printing message on LCD screen
M117 Printing...
G92 E0
G92 E0
G1 F1500 E-2
;LAYER_COUNT:164
;LAYER:0
M107
G1 F600 Z1.1
G0 F3600 X97.402 Y105.168 Z1.1
G0 X97.269 Y105.436
;TYPE:SKIRT
G1 F600 Z0.1
G1 F1500 E0
G1 F3000 X97.299 Y105.286 E0.00572
G1 X97.402 Y105.168 E0.01158
G1 X102.342 Y101.896 E0.2333
G1 X102.488 Y101.847 E0.23906
G1 X102.642 Y101.877 E0.24493
G1 X107.943 Y104.518 E0.46653
G1 X108.058 Y104.62 E0.47229
G1 X108.108 Y104.769 E0.47817
G1 X108.471 Y110.682 E0.69983
G1 X108.441 Y110.832 E0.70556
G1 X108.338 Y110.95 E0.71142
G1 X103.399 Y114.221 E0.93308
G1 X103.253 Y114.27 E0.93884
G1 X103.099 Y114.24 E0.94471
G1 X97.798 Y111.599 E1.16632
G1 X97.683 Y111.497 E1.17207
G1 X97.633 Y111.348 E1.17795
G1 X97.269 Y105.436 E1.39958
G0 F3600 X56.772 Y108.451
G1 F3000 X56.786 Y106.832 E1.46016
G1 X56.858 Y105.216 E1.52069
G1 X56.987 Y103.603 E1.58124
G1 X57.171 Y101.997 E1.64172
G1 X57.411 Y100.395 E1.70233
G1 X57.708 Y98.803 E1.76293
G1 X58.062 Y97.225 E1.82344
G1 X58.469 Y95.661 E1.88391
G1 X58.932 Y94.109 E1.94451
G1 X59.448 Y92.576 E2.00504
G1 X60.018 Y91.061 E2.06561
G1 X60.642 Y89.567 E2.12619
G1 X61.316 Y88.097 E2.1867
G1 X62.043 Y86.652 E2.24722
G1 X62.819 Y85.231 E2.30781
G1 X63.644 Y83.842 E2.36826
G1 X64.519 Y82.478 E2.42889
G1 X65.44 Y81.15 E2.48936
G1 X66.408 Y79.852 E2.54995
G1 X67.419 Y78.589 E2.61048
G1 X68.476 Y77.362 E2.67108
G1 X69.573 Y76.176 E2.73153
G1 X70.714 Y75.027 E2.79212
G1 X71.892 Y73.918 E2.85266
G1 X73.11 Y72.852 E2.91322
G1 X74.363 Y71.829 E2.97375
G1 X75.653 Y70.852 E3.0343
G1 X76.975 Y69.92 E3.09482
G1 X78.331 Y69.033 E3.15545
G1 X79.716 Y68.196 E3.216
G1 X81.128 Y67.409 E3.27649
G1 X82.568 Y66.67 E3.33705
G1 X84.033 Y65.983 E3.3976
G1 X85.52 Y65.349 E3.45808
G1 X87.031 Y64.767 E3.51867
G1 X88.56 Y64.236 E3.57923
G1 X90.106 Y63.761 E3.63975
G1 X91.671 Y63.34 E3.70039
G1 X93.246 Y62.976 E3.76088
G1 X94.833 Y62.665 E3.82139
G1 X96.432 Y62.411 E3.88197
G1 X98.039 Y62.214 E3.94255
G1 X99.65 Y62.072 E4.00306
G1 X101.267 Y61.987 E4.06365
G1 X102.883 Y61.959 E4.12413
G1 X104.502 Y61.987 E4.18472
G1 X106.116 Y62.073 E4.24519
G1 X107.729 Y62.216 E4.30578
G1 X109.334 Y62.415 E4.3663
G1 X110.933 Y62.669 E4.42688
G1 X112.522 Y62.98 E4.48747
G1 X114.096 Y63.346 E4.54793
G1 X115.657 Y63.768 E4.60844
G1 X117.205 Y64.244 E4.66904
G1 X118.734 Y64.774 E4.72959
G1 X120.243 Y65.358 E4.79013
G1 X121.732 Y65.994 E4.85072
G1 X123.196 Y66.681 E4.91123
G1 X124.634 Y67.42 E4.97172
G1 X126.048 Y68.209 E5.03231
G1 X127.431 Y69.047 E5.09282
G1 X128.786 Y69.933 E5.1534
G1 X130.108 Y70.867 E5.21396
G1 X131.396 Y71.845 E5.27448
G1 X132.651 Y72.868 E5.33506
G1 X133.867 Y73.935 E5.39559
G1 X135.045 Y75.043 E5.4561
G1 X136.183 Y76.194 E5.51667
G1 X137.281 Y77.381 E5.57717
G1 X138.337 Y78.609 E5.63777
G1 X139.35 Y79.871 E5.69832
G1 X140.316 Y81.169 E5.75887
G1 X141.236 Y82.499 E5.81938
G1 X142.11 Y83.863 E5.87999
G1 X142.934 Y85.254 E5.94049
G1 X143.71 Y86.674 E6.00104
G1 X144.437 Y88.122 E6.06166
G1 X145.11 Y89.592 E6.12216
G1 X145.731 Y91.084 E6.18263
G1 X146.3 Y92.599 E6.24318
G1 X146.817 Y94.133 E6.30375
G1 X147.278 Y95.685 E6.36433
G1 X147.684 Y97.25 E6.42483
G1 X148.037 Y98.83 E6.48541
G1 X148.333 Y100.42 E6.54592
G1 X148.573 Y102.021 E6.6065
G1 X148.756 Y103.629 E6.66706
G1 X148.884 Y105.242 E6.7276
G1 X148.954 Y106.857 E6.78809
G1 X148.969 Y108.477 E6.84871
G1 X148.925 Y110.094 E6.90923
G1 X148.826 Y111.709 E6.96978
G1 X148.669 Y113.318 E7.03027
G1 X148.457 Y114.924 E7.09088
G1 X148.188 Y116.518 E7.15137
G1 X147.863 Y118.103 E7.21191
G1 X147.482 Y119.678 E7.27254
G1 X147.047 Y121.235 E7.33303
G1 X146.558 Y122.777 E7.39356
G1 X146.014 Y124.302 E7.45414
G1 X145.417 Y125.805 E7.51466
G1 X144.768 Y127.288 E7.57523
G1 X144.068 Y128.746 E7.63575
G1 X143.316 Y130.179 E7.6963
G1 X142.515 Y131.585 E7.75685
G1 X141.665 Y132.961 E7.81737
G1 X140.769 Y134.307 E7.87787
G1 X139.822 Y135.623 E7.93853
G1 X138.834 Y136.901 E7.99898
G1 X137.798 Y138.147 E8.05961
G1 X136.722 Y139.352 E8.12006
G1 X135.602 Y140.522 E8.18066
G1 X134.443 Y141.65 E8.24118
G1 X133.244 Y142.738 E8.30176
G1 X132.009 Y143.782 E8.36227
G1 X130.736 Y144.783 E8.42286
G1 X129.432 Y145.737 E8.48332
G1 X128.092 Y146.647 E8.54393
G1 X126.722 Y147.509 E8.60449
G1 X125.322 Y148.322 E8.66507
G1 X123.895 Y149.084 E8.7256
G1 X122.443 Y149.797 E8.78613
G1 X120.966 Y150.458 E8.84668
G1 X119.467 Y151.067 E8.90722
G1 X117.947 Y151.624 E8.96779
G1 X116.41 Y152.125 E9.02828
G1 X114.855 Y152.574 E9.08884
G1 X113.285 Y152.966 E9.14939
G1 X111.703 Y153.304 E9.20992
G1 X110.109 Y153.587 E9.2705
G1 X108.506 Y153.813 E9.33107
G1 X106.897 Y153.982 E9.39161
G1 X105.283 Y154.095 E9.45215
G1 X103.677 Y154.152 E9.51228
G1 X102.049 Y154.152 E9.57319
G1 X100.431 Y154.094 E9.63377
G1 X98.817 Y153.98 E9.69432
G1 X97.208 Y153.81 E9.75486
G1 X95.606 Y153.583 E9.8154
G1 X94.012 Y153.3 E9.87598
G1 X92.43 Y152.961 E9.93651
G1 X90.862 Y152.567 E9.99701
G1 X89.307 Y152.118 E10.05757
G1 X87.769 Y151.616 E10.11811
G1 X86.251 Y151.058 E10.17862
G1 X84.75 Y150.449 E10.23923
G1 X83.274 Y149.785 E10.29979
G1 X81.821 Y149.072 E10.36035
G1 X80.395 Y148.308 E10.42089
G1 X78.997 Y147.496 E10.48138
G1 X77.627 Y146.633 E10.54197
G1 X76.29 Y145.724 E10.60246
G1 X74.982 Y144.767 E10.6631
G1 X73.712 Y143.766 E10.72361
G1 X72.476 Y142.72 E10.7842
G1 X71.281 Y141.634 E10.84462
G1 X70.12 Y140.502 E10.90529
G1 X69.003 Y139.335 E10.96574
G1 X67.924 Y138.126 E11.02637
G1 X66.892 Y136.881 E11.08688
G1 X65.902 Y135.601 E11.14743
G1 X64.959 Y134.287 E11.20794
G1 X64.061 Y132.938 E11.26858
G1 X63.212 Y131.562 E11.32908
G1 X62.412 Y130.155 E11.38964
G1 X61.661 Y128.724 E11.45011
G1 X60.962 Y127.264 E11.51068
G1 X60.313 Y125.782 E11.57122
G1 X59.718 Y124.278 E11.63174
G1 X59.175 Y122.754 E11.69227
G1 X58.685 Y121.21 E11.75289
G1 X58.251 Y119.652 E11.8134
G1 X57.874 Y118.079 E11.87393
G1 X57.549 Y116.493 E11.9345
G1 X57.281 Y114.896 E11.9951
G1 X57.068 Y113.293 E12.0556
G1 X56.914 Y111.681 E12.1162
G1 X56.814 Y110.068 E12.17667
G1 X56.772 Y108.451 E12.23719
G1 F1500 E10.23719
G0 F3600 X56.407 Y108.449
G0 X56.494 Y105.198
G0 X56.809 Y101.953
G0 X57.35 Y98.735
G0 X58.117 Y95.568
G0 X59.103 Y92.458
G0 X60.075 Y90.003
G0 X61.341 Y87.236
G0 X96.638 Y104.956
G1 F1500 E12.23719
G1 F3000 X97.064 Y111.903 E12.49762
G1 X103.297 Y115.008 E12.75818
G1 X109.103 Y111.162 E13.01877
G1 X108.676 Y104.214 E13.27924
G1 X102.444 Y101.109 E13.53976
G1 X96.638 Y104.956 E13.80037
G0 F3600 X97.871 Y105.097
;TYPE:SUPPORT
G1 F3000 X97.892 Y105.42 E13.81248
G1 X97.788 Y106.173 E13.84093
G1 X97.553 Y106.804 E13.86612
G0 F3600 X102.166 Y102.252
G1 F3000 X103.024 Y103.161 E13.91289
G1 X103.532 Y103.914 E13.94688
G1 X103.812 Y104.667 E13.97694
G1 X103.916 Y105.42 E14.00538
G1 X103.868 Y106.173 E14.03362
G1 X103.648 Y106.926 E14.06297
G1 X103.197 Y107.679 E14.09581
G1 X102.509 Y108.432 E14.13398
G1 X101.793 Y109.185 E14.17286
G1 X101.285 Y109.938 E14.20684
G1 X101.005 Y110.691 E14.2369
G1 X100.901 Y111.444 E14.26535
G1 X100.949 Y112.197 E14.29358
G1 X101.169 Y112.95 E14.32293
G1 X101.258 Y113.098 E14.3294
G0 F3600 X106.951 Y111.629
G1 F3000 X106.925 Y111.444 E14.33639
G1 X106.973 Y110.691 E14.36462
G1 X107.193 Y109.938 E14.39397
G1 X107.644 Y109.185 E14.42681
G1 X108.145 Y108.636 E14.45462
G1 F1500 E12.45462
;MESH:9cm Bottom Wall.3mf
G0 F3600 X109.837 Y111.529
G0 X108.854 Y112.42
G1 F1500 E14.45462
G0 F3600 X108.684 Y112.162
;TYPE:WALL-OUTER
G1 F3000 X103.472 Y115.614 E14.68854
G1 X103.276 Y115.652 E14.69601
G1 X102.101 Y115.084 E14.74484
G1 X96.612 Y112.348 E14.97433
G1 X96.49 Y112.191 E14.98177
G1 X96.448 Y111.658 E15.00178
G1 X96.029 Y104.795 E15.25905
G1 X96.096 Y104.609 E15.26645
G1 X96.673 Y104.21 E15.2927
G1 X102.275 Y100.499 E15.54413
G1 X102.288 Y100.492 E15.54468
G1 X102.486 Y100.469 E15.55214
G1 X103.233 Y100.83 E15.58319
G1 X109.122 Y103.766 E15.82941
G1 X109.248 Y103.919 E15.83682
G1 X109.32 Y104.912 E15.87408
G1 X109.712 Y111.314 E16.11407
G1 X109.65 Y111.503 E16.12151
G1 X108.684 Y112.162 E16.16527
G0 F3600 X108.518 Y112.272
G0 X109.016 Y112.662
;TYPE:WALL-INNER
G1 F3000 X103.811 Y116.11 E16.39889
G1 X103.494 Y116.239 E16.41169
G1 X103.147 Y116.239 E16.42468
G1 X102.651 Y116.028 E16.44484
G1 X96.36 Y112.895 E16.70781
G1 X96.092 Y112.682 E16.72062
G1 X95.921 Y112.381 E16.73358
G1 X95.849 Y111.694 E16.75942
G1 X95.429 Y104.833 E17.01663
G1 X95.482 Y104.494 E17.02947
G1 X95.659 Y104.197 E17.0424
G1 X96.341 Y103.71 E17.07376
G1 X101.948 Y99.996 E17.32541
G1 X102.023 Y99.954 E17.32863
G1 X102.373 Y99.863 E17.34216
G1 X102.698 Y99.905 E17.35442
G1 X103.501 Y100.293 E17.38779
G1 X109.398 Y103.232 E17.63433
G1 X109.662 Y103.452 E17.64719
G1 X109.826 Y103.756 E17.66011
G1 X109.919 Y104.876 E17.70216
G1 X110.312 Y111.306 E17.94321
G1 X110.252 Y111.644 E17.95605
G1 X110.067 Y111.937 E17.96902
G1 X109.016 Y112.662 E18.01679
G0 F3600 X102.076 Y153.243
G0 X102.065 Y153.552
;TYPE:WALL-OUTER
G1 F3000 X103.659 Y153.552 E18.07644
G1 X105.257 Y153.495 E18.13627
G1 X106.847 Y153.384 E18.19591
G1 X108.437 Y153.217 E18.25573
G1 X110.019 Y152.993 E18.31551
G1 X111.591 Y152.714 E18.37525
G1 X113.153 Y152.379 E18.43503
G1 X114.704 Y151.992 E18.49484
G1 X116.225 Y151.553 E18.55408
G1 X117.756 Y151.055 E18.61432
G1 X119.255 Y150.505 E18.67407
G1 X120.734 Y149.905 E18.73379
G1 X122.192 Y149.251 E18.79358
G1 X123.626 Y148.546 E18.85337
G1 X125.036 Y147.793 E18.91318
G1 X126.415 Y146.994 E18.97282
G1 X127.767 Y146.141 E19.03263
G1 X129.09 Y145.244 E19.09244
G1 X130.377 Y144.302 E19.15212
G1 X131.632 Y143.315 E19.21186
G1 X132.851 Y142.283 E19.27162
G1 X134.033 Y141.21 E19.33136
G1 X135.179 Y140.094 E19.39121
G1 X136.283 Y138.941 E19.45094
G1 X137.345 Y137.751 E19.51062
G1 X138.366 Y136.521 E19.57043
G1 X139.344 Y135.258 E19.6302
G1 X140.277 Y133.962 E19.68996
G1 X141.163 Y132.632 E19.74975
G1 X142.002 Y131.274 E19.80948
G1 X142.79 Y129.887 E19.86917
G1 X143.533 Y128.472 E19.92897
G1 X144.225 Y127.031 E19.98879
G1 X144.865 Y125.569 E20.0485
G1 X145.455 Y124.084 E20.10829
G1 X145.996 Y122.567 E20.16856
G1 X146.472 Y121.058 E20.22776
G1 X146.901 Y119.519 E20.28754
G1 X147.278 Y117.965 E20.34738
G1 X147.599 Y116.405 E20.40697
G1 X147.864 Y114.83 E20.46673
G1 X148.073 Y113.245 E20.52655
G1 X148.227 Y111.657 E20.58625
G1 X148.326 Y110.063 E20.64601
G1 X148.368 Y108.466 E20.70579
G1 X148.358 Y107.202 E20.75308
G1 X148.34 Y106.54 E20.77786
G1 X148.284 Y105.274 E20.82528
G1 X148.158 Y103.681 E20.88507
G1 X147.977 Y102.096 E20.94477
G1 X147.74 Y100.516 E21.00455
G1 X147.447 Y98.945 E21.06434
G1 X147.099 Y97.387 E21.12408
G1 X146.697 Y95.841 E21.18385
G1 X146.245 Y94.324 E21.24308
G1 X145.734 Y92.796 E21.30336
G1 X145.172 Y91.302 E21.36309
G1 X144.558 Y89.827 E21.42287
G1 X143.892 Y88.376 E21.48261
G1 X143.175 Y86.948 E21.5424
G1 X142.41 Y85.546 E21.60216
G1 X141.597 Y84.174 E21.66183
G1 X140.734 Y82.827 E21.72169
G1 X139.825 Y81.515 E21.78142
G1 X138.872 Y80.235 E21.84113
G1 X137.873 Y78.989 E21.90089
G1 X136.83 Y77.779 E21.96066
G1 X135.746 Y76.607 E22.02039
G1 X134.857 Y75.71 E22.06765
G1 X134.378 Y75.241 E22.09273
G1 X133.459 Y74.376 E22.13996
G1 X132.259 Y73.325 E22.19964
G1 X131.02 Y72.314 E22.25948
G1 X129.748 Y71.349 E22.31922
G1 X128.444 Y70.427 E22.37898
G1 X127.396 Y69.742 E22.42583
G1 X126.81 Y69.372 E22.45176
G1 X125.743 Y68.727 E22.49841
G1 X124.347 Y67.948 E22.55823
G1 X122.925 Y67.218 E22.61804
G1 X121.48 Y66.539 E22.67778
G1 X120.011 Y65.911 E22.73756
G1 X118.521 Y65.335 E22.79733
G1 X117.015 Y64.814 E22.85696
G1 X115.488 Y64.345 E22.91673
G1 X113.945 Y63.929 E22.97653
G1 X112.39 Y63.567 E23.03627
G1 X110.823 Y63.259 E23.09602
G1 X109.247 Y63.009 E23.15573
G1 X107.66 Y62.813 E23.21556
G1 X106.07 Y62.672 E23.27529
G1 X104.475 Y62.587 E23.33506
G1 X102.88 Y62.56 E23.39475
G1 X101.756 Y62.578 E23.43681
G1 X100.948 Y62.605 E23.46706
G1 X99.69 Y62.672 E23.5142
G1 X98.424 Y62.782 E23.56175
G1 X97.773 Y62.851 E23.58624
G1 X96.512 Y63.007 E23.63378
G1 X94.936 Y63.257 E23.69349
G1 X93.368 Y63.565 E23.75328
G1 X91.811 Y63.925 E23.81308
G1 X90.281 Y64.336 E23.87236
G1 X89.074 Y64.705 E23.91959
G1 X88.417 Y64.921 E23.94546
G1 X87.233 Y65.331 E23.99235
G1 X85.743 Y65.906 E24.05211
G1 X84.275 Y66.533 E24.11184
G1 X82.829 Y67.212 E24.17161
G1 X81.406 Y67.942 E24.23145
G1 X80.013 Y68.717 E24.2911
G1 X78.646 Y69.544 E24.35088
G1 X77.31 Y70.419 E24.41064
G1 X76.005 Y71.34 E24.4704
G1 X74.731 Y72.305 E24.53021
G1 X73.493 Y73.315 E24.58999
G1 X72.294 Y74.367 E24.64967
G1 X71.13 Y75.462 E24.70947
G1 X70.004 Y76.596 E24.76927
G1 X68.921 Y77.766 E24.82892
G1 X67.879 Y78.977 E24.8887
G1 X66.88 Y80.224 E24.94849
G1 X65.925 Y81.503 E25.00821
G1 X65.014 Y82.816 E25.06801
G1 X64.152 Y84.162 E25.12782
G1 X63.339 Y85.532 E25.18743
G1 X62.572 Y86.935 E25.24725
G1 X61.855 Y88.363 E25.30704
G1 X61.189 Y89.814 E25.36678
G1 X60.573 Y91.288 E25.42656
G1 X60.006 Y92.796 E25.48684
G1 X59.504 Y94.296 E25.54603
G1 X59.048 Y95.827 E25.6058
G1 X58.645 Y97.373 E25.66558
G1 X58.295 Y98.93 E25.7253
G1 X58.002 Y100.501 E25.78509
G1 X57.766 Y102.081 E25.84487
G1 X57.584 Y103.665 E25.90453
G1 X57.485 Y104.914 E25.95141
G1 X57.442 Y105.599 E25.97709
G1 X57.386 Y106.853 E26.02406
G1 X57.373 Y108.449 E26.08378
G1 X57.404 Y109.701 E26.13064
G1 X57.435 Y110.389 E26.15641
G1 X57.513 Y111.638 E26.20324
G1 X57.666 Y113.228 E26.263
G1 X57.875 Y114.813 E26.32283
G1 X58.14 Y116.385 E26.38248
G1 X58.461 Y117.951 E26.44229
G1 X58.835 Y119.506 E26.50213
G1 X59.259 Y121.03 E26.56132
G1 X59.745 Y122.566 E26.62161
G1 X60.282 Y124.071 E26.6814
G1 X60.869 Y125.555 E26.74111
G1 X61.51 Y127.018 E26.80088
G1 X62.201 Y128.459 E26.86067
G1 X62.941 Y129.872 E26.92036
G1 X63.731 Y131.26 E26.98012
G1 X64.57 Y132.62 E27.03991
G1 X65.454 Y133.949 E27.09963
G1 X66.387 Y135.246 E27.15942
G1 X67.363 Y136.51 E27.21917
G1 X68.384 Y137.738 E27.27893
G1 X69.448 Y138.93 E27.33871
G1 X70.553 Y140.084 E27.3985
G1 X71.695 Y141.198 E27.45819
G1 X72.877 Y142.272 E27.51795
G1 X74.096 Y143.303 E27.57769
G1 X75.352 Y144.293 E27.63753
G1 X76.641 Y145.236 E27.69729
G1 X77.961 Y146.134 E27.75702
G1 X79.312 Y146.984 E27.81675
G1 X80.693 Y147.785 E27.87649
G1 X82.101 Y148.541 E27.93628
G1 X83.535 Y149.245 E27.99606
G1 X84.991 Y149.899 E28.05578
G1 X86.472 Y150.501 E28.1156
G1 X87.985 Y151.056 E28.1759
G1 X89.488 Y151.545 E28.23504
G1 X90.706 Y151.895 E28.28246
G1 X91.346 Y152.069 E28.30728
G1 X92.574 Y152.377 E28.35465
G1 X94.133 Y152.712 E28.41432
G1 X95.707 Y152.991 E28.47413
G1 X97.289 Y153.215 E28.53391
G1 X98.873 Y153.383 E28.59352
G1 X100.139 Y153.471 E28.641
G1 X100.797 Y153.506 E28.66566
G1 X102.065 Y153.552 E28.71313
G0 F3600 X102.265 Y153.552
G0 X102.265 Y153.242
G0 X97.363 Y152.619
;TYPE:WALL-INNER
G1 F3000 X98.926 Y152.785 E28.77195
G1 X100.499 Y152.896 E28.83095
G1 X101.749 Y152.939 E28.87775
G1 X102.4 Y152.952 E28.90211
G1 X103.649 Y152.952 E28.94885
G1 X105.225 Y152.896 E29.00786
G1 X106.795 Y152.786 E29.06675
G1 X108.364 Y152.621 E29.12578
G1 X109.925 Y152.401 E29.18476
G1 X111.475 Y152.125 E29.24367
G1 X113.017 Y151.795 E29.30268
G1 X114.548 Y151.412 E29.36173
G1 X116.049 Y150.979 E29.42018
G1 X117.56 Y150.488 E29.47963
G1 X119.039 Y149.945 E29.53858
G1 X120.498 Y149.353 E29.5975
G1 X121.937 Y148.708 E29.65651
G1 X123.352 Y148.012 E29.71551
G1 X124.744 Y147.269 E29.77455
G1 X126.105 Y146.48 E29.83341
