;FLAVOR:Marlin
;TIME:9301
;Filament used: 8.10528m
;Layer height: 0.23
;MINX:62.978
;MINY:62.979
;MINZ:0.1
;MAXX:157.023
;MAXY:157.021
;MAXZ:55.99
;Generated with Cura_SteamEngine 4.12.1
M140 S60
M105
M190 S60
M104 S210
M105
M109 S210
M82 ;absolute extrusion mode
G21 ;metric values
G90 ;absolute positioning
M82 ;set extruder to absolute mode
M107 ;start with the fan off
M206 X11 Y14;set home offsets
G28 X0 Y0 ;move X/Y to min endstops
G28 Z0 ;move Z to min endstops
G1 Z15.0 F9000 ;move the platform down 15mm
G92 E0 ;zero the extruded length
G1 F200 E3 ;extrude 3mm of feed stock
G92 E0 ;zero the extruded length again
G1 F9000

M301 D121.72 I2.14 P32.30

;Set max printing acceleration
M201 X200 Y200
;Set max travel acceleration
M202 X500 Y500
;Set max jerk
M556 X10 Y10
;Set max feedrate
M203 X1000 Y1000


;Put printing message on LCD screen
M117 Printing...
G92 E0
G92 E0
G1 F1500 E-1
;LAYER_COUNT:244
;LAYER:0
M107
M204 S5000
M205 X30 Y30
G0 F1440 X76.594 Y76.901 Z0.1
M204 S100
M205 X10 Y10
;TYPE:SKIRT
G1 F1500 E0
G1 F1200 X77.824 Y75.705 E0.11555
G1 X79.019 Y74.618 E0.22435
G1 X80.306 Y73.533 E0.33773
G1 X81.61 Y72.51 E0.44935
G1 X82.887 Y71.575 E0.55595
G1 X84.312 Y70.61 E0.67186
G1 X85.71 Y69.731 E0.78309
G1 X87.108 Y68.918 E0.89201
G1 X87.149 Y68.899 E0.89505
G1 X88.552 Y68.147 E1.00227
G1 X90.037 Y67.418 E1.11369
G1 X91.57 Y66.734 E1.22675
G1 X93.049 Y66.132 E1.3343
G1 X94.663 Y65.543 E1.45001
G1 X96.238 Y65.031 E1.56156
G1 X97.814 Y64.578 E1.672
G1 X99.381 Y64.187 E1.78078
G1 X101.031 Y63.836 E1.89439
G1 X102.662 Y63.549 E2.00593
G1 X104.281 Y63.321 E2.11605
G1 X105.907 Y63.15 E2.22617
G1 X107.583 Y63.035 E2.33932
G1 X109.239 Y62.979 E2.45091
G1 X110.88 Y62.981 E2.56144
G1 X112.536 Y63.04 E2.67304
G1 X114.134 Y63.154 E2.78095
G1 X115.827 Y63.335 E2.89562
G1 X117.443 Y63.565 E3.00556
G1 X119.083 Y63.858 E3.11777
G1 X120.663 Y64.197 E3.2266
G1 X122.292 Y64.606 E3.33972
G1 X123.882 Y65.067 E3.45122
G1 X125.439 Y65.579 E3.56162
G1 X127.001 Y66.153 E3.6737
G1 X128.495 Y66.762 E3.78236
G1 X129.978 Y67.428 E3.89185
G1 X130.021 Y67.446 E3.89499
G1 X131.515 Y68.182 E4.00716
G1 X132.962 Y68.958 E4.11775
G1 X134.389 Y69.791 E4.22904
G1 X135.751 Y70.65 E4.33749
G1 X137.155 Y71.605 E4.45186
G1 X138.477 Y72.575 E4.56229
G1 X139.778 Y73.6 E4.67385
G1 X141.002 Y74.639 E4.78198
G1 X141.037 Y74.668 E4.78504
G1 X142.256 Y75.778 E4.89608
G1 X143.437 Y76.931 E5.00725
G1 X144.569 Y78.117 E5.11767
G1 X145.647 Y79.325 E5.22672
G1 X146.722 Y80.625 E5.34033
G1 X147.73 Y81.93 E5.45139
G1 X148.701 Y83.285 E5.56367
G1 X149.61 Y84.651 E5.67418
G1 X150.431 Y85.984 E5.77962
G1 X150.456 Y86.024 E5.7828
G1 X151.279 Y87.468 E5.89474
G1 X152.054 Y88.955 E6.00768
G1 X152.757 Y90.422 E6.11724
G1 X153.425 Y91.957 E6.22999
G1 X154.035 Y93.499 E6.34168
G1 X154.585 Y95.048 E6.45239
G1 X155.083 Y96.629 E6.56403
G1 X155.509 Y98.153 E6.67061
G1 X155.911 Y99.824 E6.78637
G1 X156.239 Y101.432 E6.8969
G1 X156.509 Y103.057 E7.00784
G1 X156.721 Y104.658 E7.11662
G1 X156.881 Y106.349 E7.23102
G1 X156.982 Y107.993 E7.34195
G1 X157.023 Y109.639 E7.45285
G1 X157.007 Y111.289 E7.56398
G1 X156.931 Y112.946 E7.6757
G1 X156.801 Y114.578 E7.78597
G1 X156.611 Y116.225 E7.89763
G1 X156.371 Y117.812 E8.00574
G1 X156.058 Y119.477 E8.11984
G1 X155.698 Y121.09 E8.23115
G1 X155.28 Y122.686 E8.34227
G1 X154.806 Y124.27 E8.45363
G1 X154.291 Y125.799 E8.5623
G1 X153.691 Y127.38 E8.67619
G1 X153.073 Y128.868 E8.78471
G1 X152.387 Y130.362 E8.89543
G1 X151.627 Y131.873 E9.00935
G1 X150.833 Y133.319 E9.12046
G1 X149.988 Y134.74 E9.23181
G1 X149.145 Y136.053 E9.3369
G1 X149.12 Y136.094 E9.34013
G1 X148.154 Y137.486 E9.45425
G1 X147.22 Y138.738 E9.55945
G1 X146.139 Y140.084 E9.67572
G1 X145.063 Y141.331 E9.78666
G1 X143.933 Y142.551 E9.89866
G1 X142.766 Y143.725 E10.01015
G1 X141.563 Y144.854 E10.12126
G1 X140.319 Y145.941 E10.23253
G1 X139.074 Y146.957 E10.34076
G1 X137.726 Y147.978 E10.45465
G1 X136.371 Y148.931 E10.56623
G1 X135.043 Y149.796 E10.67297
G1 X135.005 Y149.822 E10.67607
G1 X133.572 Y150.685 E10.78874
G1 X132.163 Y151.471 E10.8974
G1 X130.67 Y152.234 E11.01033
G1 X129.161 Y152.94 E11.12254
G1 X127.653 Y153.582 E11.23292
G1 X126.155 Y154.16 E11.34107
G1 X124.551 Y154.713 E11.45534
G1 X123.004 Y155.189 E11.56435
G1 X121.387 Y155.621 E11.67708
G1 X119.767 Y155.994 E11.78905
G1 X118.151 Y156.309 E11.89994
G1 X116.547 Y156.564 E12.00932
G1 X114.887 Y156.767 E12.12196
G1 X113.253 Y156.908 E12.23242
G1 X111.622 Y156.993 E12.34242
G1 X109.94 Y157.021 E12.45572
G1 X108.296 Y156.989 E12.56647
G1 X106.636 Y156.901 E12.67843
G1 X105.04 Y156.76 E12.78634
G1 X103.4 Y156.556 E12.89765
G1 X101.727 Y156.287 E13.01178
G1 X100.117 Y155.971 E13.12228
G1 X98.486 Y155.591 E13.23508
G1 X96.951 Y155.175 E13.34219
G1 X95.341 Y154.677 E13.4557
G1 X93.775 Y154.133 E13.56735
G1 X92.245 Y153.541 E13.67785
G1 X90.721 Y152.887 E13.78954
G1 X89.22 Y152.18 E13.90129
G1 X87.752 Y151.424 E14.0125
G1 X86.345 Y150.638 E14.12105
G1 X84.95 Y149.79 E14.231
G1 X84.906 Y149.766 E14.23438
G1 X83.529 Y148.862 E14.34532
G1 X82.176 Y147.905 E14.45694
G1 X80.864 Y146.908 E14.56793
G1 X79.605 Y145.878 E14.67748
G1 X78.35 Y144.774 E14.79006
G1 X77.164 Y143.659 E14.8997
G1 X75.988 Y142.469 E15.01238
G1 X74.895 Y141.285 E15.12091
G1 X73.785 Y139.992 E15.23568
G1 X72.759 Y138.707 E15.34643
G1 X71.777 Y137.388 E15.45719
G1 X70.857 Y136.057 E15.56616
G1 X69.95 Y134.64 E15.67948
G1 X69.128 Y133.251 E15.78818
G1 X68.322 Y131.771 E15.90169
G1 X67.583 Y130.295 E16.01286
G1 X66.895 Y128.79 E16.12432
G1 X66.263 Y127.27 E16.23519
G1 X65.695 Y125.758 E16.34397
G1 X65.17 Y124.192 E16.45521
G1 X64.688 Y122.567 E16.56937
G1 X64.276 Y120.975 E16.68013
G1 X63.925 Y119.398 E16.78894
G1 X63.618 Y117.738 E16.90264
G1 X63.374 Y116.106 E17.01378
G1 X63.187 Y114.464 E17.12509
G1 X63.064 Y112.871 E17.2327
G1 X62.991 Y111.169 E17.34744
G1 X62.978 Y109.53 E17.45783
G1 X63.023 Y107.881 E17.56894
G1 X63.127 Y106.228 E17.68049
G1 X63.285 Y104.617 E17.78951
G1 X63.508 Y102.946 E17.90306
G1 X63.784 Y101.312 E18.01467
G1 X64.115 Y99.708 E18.12498
G1 X64.484 Y98.177 E18.23104
G1 X64.951 Y96.51 E18.34764
G1 X65.449 Y94.947 E18.45813
G1 X66.008 Y93.383 E18.56999
G1 X66.612 Y91.863 E18.68015
G1 X67.274 Y90.354 E18.79114
G1 X67.979 Y88.888 E18.9007
G1 X68.763 Y87.397 E19.01416
G1 X69.585 Y85.958 E19.12577
G1 X70.451 Y84.559 E19.23659
G1 X71.368 Y83.185 E19.34785
G1 X72.331 Y81.849 E19.45877
G1 X73.35 Y80.535 E19.57076
G1 X74.402 Y79.27 E19.68158
G1 X75.495 Y78.049 E19.79195
G1 X76.594 Y76.901 E19.89899
M204 S5000
M205 X30 Y30
G0 F1440 X76.936 Y77.195
M204 S100
M205 X10 Y10
G1 F1200 X78.127 Y76.038 E20.01082
G1 X79.31 Y74.962 E20.11853
G1 X80.584 Y73.887 E20.2308
G1 X81.876 Y72.873 E20.34142
G1 X83.173 Y71.924 E20.44966
G1 X84.552 Y70.991 E20.5618
G1 X85.937 Y70.12 E20.67199
G1 X87.335 Y69.307 E20.78091
G1 X87.362 Y69.295 E20.7829
G1 X88.751 Y68.551 E20.88903
G1 X90.258 Y67.812 E21.00208
G1 X91.739 Y67.151 E21.11131
G1 X93.203 Y66.555 E21.21777
G1 X94.802 Y65.971 E21.33242
G1 X96.363 Y65.463 E21.44299
G1 X97.923 Y65.014 E21.55232
G1 X99.475 Y64.627 E21.66005
G1 X101.11 Y64.279 E21.77264
G1 X102.725 Y63.995 E21.88308
G1 X104.329 Y63.769 E21.99218
G1 X105.938 Y63.599 E22.10115
G1 X107.598 Y63.484 E22.21322
G1 X109.238 Y63.429 E22.32374
G1 X110.864 Y63.43 E22.43326
G1 X112.504 Y63.489 E22.54379
G1 X114.086 Y63.602 E22.65061
G1 X115.764 Y63.781 E22.76426
G1 X117.364 Y64.008 E22.87311
G1 X118.989 Y64.298 E22.98428
G1 X120.554 Y64.633 E23.09208
G1 X122.167 Y65.038 E23.20409
G1 X123.742 Y65.495 E23.31454
G1 X125.284 Y66.001 E23.42385
G1 X126.831 Y66.57 E23.53486
G1 X128.311 Y67.172 E23.64247
G1 X129.794 Y67.838 E23.75197
G1 X129.822 Y67.849 E23.75399
G1 X131.303 Y68.579 E23.8652
G1 X132.735 Y69.347 E23.97464
G1 X134.149 Y70.172 E24.0849
G1 X135.53 Y71.044 E24.19491
G1 X136.889 Y71.968 E24.30559
G1 X138.199 Y72.929 E24.41502
G1 X139.487 Y73.943 E24.52542
G1 X140.711 Y74.982 E24.63356
G1 X141.924 Y76.084 E24.74394
G1 X143.111 Y77.242 E24.85562
G1 X144.233 Y78.417 E24.96505
G1 X145.3 Y79.612 E25.07295
G1 X146.366 Y80.9 E25.18555
G1 X147.365 Y82.192 E25.29555
G1 X148.327 Y83.535 E25.40682
G1 X149.227 Y84.887 E25.51621
G1 X150.065 Y86.247 E25.6238
G1 X150.888 Y87.691 E25.73574
G1 X151.649 Y89.15 E25.84657
G1 X152.345 Y90.602 E25.95502
G1 X153.007 Y92.122 E26.06668
G1 X153.611 Y93.65 E26.17735
G1 X154.156 Y95.184 E26.28699
G1 X154.65 Y96.75 E26.39759
G1 X155.071 Y98.259 E26.5031
G1 X155.47 Y99.914 E26.61776
G1 X155.795 Y101.506 E26.7272
G1 X156.063 Y103.116 E26.83713
G1 X156.273 Y104.7 E26.94474
G1 X156.432 Y106.376 E27.05813
G1 X156.532 Y108.005 E27.16806
G1 X156.573 Y109.635 E27.27787
G1 X156.557 Y111.268 E27.38786
G1 X156.483 Y112.911 E27.49864
G1 X156.354 Y114.527 E27.60782
G1 X156.166 Y116.158 E27.7184
G1 X155.926 Y117.745 E27.8265
G1 X155.623 Y119.357 E27.93698
G1 X155.269 Y120.952 E28.04702
G1 X154.849 Y122.557 E28.15876
G1 X154.38 Y124.126 E28.26905
G1 X153.87 Y125.639 E28.37659
G1 X153.275 Y127.207 E28.48954
G1 X152.647 Y128.718 E28.59975
G1 X151.978 Y130.175 E28.70773
G1 X151.962 Y130.202 E28.70985
G1 X151.232 Y131.656 E28.81943
G1 X150.446 Y133.089 E28.92951
G1 X149.609 Y134.497 E29.03983
G1 X148.765 Y135.809 E29.1449
G1 X148.75 Y135.838 E29.1471
G1 X147.793 Y137.217 E29.26015
G1 X146.844 Y138.488 E29.36698
G1 X145.798 Y139.79 E29.47947
G1 X144.732 Y141.025 E29.58935
G1 X143.614 Y142.234 E29.70026
G1 X142.458 Y143.397 E29.8107
G1 X141.267 Y144.515 E29.92072
G1 X140.035 Y145.592 E30.03093
G1 X138.79 Y146.608 E30.13916
G1 X138.765 Y146.624 E30.14116
G1 X137.467 Y147.61 E30.25095
G1 X136.125 Y148.554 E30.36146
G1 X134.797 Y149.419 E30.4682
G1 X134.772 Y149.437 E30.47028
G1 X133.353 Y150.292 E30.58186
G1 X131.958 Y151.07 E30.68944
G1 X130.479 Y151.826 E30.80131
G1 X128.985 Y152.526 E30.91243
G1 X127.491 Y153.162 E31.02179
G1 X125.97 Y153.748 E31.13157
G1 X124.419 Y154.283 E31.24208
G1 X122.888 Y154.754 E31.34996
G1 X121.286 Y155.183 E31.46166
G1 X119.681 Y155.553 E31.57259
G1 X118.08 Y155.865 E31.68245
G1 X116.492 Y156.117 E31.79075
G1 X114.848 Y156.318 E31.9023
G1 X113.229 Y156.459 E32.01175
G1 X111.615 Y156.543 E32.12061
G1 X109.948 Y156.571 E32.2329
G1 X108.32 Y156.54 E32.34256
G1 X106.676 Y156.452 E32.45345
G1 X105.056 Y156.309 E32.56298
G1 X103.471 Y156.111 E32.67057
G1 X101.813 Y155.845 E32.78366
G1 X100.219 Y155.532 E32.89307
G1 X98.604 Y155.157 E33.00474
G1 X97.084 Y154.745 E33.11081
G1 X95.489 Y154.252 E33.22325
G1 X93.937 Y153.713 E33.3339
G1 X92.422 Y153.127 E33.44331
G1 X90.913 Y152.48 E33.55389
G1 X89.426 Y151.78 E33.66458
G1 X87.971 Y151.031 E33.7748
G1 X86.578 Y150.254 E33.88223
G1 X85.184 Y149.405 E33.99216
G1 X85.153 Y149.389 E33.99451
G1 X83.789 Y148.494 E34.10439
G1 X82.448 Y147.547 E34.21496
G1 X81.149 Y146.56 E34.32484
G1 X79.902 Y145.54 E34.43335
G1 X78.658 Y144.446 E34.54492
G1 X77.484 Y143.343 E34.65342
G1 X76.319 Y142.164 E34.76505
G1 X75.226 Y140.98 E34.87358
G1 X74.137 Y139.711 E34.98621
G1 X73.12 Y138.438 E35.09595
G1 X72.147 Y137.132 E35.20564
G1 X71.236 Y135.814 E35.31355
G1 X70.337 Y134.41 E35.42583
G1 X69.523 Y133.036 E35.5334
G1 X68.725 Y131.57 E35.64581
G1 X67.992 Y130.108 E35.75597
G1 X67.311 Y128.617 E35.86637
G1 X66.684 Y127.111 E35.97624
G1 X66.122 Y125.615 E36.08387
G1 X65.59 Y124.026 E36.19673
G1 X65.124 Y122.454 E36.30716
G1 X64.715 Y120.877 E36.41689
G1 X64.367 Y119.316 E36.52461
G1 X64.063 Y117.671 E36.63728
G1 X63.821 Y116.055 E36.74733
G1 X63.636 Y114.429 E36.85755
G1 X63.514 Y112.851 E36.96415
G1 X63.441 Y111.165 E37.07781
G1 X63.428 Y109.542 E37.18713
G1 X63.472 Y107.909 E37.29715
G1 X63.575 Y106.272 E37.40763
G1 X63.731 Y104.676 E37.51563
G1 X63.951 Y103.021 E37.62808
G1 X64.225 Y101.403 E37.73861
G1 X64.553 Y99.814 E37.84788
G1 X64.928 Y98.259 E37.95562
G1 X65.38 Y96.646 E38.06844
G1 X65.872 Y95.099 E38.17778
G1 X66.427 Y93.549 E38.28866
G1 X67.025 Y92.043 E38.3978
G1 X67.68 Y90.549 E38.50767
G1 X68.377 Y89.097 E38.61615
G1 X69.154 Y87.62 E38.72855
G1 X69.968 Y86.195 E38.83908
G1 X70.825 Y84.808 E38.94889
G1 X71.733 Y83.448 E39.05903
G1 X72.687 Y82.125 E39.16889
G1 X73.696 Y80.823 E39.27983
G1 X74.737 Y79.57 E39.38954
G1 X75.82 Y78.36 E39.49892
G1 X76.936 Y77.195 E39.60757
M204 S5000
M205 X30 Y30
G0 F1440 X77.25 Y77.518
M204 S100
M205 X10 Y10
G1 F1200 X78.43 Y76.371 E39.71841
G1 X79.6 Y75.306 E39.82497
G1 X80.862 Y74.241 E39.93619
G1 X82.142 Y73.236 E40.04579
G1 X83.426 Y72.297 E40.15293
G1 X84.791 Y71.372 E40.26399
G1 X86.163 Y70.509 E40.37316
G1 X87.561 Y69.696 E40.48208
G1 X87.579 Y69.69 E40.48336
G1 X88.949 Y68.955 E40.58807
G1 X90.441 Y68.223 E40.7
G1 X91.909 Y67.568 E40.80827
G1 X93.358 Y66.978 E40.91364
G1 X94.941 Y66.399 E41.02717
G1 X96.488 Y65.896 E41.13673
G1 X98.032 Y65.451 E41.24495
G1 X99.568 Y65.067 E41.35159
G1 X101.188 Y64.722 E41.46314
G1 X102.788 Y64.44 E41.57257
G1 X104.376 Y64.216 E41.68058
G1 X105.969 Y64.048 E41.78847
G1 X107.613 Y63.934 E41.89946
G1 X109.238 Y63.879 E42.00897
G1 X110.848 Y63.88 E42.11741
G1 X112.472 Y63.938 E42.22686
G1 X114.039 Y64.049 E42.33266
G1 X115.701 Y64.226 E42.44523
G1 X117.285 Y64.451 E42.55299
G1 X118.895 Y64.738 E42.66313
G1 X120.445 Y65.07 E42.7699
G1 X122.042 Y65.47 E42.88078
G1 X123.601 Y65.922 E42.99011
G1 X125.129 Y66.424 E43.09843
G1 X126.662 Y66.987 E43.20842
G1 X128.126 Y67.583 E43.31488
G1 X129.606 Y68.248 E43.42417
G1 X129.623 Y68.253 E43.42536
G1 X131.09 Y68.976 E43.53551
G1 X132.508 Y69.736 E43.64387
G1 X133.909 Y70.553 E43.7531
G1 X135.277 Y71.416 E43.86204
G1 X136.623 Y72.331 E43.97166
G1 X137.92 Y73.282 E44.07998
G1 X139.196 Y74.286 E44.18934
G1 X140.431 Y75.334 E44.29843
G1 X141.627 Y76.422 E44.40732
G1 X142.786 Y77.553 E44.51639
G1 X143.898 Y78.717 E44.62482
G1 X144.953 Y79.899 E44.73152
G1 X146.01 Y81.175 E44.84312
G1 X146.999 Y82.454 E44.95201
G1 X147.952 Y83.784 E45.06221
G1 X148.844 Y85.123 E45.17058
G1 X149.674 Y86.47 E45.27714
G1 X150.497 Y87.914 E45.38908
G1 X150.502 Y87.927 E45.39002
G1 X151.243 Y89.345 E45.49778
G1 X151.932 Y90.781 E45.60505
G1 X152.588 Y92.288 E45.71575
G1 X153.187 Y93.801 E45.82535
G1 X153.727 Y95.319 E45.93387
G1 X154.217 Y96.871 E46.04348
G1 X154.634 Y98.364 E46.14789
G1 X155.029 Y100.004 E46.2615
G1 X155.351 Y101.58 E46.36984
G1 X155.617 Y103.175 E46.47875
G1 X155.825 Y104.743 E46.58529
G1 X155.983 Y106.404 E46.69766
G1 X156.082 Y108.016 E46.80644
G1 X156.123 Y109.631 E46.91525
G1 X156.108 Y111.248 E47.02416
G1 X156.034 Y112.875 E47.13385
G1 X155.907 Y114.476 E47.24202
G1 X155.721 Y116.091 E47.35151
G1 X155.478 Y117.694 E47.46071
G1 X155.181 Y119.274 E47.56899
G1 X154.828 Y120.862 E47.67856
G1 X154.418 Y122.428 E47.78759
G1 X153.953 Y123.983 E47.8969
G1 X153.449 Y125.48 E48.00329
G1 X152.86 Y127.034 E48.11522
G1 X152.238 Y128.53 E48.22434
G1 X151.569 Y129.987 E48.33232
G1 X151.56 Y130 E48.33338
G1 X150.837 Y131.44 E48.44191
G1 X150.059 Y132.859 E48.5509
G1 X149.23 Y134.254 E48.6602
G1 X148.387 Y135.567 E48.76529
G1 X148.38 Y135.581 E48.76634
G1 X147.432 Y136.948 E48.87838
G1 X146.493 Y138.206 E48.98411
G1 X145.457 Y139.496 E49.09555
G1 X144.402 Y140.72 E49.20438
G1 X143.295 Y141.917 E49.31419
G1 X142.15 Y143.069 E49.42359
G1 X140.971 Y144.176 E49.53251
G1 X139.75 Y145.243 E49.64173
G1 X138.505 Y146.259 E49.74996
G1 X138.493 Y146.266 E49.75089
G1 X137.208 Y147.242 E49.85957
G1 X135.88 Y148.177 E49.96896
G1 X134.552 Y149.042 E50.07571
G1 X134.54 Y149.052 E50.07676
G1 X133.134 Y149.899 E50.18731
G1 X131.753 Y150.669 E50.2938
G1 X130.288 Y151.419 E50.40465
G1 X128.808 Y152.112 E50.51472
G1 X127.329 Y152.742 E50.62299
G1 X125.823 Y153.323 E50.73171
G1 X124.286 Y153.853 E50.84121
G1 X122.771 Y154.319 E50.94797
G1 X121.185 Y154.744 E51.05856
G1 X119.595 Y155.111 E51.16846
G1 X118.021 Y155.418 E51.27647
G1 X116.437 Y155.67 E51.3845
G1 X114.809 Y155.87 E51.49497
G1 X113.206 Y156.01 E51.60335
G1 X111.607 Y156.093 E51.71119
G1 X109.957 Y156.121 E51.82233
G1 X108.344 Y156.091 E51.93099
G1 X106.715 Y156.004 E52.04086
G1 X105.111 Y155.862 E52.14932
G1 X103.542 Y155.667 E52.25581
G1 X101.9 Y155.404 E52.36781
G1 X100.321 Y155.094 E52.47619
G1 X98.721 Y154.722 E52.58682
G1 X97.217 Y154.315 E52.69176
