;FLAVOR:Marlin
;TIME:1651
;Filament used: 4.83788m
;Layer height: 0.3
;MINX:62.21
;MINY:56.845
;MINZ:0.1
;MAXX:142.144
;MAXY:147.798
;MAXZ:49.67
;Generated with Cura_SteamEngine 5.0.0
M140 S60
M105
M190 S60
M104 S200
M105
M109 S200
M82 ;absolute extrusion mode
G21 ;metric values
G90 ;absolute positioning
M82 ;set extruder to absolute mode
M107 ;start with the fan off

M206 X5 Y9 ;set home offsets

G28 X0 Y0 ;move X/Y to min endstops
G28 Z0 ;move Z to min endstops
G1 Z15.0 F9000 ;move the platform down 15mm
G92 E0 ;zero the extruded length
G1 F200 E3 ;extrude 3mm of feed stock
G92 E0 ;zero the extruded length again
G1 F9000

M301 D121.72 I2.14 P32.30

;Set max printing acceleration
M201 X100 Y100
;Set max travel acceleration
M202 X300 Y300
;Set max jerk
M556 X10 Y10
;Set max feedrate
M203 X1000 Y1000


;Put printing message on LCD screen
M117 Printing...
G92 E0
G92 E0
G1 F1500 E-2
;LAYER_COUNT:145
;LAYER:0
M107
G1 F600 Z1.1
G0 F3600 X99.355 Y100.523 Z1.1
G0 X99.205 Y100.783
;TYPE:SKIRT
G1 F600 Z0.1
G1 F1500 E0
G1 F3000 X99.244 Y100.634 E0.00576
G1 X99.355 Y100.523 E0.01164
G1 X102.323 Y98.811 E0.13984
G1 X102.471 Y98.771 E0.14558
G1 X102.623 Y98.811 E0.15146
G1 X105.591 Y100.523 E0.27967
G1 X105.7 Y100.631 E0.28541
G1 X105.741 Y100.783 E0.2913
G1 X105.741 Y104.212 E0.4196
G1 X105.702 Y104.361 E0.42537
G1 X105.591 Y104.472 E0.43124
G1 X102.623 Y106.184 E0.55945
G1 X102.475 Y106.224 E0.56518
G1 X102.323 Y106.184 E0.57107
G1 X99.355 Y104.472 E0.69927
G1 X99.246 Y104.364 E0.70501
G1 X99.205 Y104.212 E0.7109
G1 X99.205 Y100.783 E0.83921
G1 F1500 E-1.16079
G1 F600 Z1.1
G0 F3600 X95.219 Y99.581 Z1.1
G1 F600 Z0.1
G1 F1500 E0.83921
G1 F3000 X62.952 Y80.951 E2.23336
G1 X62.843 Y80.842 E2.23912
G1 X62.802 Y80.694 E2.24487
G1 X62.842 Y80.541 E2.25079
G1 X63.642 Y79.155 E2.31067
G1 X63.75 Y79.046 E2.31641
G1 X63.899 Y79.005 E2.32219
G1 X64.052 Y79.045 E2.32811
G1 X96.346 Y97.69 E3.72341
G1 X96.68 Y97.82 E3.73682
G1 X97.038 Y97.846 E3.75025
G1 X97.392 Y97.766 E3.76383
G1 X97.556 Y97.689 E3.77061
G1 X100.769 Y95.831 E3.90949
G1 X101.055 Y95.603 E3.92317
G1 X101.252 Y95.309 E3.93642
G1 X101.359 Y94.962 E3.95
G1 X101.373 Y94.761 E3.95754
G1 X101.373 Y57.498 E5.35184
G1 X101.412 Y57.349 E5.3576
G1 X101.52 Y57.24 E5.36334
G1 X101.673 Y57.198 E5.36928
G1 X103.273 Y57.198 E5.42915
G1 X103.422 Y57.237 E5.43491
G1 X103.531 Y57.345 E5.44065
G1 X103.573 Y57.498 E5.44659
G1 X103.573 Y94.781 E6.84163
G1 X103.629 Y95.145 E6.85541
G1 X103.782 Y95.465 E6.86868
G1 X104.007 Y95.716 E6.88129
G1 X104.182 Y95.836 E6.88923
G1 X107.4 Y97.692 E7.02824
G1 X107.726 Y97.82 E7.04134
G1 X108.089 Y97.846 E7.05496
G1 X108.434 Y97.768 E7.06819
G1 X108.631 Y97.672 E7.07639
G1 X140.894 Y79.045 E8.47035
G1 X141.042 Y79.005 E8.47609
G1 X141.191 Y79.043 E8.48184
G1 X141.304 Y79.155 E8.4878
G1 X142.104 Y80.541 E8.54768
G1 X142.144 Y80.689 E8.55341
G1 X142.106 Y80.838 E8.55917
G1 X141.994 Y80.951 E8.56512
G1 X109.7 Y99.596 E9.96042
G1 X109.421 Y99.819 E9.97378
G1 X109.219 Y100.113 E9.98713
G1 X109.112 Y100.462 E10.00079
G1 X109.097 Y100.65 E10.00785
G1 X109.098 Y104.356 E10.14652
G1 X109.158 Y104.728 E10.16062
G1 X109.311 Y105.039 E10.17359
G1 X109.555 Y105.3 E10.18695
G1 X109.727 Y105.415 E10.1947
G1 X141.994 Y124.045 E11.58884
G1 X142.103 Y124.154 E11.59461
G1 X142.144 Y124.302 E11.60036
G1 X142.104 Y124.455 E11.60627
G1 X141.304 Y125.841 E11.66615
G1 X141.196 Y125.95 E11.6719
G1 X141.047 Y125.991 E11.67768
G1 X140.894 Y125.951 E11.68359
G1 X108.603 Y107.309 E13.07874
G1 X108.27 Y107.176 E13.09216
G1 X107.908 Y107.149 E13.10574
G1 X107.558 Y107.228 E13.11917
G1 X107.39 Y107.307 E13.12611
G1 X104.177 Y109.165 E13.26499
G1 X103.892 Y109.392 E13.27863
G1 X103.696 Y109.681 E13.29169
G1 X103.587 Y110.034 E13.30552
G1 X103.573 Y110.235 E13.31305
G1 X103.573 Y147.498 E14.70735
G1 X103.534 Y147.647 E14.71311
G1 X103.426 Y147.756 E14.71885
G1 X103.273 Y147.798 E14.72479
G1 X101.673 Y147.798 E14.78466
G1 X101.524 Y147.759 E14.79042
G1 X101.415 Y147.651 E14.79616
G1 X101.373 Y147.498 E14.8021
G1 X101.373 Y110.214 E16.19718
G1 X101.317 Y109.847 E16.21107
G1 X101.161 Y109.527 E16.22439
G1 X100.936 Y109.277 E16.23698
G1 X100.761 Y109.158 E16.24489
G1 X97.552 Y107.308 E16.38349
G1 X97.216 Y107.175 E16.39701
G1 X96.859 Y107.149 E16.41041
G1 X96.505 Y107.23 E16.424
G1 X96.323 Y107.319 E16.43158
G1 X64.052 Y125.951 E17.82589
G1 X63.904 Y125.991 E17.83163
G1 X63.755 Y125.953 E17.83738
G1 X63.642 Y125.841 E17.84333
G1 X62.842 Y124.455 E17.90321
G1 X62.802 Y124.307 E17.90895
G1 X62.84 Y124.158 E17.9147
G1 X62.952 Y124.045 E17.92066
G1 X95.241 Y105.402 E19.31576
G1 X95.525 Y105.175 E19.32936
G1 X95.727 Y104.881 E19.34271
G1 X95.834 Y104.533 E19.35633
G1 X95.849 Y104.342 E19.3635
G1 X95.848 Y100.634 E19.50225
G1 X95.789 Y100.27 E19.51604
G1 X95.629 Y99.95 E19.52943
G1 X95.391 Y99.695 E19.54248
G1 X95.219 Y99.581 E19.5502
G1 F1500 E17.5502
G0 F3600 X97.099 Y102.499
G1 F1500 E19.5502
G1 F3000 X97.106 Y105.597 E19.66612
G1 X99.786 Y107.151 E19.78204
G1 X102.473 Y108.696 E19.89802
G1 X105.16 Y107.151 E20.01399
G1 X107.84 Y105.597 E20.12991
G1 X107.847 Y102.497 E20.24591
G1 X107.84 Y99.398 E20.36186
G1 X105.16 Y97.844 E20.47778
G1 X102.473 Y96.3 E20.59374
G1 X99.786 Y97.844 E20.7097
G1 X97.106 Y99.398 E20.82562
G1 X97.099 Y102.499 E20.94165
G1 F1500 E18.94165
G0 F3600 X97.464 Y102.499
G0 X98.846 Y100.403
G0 X100.647 Y99.358
G0 X100.93 Y99.846
;TYPE:SUPPORT
G1 F1500 E20.94165
G1 F3000 X100.949 Y100.149 E20.95301
G1 X101.169 Y100.902 E20.98236
G1 X101.62 Y101.655 E21.01521
G1 X102.308 Y102.408 E21.05337
G1 X103.024 Y103.161 E21.09225
G1 X103.532 Y103.914 E21.12624
G1 X103.812 Y104.667 E21.1563
G1 X103.889 Y105.222 E21.17726
G1 F1500 E19.17726
;MESH:9cm.3mf
G0 F3600 X104.172 Y105.711
G0 X107.261 Y105.511
G0 X107.802 Y106.442
G1 F1500 E21.17726
G0 F3600 X107.304 Y106.643
;TYPE:WALL-OUTER
G1 F2706.8 X107.081 Y106.76 E21.18771
G1 F2748.1 X105.469 Y107.691 E21.26375
G1 F2739.7 X103.856 Y108.623 E21.34007
G1 F2597.4 X103.444 Y108.903 E21.3616
G0 F3600 X102.888 Y109.429
G0 X102.057 Y109.429
G0 X101.726 Y109.091
G1 F2166.1 X101.981 Y109.58 E21.39018
G1 F2197.8 X102.073 Y110.143 E21.41932
G1 F2233.3 X102.073 Y111.285 E21.47672
G1 X102.073 Y112.427 E21.53412
G1 X102.073 Y113.569 E21.59152
G1 X102.073 Y114.711 E21.64893
G1 X102.073 Y115.853 E21.70633
G1 F2236 X102.073 Y116.995 E21.76366
G1 X102.073 Y118.137 E21.82099
G1 X102.073 Y119.279 E21.87832
G1 X102.073 Y120.421 E21.93565
G1 F2238.8 X102.073 Y121.563 E21.99291
G1 X102.073 Y122.705 E22.05017
G1 X102.073 Y123.847 E22.10743
G1 X102.073 Y124.989 E22.16469
G1 X102.073 Y126.131 E22.22195
G1 F2241.6 X102.073 Y127.273 E22.27914
G1 X102.073 Y128.415 E22.33633
G1 X102.073 Y129.557 E22.39351
G1 X102.073 Y130.699 E22.4507
G1 F2244.4 X102.073 Y131.841 E22.50782
G1 X102.073 Y132.983 E22.56494
G1 X102.073 Y134.125 E22.62205
G1 X102.073 Y135.267 E22.67917
G1 X102.073 Y136.409 E22.73629
G1 F2247.2 X102.073 Y137.551 E22.79333
G1 X102.073 Y138.693 E22.85038
G1 X102.073 Y139.835 E22.90742
G1 X102.073 Y140.977 E22.96447
G1 F2250 X102.073 Y142.119 E23.02145
G1 X102.073 Y143.261 E23.07842
G1 X102.073 Y144.403 E23.13539
G1 X102.073 Y145.545 E23.19237
G1 X102.073 Y146.687 E23.24934
G1 X102.073 Y147.098 E23.26985
G1 X102.873 Y147.098 E23.30976
G1 X102.873 Y110.207 E25.15026
G1 F2208.6 X102.893 Y109.86 E25.16793
G1 F2166.1 X103.076 Y109.325 E25.19723
G1 F2307.7 X103.436 Y108.907 E25.22406
G1 X102.985 Y109.228 E25.25099
G1 F2166.1 X102.539 Y109.453 E25.27688
G1 X102.337 Y109.436 E25.28738
G1 X101.817 Y109.145 E25.31826
G1 X101.726 Y109.091 E25.32375
G0 F3600 X101.818 Y109.268
G0 X101.295 Y108.751
G1 F2714.9 X101.087 Y108.622 E25.33387
G1 F2748.1 X99.474 Y107.69 E25.40996
G1 F2739.7 X97.861 Y106.758 E25.48629
G1 F2593.7 X97.415 Y106.541 E25.50776
G0 F3600 X96.679 Y106.323
G0 X95.771 Y106.142
G0 X95.656 Y105.973
G1 F2238.8 X95.574 Y106.02 E25.5125
G1 F2252.8 X89.189 Y109.706 E25.87985
G1 X82.804 Y113.393 E26.24724
G1 X76.419 Y117.08 E26.61462
G1 X70.034 Y120.766 E26.98198
G1 X63.649 Y124.453 E27.34937
G1 X64.05 Y125.145 E27.38922
G1 X70.434 Y121.459 E27.75653
G1 X76.818 Y117.773 E28.12385
G1 X83.202 Y114.086 E28.49119
G1 X89.587 Y110.4 E28.85855
G1 X95.971 Y106.714 E29.22587
G1 F2205.9 X96.305 Y106.542 E29.24499
G1 F2160.9 X96.864 Y106.433 E29.27457
G1 F2301.8 X97.408 Y106.536 E29.30157
G1 X96.902 Y106.306 E29.32868
G1 F2160.9 X96.482 Y106.031 E29.35476
G1 X96.396 Y105.844 E29.36545
G1 X96.39 Y105.256 E29.396
G1 X96.39 Y105.146 E29.40171
G1 X96.091 Y105.612 E29.43047
G1 F2192.4 X95.656 Y105.973 E29.45942
G0 F3600 X95.574 Y106.02
G0 X95.483 Y106.073
G0 X95.587 Y106.253
G0 X96.264 Y105.602
G0 X96.467 Y104.642
G1 F2694.6 X96.477 Y104.357 E29.4713
G1 F2735.6 X96.477 Y100.632 E29.62415
G1 F2597.4 X96.442 Y100.137 E29.6456
G0 F3600 X96.263 Y99.392
G0 X95.71 Y98.816
G0 X95.594 Y98.989
G1 F2205.9 X95.885 Y99.175 E29.66317
G1 F2163.5 X96.256 Y99.603 E29.69256
G1 F2307.7 X96.442 Y100.137 E29.72007
G1 X96.39 Y99.572 E29.74767
G1 F2163.5 X96.418 Y99.074 E29.77355
G1 X96.533 Y98.912 E29.78385
G1 X97.043 Y98.609 E29.81463
G1 X97.141 Y98.553 E29.82049
G1 X96.584 Y98.529 E29.84942
G1 F2197.8 X96.051 Y98.329 E29.87849
G1 F2241.6 X95.974 Y98.285 E29.88293
G1 F2252.8 X89.589 Y94.599 E30.25029
G1 X83.204 Y90.912 E30.61768
G1 X76.819 Y87.225 E30.98506
G1 X70.434 Y83.539 E31.35242
G1 X64.049 Y79.852 E31.71981
G1 X63.648 Y80.544 E31.75966
G1 X66.842 Y82.388 E31.94343
G1 X70.037 Y84.233 E32.12726
G1 X73.232 Y86.077 E32.31108
G1 X76.427 Y87.922 E32.49491
G1 X79.621 Y89.767 E32.67871
G1 F2250 X82.816 Y91.611 E32.86275
G1 X86.011 Y93.456 E33.04682
G1 X89.206 Y95.3 E33.23086
G1 X92.4 Y97.145 E33.41489
G1 X95.595 Y98.99 E33.59895
G0 F3600 X95.762 Y99.096
G0 X95.876 Y98.926
G0 X96.679 Y98.672
G0 X97.642 Y98.353
G1 F2706.8 X97.865 Y98.236 E33.6094
G1 F2748.1 X99.477 Y97.305 E33.68544
G1 F2739.7 X101.09 Y96.373 E33.76176
G1 F2597.4 X101.502 Y96.093 E33.78329
G0 F3600 X101.51 Y96.089
G1 F2307.7 X101.963 Y95.768 E33.8103
G1 F2166.1 X102.406 Y95.543 E33.83605
G1 X102.607 Y95.559 E33.8465
G1 X103.126 Y95.848 E33.87728
G1 X103.219 Y95.902 E33.88285
G1 X102.963 Y95.411 E33.91155
G1 F2197.8 X102.873 Y94.853 E33.94042
G1 F2230.5 X102.873 Y93.865 E33.99014
G1 X102.873 Y92.877 E34.03986
G1 X102.873 Y91.889 E34.08959
G1 X102.873 Y90.901 E34.13931
G1 X102.873 Y89.913 E34.18903
G1 F2233.3 X102.873 Y88.925 E34.23869
G1 X102.873 Y87.937 E34.28836
G1 X102.873 Y86.949 E34.33802
G1 X102.873 Y85.961 E34.38768
G1 F2236 X102.873 Y84.973 E34.43728
G1 X102.873 Y83.985 E34.48688
G1 X102.873 Y82.997 E34.53648
G1 X102.873 Y82.009 E34.58608
G1 X102.873 Y81.021 E34.63568
G1 F2238.8 X102.873 Y80.033 E34.68521
G1 X102.873 Y79.045 E34.73475
G1 X102.873 Y78.057 E34.78429
G1 X102.873 Y77.069 E34.83383
G1 X102.873 Y76.081 E34.88337
G1 F2241.6 X102.873 Y75.093 E34.93284
G1 X102.873 Y74.105 E34.98232
G1 X102.873 Y73.117 E35.0318
G1 X102.873 Y72.129 E35.08127
G1 F2244.4 X102.873 Y71.141 E35.13069
G1 X102.873 Y70.153 E35.1801
G1 X102.873 Y69.165 E35.22952
G1 X102.873 Y68.177 E35.27893
G1 X102.873 Y67.189 E35.32835
G1 F2247.2 X102.873 Y66.201 E35.3777
G1 X102.873 Y65.213 E35.42705
G1 X102.873 Y64.225 E35.4764
G1 X102.873 Y63.237 E35.52576
G1 F2250 X102.873 Y62.249 E35.57505
G1 X102.873 Y61.261 E35.62434
G1 X102.873 Y60.273 E35.67363
G1 X102.873 Y59.285 E35.72292
G1 X102.873 Y58.297 E35.77222
G1 X102.873 Y57.898 E35.79212
G1 X102.073 Y57.898 E35.83203
G1 X102.073 Y65.276 E36.20012
G1 X102.073 Y72.654 E36.56821
G1 X102.073 Y80.032 E36.9363
G1 X102.073 Y87.41 E37.30439
G1 X102.073 Y94.788 E37.67248
G1 F2205.9 X102.053 Y95.137 E37.69027
G1 F2166.1 X101.87 Y95.669 E37.71943
G1 F2307.7 X101.51 Y96.089 E37.74634
G0 F3600 X101.673 Y95.974
G0 X102.057 Y95.567
G0 X102.888 Y95.567
G0 X103.651 Y96.242
G1 F2727.3 X103.86 Y96.373 E37.75649
G1 F2769.2 X105.473 Y97.302 E37.83194
G1 F2773.5 X106.279 Y97.769 E37.86964
G1 F2760.7 X107.086 Y98.236 E37.90755
G1 F2608.7 X107.532 Y98.453 E37.9289
G0 F3600 X107.536 Y98.457
G1 F2307.7 X108.045 Y98.689 E37.95611
G1 F2160.9 X108.464 Y98.965 E37.98217
G1 X108.55 Y99.15 E37.99277
G1 X108.556 Y99.739 E38.02337
G1 X108.557 Y99.845 E38.02888
G1 X108.854 Y99.383 E38.05741
G1 F2192.4 X109.291 Y99.023 E38.0864
G1 F2238.8 X109.372 Y98.976 E38.09109
G1 F2252.8 X141.297 Y80.543 E39.92796
G1 X140.896 Y79.851 E39.96781
G1 X108.973 Y98.284 E41.8046
G1 F2205.9 X108.641 Y98.452 E41.82353
G1 F2160.9 X108.083 Y98.562 E41.85308
G1 F2307.7 X107.536 Y98.457 E41.88017
G0 F3600 X107.718 Y98.54
G0 X108.267 Y98.672
G0 X108.682 Y99.392
G0 X108.478 Y100.384
G1 F2702.7 X108.469 Y100.638 E41.89073
G1 F2739.7 X108.469 Y104.363 E42.04335
G1 F2601.2 X108.503 Y104.854 E42.06459
G0 F3600 X108.683 Y105.605
G0 X108.267 Y106.323
G0 X107.808 Y106.441
G1 F2163.5 X108.364 Y106.466 E42.09347
G1 F2195.1 X108.893 Y106.667 E42.12241
G1 F2227.7 X109.646 Y107.101 E42.1662
G1 X110.399 Y107.536 E42.21002
G1 X111.153 Y107.971 E42.25388
G1 X111.906 Y108.406 E42.2977
G1 X112.66 Y108.841 E42.34156
G1 F2230.5 X113.413 Y109.276 E42.38533
G1 X114.167 Y109.711 E42.42914
G1 X114.92 Y110.146 E42.4729
G1 X115.674 Y110.581 E42.51671
G1 F2233.3 X116.427 Y111.016 E42.56042
G1 X117.18 Y111.451 E42.60413
G1 X117.934 Y111.886 E42.64789
G1 X118.687 Y112.321 E42.6916
G1 X119.441 Y112.756 E42.73535
G1 F2236 X120.194 Y113.191 E42.77901
G1 X120.948 Y113.626 E42.82271
G1 X121.701 Y114.061 E42.86637
G1 X122.455 Y114.496 E42.91007
G1 X123.208 Y114.931 E42.95372
G1 F2238.8 X123.962 Y115.366 E42.99737
G1 X124.715 Y115.801 E43.04097
G1 X125.468 Y116.236 E43.08457
G1 X126.222 Y116.671 E43.12822
G1 F2241.6 X126.975 Y117.106 E43.17177
G1 X127.729 Y117.541 E43.21536
G1 X128.482 Y117.976 E43.25891
G1 X129.236 Y118.411 E43.3025
G1 X129.989 Y118.846 E43.34605
G1 F2244.4 X130.743 Y119.281 E43.38958
G1 X131.496 Y119.716 E43.43308
G1 X132.25 Y120.151 E43.47661
G1 X133.003 Y120.586 E43.52011
G1 X133.756 Y121.021 E43.5636
G1 F2247.2 X134.51 Y121.456 E43.60708
G1 X135.263 Y121.891 E43.65052
G1 X136.017 Y122.326 E43.69401
G1 X136.77 Y122.761 E43.73745
G1 F2250 X137.524 Y123.196 E43.78088
G1 X138.277 Y123.631 E43.82426
G1 X139.031 Y124.066 E43.86769
G1 X139.784 Y124.501 E43.91107
G1 X140.538 Y124.936 E43.9545
G1 X140.897 Y125.144 E43.9752
G1 X141.097 Y124.798 E43.99514
G1 X141.297 Y124.452 E44.01508
G1 X134.908 Y120.763 E44.38315
G1 X128.518 Y117.074 E44.75126
G1 X122.129 Y113.385 E45.11932
G1 X115.739 Y109.696 E45.48743
G1 X109.35 Y106.006 E45.85552
G1 F2205.9 X109.06 Y105.819 E45.87308
G1 F2163.5 X108.685 Y105.388 E45.90273
G1 F2307.7 X108.503 Y104.863 E45.92976
G1 X108.558 Y105.417 E45.95684
G1 F2163.5 X108.529 Y105.92 E45.98298
G1 X108.414 Y106.082 E45.99329
G1 X107.903 Y106.386 E46.02414
G1 X107.808 Y106.441 E46.02983
G0 F3600 X108.008 Y106.449
G0 X109.168 Y106.363
G1 F1500 E44.02983
;MESH:NONMESH
G0 F600 X109.168 Y106.363 Z0.3
G0 F3600 X108.822 Y105.711
G0 X108.554 Y105.144
G0 X107.476 Y105.142
G0 X106.1 Y100.403
G0 X102.473 Y98.309
G0 X100.602 Y99.384
G0 X100.885 Y99.872
;TIME_ELAPSED:31.350669
;LAYER:1
M106 S51
;TYPE:SUPPORT
G1 F1500 E46.02983
G1 F4500 X100.882 Y100.149 E46.03905
G1 X101.043 Y100.902 E46.06466
G1 X101.438 Y101.655 E46.09294
G1 X102.105 Y102.408 E46.1264
G1 X102.856 Y103.161 E46.16177
G1 X103.426 Y103.914 E46.19318
G1 X103.766 Y104.667 E46.22066
G1 X103.884 Y105.225 E46.23963
G1 F1500 E44.23963
;MESH:9cm.3mf
G0 F5400 X104.167 Y105.713
G0 X102.391 Y107.81
G0 X101.845 Y108.757
G1 F1500 E46.23963
G0 F5400 X101.065 Y108.685
;TYPE:WALL-OUTER
G1 F2439 X101.28 Y108.853 E46.25079
G1 F2733.5 X101.586 Y109.252 E46.26915
G1 F3000 X101.804 Y109.716 E46.2862
G1 X101.872 Y110.231 E46.30347
G1 X101.873 Y147.298 E47.53633
G1 X103.073 Y147.298 E47.57624
G1 X103.073 Y110.264 E48.808
G1 X103.127 Y109.815 E48.82304
G1 X103.254 Y109.437 E48.8363
G1 F2564.1 X103.497 Y108.972 E48.85672
G1 F2307.7 X103.886 Y108.683 E48.87767
G1 F2381 X107.128 Y106.809 E49.0346
G1 F2434.1 X107.381 Y106.708 E49.04577
G1 F2721.1 X107.883 Y106.643 E49.06433
G1 F3000 X108.392 Y106.688 E49.08132
G1 X108.876 Y106.888 E49.09874
G1 X140.97 Y125.417 E50.33132
G1 X141.27 Y124.898 E50.35126
G1 X141.57 Y124.379 E50.3712
