;FLAVOR:Marlin
;TIME:2024
;Filament used: 4.92322m
;Layer height: 0.3
;MINX:62.537
;MINY:56.915
;MINZ:0.2
;MAXX:142.477
;MAXY:148.115
;MAXZ:49.76
;Generated with Cura_SteamEngine main
M140 S65
M105
M190 S65
M104 S220
M105
M109 S220
M82 ;absolute extrusion mode
G21 ;metric values
G90 ;absolute positioning
M82 ;set extruder to absolute mode
M107 ;start with the fan off

M206 X5 Y9 ;set home offsets

G28 X0 Y0 ;move X/Y to min endstops
G28 Z0 ;move Z to min endstops
G1 Z15.0 F9000 ;move the platform down 15mm
G92 E0 ;zero the extruded length
G1 F200 E3 ;extrude 3mm of feed stock
G92 E0 ;zero the extruded length again
G1 F9000

;M301 D121.72 I2.14 P32.30
M301 D17.09 I0.93 P78.40

;Set max printing acceleration
M201 X100 Y100
;Set max travel acceleration
M202 X300 Y300
;Set max jerk
M556 X10 Y10
;Set max feedrate
M203 X1000 Y1000


;Put printing message on LCD screen
M117 Printing...
G92 E0
G92 E0
G1 F1500 E-1
;LAYER_COUNT:146
;LAYER:0
M107
G1 F600 Z1.2
G0 F1800 X63.558 Y78.856 Z1.2
G0 X62.537 Y80.677
;TYPE:SKIRT
G1 F600 Z0.2
G1 F1500 E0
G1 F1200 X62.616 Y80.407 E0.01871
G1 X63.416 Y79.022 E0.12511
G1 X63.558 Y78.856 E0.13964
G1 X63.75 Y78.752 E0.15417
G1 X63.966 Y78.723 E0.16866
G1 X64.236 Y78.802 E0.18738
G1 X96.506 Y97.433 E2.66606
G1 X96.782 Y97.542 E2.6858
G1 X97.074 Y97.565 E2.70529
G1 X97.482 Y97.427 E2.73394
G1 X100.731 Y95.549 E2.98357
G1 X101.013 Y95.195 E3.01368
G1 X101.107 Y94.887 E3.0351
G1 X101.107 Y57.515 E5.52109
G1 X101.147 Y57.3 E5.53564
G1 X101.26 Y57.114 E5.55012
G1 X101.433 Y56.981 E5.56463
G1 X101.707 Y56.915 E5.58338
G1 X103.307 Y56.915 E5.68981
G1 X103.522 Y56.955 E5.70436
G1 X103.708 Y57.068 E5.71884
G1 X103.841 Y57.241 E5.73335
G1 X103.907 Y57.515 E5.7521
G1 X103.908 Y94.88 E8.23763
G1 X104.002 Y95.201 E8.25988
G1 X104.286 Y95.552 E8.28992
G1 X107.649 Y97.493 E8.54821
G1 X108.087 Y97.563 E8.57772
G1 X108.427 Y97.481 E8.60098
G1 X140.778 Y78.802 E11.08593
G1 X140.984 Y78.729 E11.10047
G1 X141.202 Y78.735 E11.11498
G1 X141.403 Y78.818 E11.12944
G1 X141.598 Y79.022 E11.14821
G1 X142.398 Y80.407 E11.25461
G1 X142.471 Y80.613 E11.26915
G1 X142.465 Y80.831 E11.28366
G1 X142.382 Y81.032 E11.29812
G1 X142.178 Y81.227 E11.31689
G1 X109.908 Y99.859 E13.79561
G1 X109.671 Y100.049 E13.81582
G1 X109.477 Y100.371 E13.84083
G1 X109.426 Y100.704 E13.86324
G1 X109.428 Y104.465 E14.11342
G1 X109.591 Y104.879 E14.14302
G1 X109.813 Y105.117 E14.16467
G1 X142.178 Y123.802 E16.65062
G1 X142.344 Y123.944 E16.66515
G1 X142.448 Y124.136 E16.67968
G1 X142.477 Y124.352 E16.69418
G1 X142.398 Y124.622 E16.71289
G1 X141.598 Y126.007 E16.81929
G1 X141.456 Y126.173 E16.83382
G1 X141.264 Y126.277 E16.84834
G1 X141.048 Y126.306 E16.86284
G1 X140.778 Y126.227 E16.88155
G1 X108.507 Y107.596 E19.3603
G1 X108.232 Y107.488 E19.37995
G1 X107.85 Y107.478 E19.40537
G1 X107.532 Y107.602 E19.42808
G1 X104.28 Y109.482 E19.67795
G1 X104.001 Y109.834 E19.70782
G1 X103.907 Y110.151 E19.72982
G1 X103.907 Y147.515 E22.21528
G1 X103.867 Y147.73 E22.22983
G1 X103.754 Y147.916 E22.24431
G1 X103.581 Y148.049 E22.25882
G1 X103.307 Y148.115 E22.27757
G1 X101.707 Y148.115 E22.384
G1 X101.492 Y148.075 E22.39855
G1 X101.306 Y147.962 E22.41303
G1 X101.173 Y147.789 E22.42754
G1 X101.107 Y147.515 E22.44629
G1 X101.106 Y110.136 E24.93275
G1 X101.014 Y109.833 E24.95382
G1 X100.729 Y109.479 E24.98405
G1 X97.363 Y107.535 E25.24262
G1 X96.924 Y107.466 E25.27218
G1 X96.599 Y107.541 E25.29436
G1 X64.236 Y126.227 E27.78024
G1 X64.03 Y126.3 E27.79478
G1 X63.812 Y126.294 E27.80928
G1 X63.611 Y126.211 E27.82375
G1 X63.416 Y126.007 E27.84252
G1 X62.616 Y124.622 E27.94892
G1 X62.543 Y124.416 E27.96345
G1 X62.549 Y124.198 E27.97796
G1 X62.632 Y123.997 E27.99243
G1 X62.836 Y123.802 E28.0112
G1 X95.105 Y105.17 E30.48986
G1 X95.419 Y104.89 E30.51785
G1 X95.539 Y104.639 E30.53636
G1 X95.588 Y104.324 E30.55756
G1 X95.586 Y100.564 E30.80768
G1 X95.428 Y100.16 E30.83653
G1 X95.188 Y99.906 E30.85978
G1 X62.836 Y81.227 E33.34479
G1 X62.67 Y81.085 E33.35932
G1 X62.566 Y80.893 E33.37384
G1 X62.537 Y80.677 E33.38834
G0 F1800 X62.953 Y80.787
G1 F1200 X62.963 Y80.607 E33.40033
G1 X63.763 Y79.222 E33.50673
G1 X63.856 Y79.139 E33.51502
G1 X64.036 Y79.149 E33.52701
G1 X96.328 Y97.793 E36.0074
G1 X96.692 Y97.936 E36.03341
G1 X97.086 Y97.967 E36.0597
G1 X97.271 Y97.939 E36.07215
G1 X97.652 Y97.791 E36.09934
G1 X100.971 Y95.872 E36.35437
G1 X101.156 Y95.699 E36.37122
G1 X101.379 Y95.367 E36.39782
G1 X101.507 Y94.949 E36.4269
G1 X101.507 Y57.515 E38.91702
G1 X101.546 Y57.396 E38.92535
G1 X101.707 Y57.315 E38.93734
G1 X103.307 Y57.315 E39.04377
G1 X103.426 Y57.354 E39.0521
G1 X103.507 Y57.515 E39.06409
G1 X103.508 Y94.938 E41.55348
G1 X103.635 Y95.371 E41.5835
G1 X103.857 Y95.7 E41.6099
G1 X104.049 Y95.878 E41.62731
G1 X107.485 Y97.861 E41.89121
G1 X107.725 Y97.936 E41.90794
G1 X108.119 Y97.967 E41.93423
G1 X108.578 Y97.856 E41.96564
G1 X140.978 Y79.149 E44.45434
G1 X141.1 Y79.123 E44.46264
G1 X141.251 Y79.222 E44.47465
G1 X142.051 Y80.607 E44.58105
G1 X142.077 Y80.729 E44.58935
G1 X141.978 Y80.88 E44.60136
G1 X109.685 Y99.525 E47.08184
G1 X109.373 Y99.774 E47.10839
G1 X109.155 Y100.096 E47.13426
G1 X109.089 Y100.264 E47.14626
G1 X109.026 Y100.676 E47.17399
G1 X109.028 Y104.511 E47.42909
G1 X109.081 Y104.741 E47.44479
G1 X109.257 Y105.108 E47.47187
G1 X109.561 Y105.434 E47.50152
G1 X141.978 Y124.149 E49.99147
G1 X142.061 Y124.242 E49.99976
G1 X142.051 Y124.422 E50.01175
G1 X141.251 Y125.807 E50.11815
G1 X141.158 Y125.89 E50.12644
G1 X140.978 Y125.88 E50.13843
G1 X108.685 Y107.236 E52.61888
G1 X108.322 Y107.094 E52.64481
G1 X107.928 Y107.062 E52.6711
G1 X107.743 Y107.09 E52.68355
G1 X107.362 Y107.238 E52.71074
G1 X104.037 Y109.161 E52.96624
G1 X103.859 Y109.33 E52.98257
G1 X103.636 Y109.659 E53.00901
G1 X103.507 Y110.095 E53.03926
G1 X103.507 Y147.515 E55.52844
G1 X103.468 Y147.634 E55.53677
G1 X103.307 Y147.715 E55.54876
G1 X101.707 Y147.715 E55.6552
G1 X101.588 Y147.676 E55.66353
G1 X101.507 Y147.515 E55.67551
G1 X101.506 Y110.076 E58.16597
G1 X101.38 Y109.661 E58.19482
G1 X101.157 Y109.33 E58.22137
G1 X100.966 Y109.153 E58.23869
G1 X97.53 Y107.169 E58.50262
G1 X97.289 Y107.093 E58.51943
G1 X96.895 Y107.062 E58.54572
G1 X96.449 Y107.165 E58.57617
G1 X64.036 Y125.88 E61.06589
G1 X63.914 Y125.906 E61.07418
G1 X63.763 Y125.807 E61.0862
G1 X62.963 Y124.422 E61.19259
G1 X62.937 Y124.3 E61.20089
G1 X63.036 Y124.149 E61.2129
G1 X95.327 Y105.504 E63.69326
G1 X95.643 Y105.251 E63.72019
G1 X95.76 Y105.105 E63.73264
G1 X95.925 Y104.76 E63.75807
G1 X95.988 Y104.352 E63.78554
G1 X95.986 Y100.518 E64.04058
G1 X95.934 Y100.291 E64.05607
G1 X95.761 Y99.929 E64.08276
G1 X95.439 Y99.588 E64.11395
G1 X63.036 Y80.88 E66.60286
G1 X62.953 Y80.787 E66.61116
G1 F1500 E65.61116
G1 F600 Z1.2
G0 F1800 X97.648 Y99.71 Z1.2
G1 F600 Z0.2
G1 F1500 E66.61116
G1 F1200 X97.648 Y105.32 E66.98433
G1 X102.507 Y108.125 E67.35755
G1 X107.365 Y105.32 E67.7307
G1 X107.365 Y99.71 E68.10388
G1 X102.507 Y96.905 E68.47704
G1 X97.648 Y99.71 E68.85025
G0 F1800 X97.248 Y99.478
G1 F1200 X97.248 Y105.552 E69.2543
G1 X102.507 Y108.587 E69.6582
G1 X107.765 Y105.552 E70.06205
G1 X107.765 Y99.478 E70.46609
G1 X102.507 Y96.443 E70.86994
G1 X97.248 Y99.478 E71.27385
;MESH:9cm.3mf
G0 F1800 X96.413 Y99.413
;TYPE:WALL-INNER
G1 F1019.1 X96.496 Y99.048 E71.30317
G1 X96.632 Y98.883 E71.31992
G1 X96.785 Y98.782 E71.33428
G1 X96.409 Y98.724 E71.36408
G1 F1098.4 X96.022 Y98.536 E71.39534
G1 F1191.1 X94.346 Y97.569 E71.52502
G1 X92.669 Y96.601 E71.65479
G1 X90.992 Y95.633 E71.78456
G1 X89.316 Y94.665 E71.91428
G1 X87.639 Y93.697 E72.04405
G1 F1194 X85.962 Y92.729 E72.1735
G1 X84.285 Y91.761 E72.30295
G1 X82.609 Y90.794 E72.4323
G1 X80.932 Y89.826 E72.56175
G1 X79.255 Y88.858 E72.6912
G1 F1197 X77.578 Y87.89 E72.82033
G1 X75.902 Y86.922 E72.9494
G1 X74.225 Y85.954 E73.07852
G1 X72.548 Y84.986 E73.20765
G1 F1200 X70.871 Y84.018 E73.33646
G1 X69.195 Y83.051 E73.46517
G1 X67.518 Y82.083 E73.59397
G1 X65.841 Y81.115 E73.72278
G1 X64.164 Y80.147 E73.85158
G1 X63.957 Y80.488 E73.87812
G1 X64.395 Y80.74 E73.91173
G1 X64.833 Y80.993 E73.94538
G1 X65.271 Y81.246 E73.97903
G1 F1197 X65.709 Y81.499 E74.01276
G1 X66.148 Y81.752 E74.04655
G1 X66.586 Y82.005 E74.08028
G1 F1194 X67.024 Y82.258 E74.1141
G1 X67.462 Y82.511 E74.14791
G1 X67.901 Y82.764 E74.18178
G1 X68.339 Y83.017 E74.2156
G1 F1191.1 X68.777 Y83.27 E74.2495
G1 X69.215 Y83.523 E74.2834
G1 X69.654 Y83.776 E74.31736
G1 F1188.1 X70.092 Y84.029 E74.35134
G1 X70.53 Y84.282 E74.38532
G1 X70.968 Y84.535 E74.41931
G1 F1185.2 X71.407 Y84.788 E74.45343
G1 X71.845 Y85.041 E74.4875
G1 X72.283 Y85.294 E74.52157
G1 F1182.3 X72.721 Y85.547 E74.55572
G1 X73.159 Y85.8 E74.58987
G1 X73.598 Y86.053 E74.62408
G1 F1179.4 X74.036 Y86.306 E74.65832
G1 X74.474 Y86.559 E74.69256
G1 X74.912 Y86.812 E74.72679
G1 F1176.5 X75.351 Y87.065 E74.76117
G1 X75.789 Y87.318 E74.79549
G1 X76.227 Y87.571 E74.82981
G1 X76.665 Y87.824 E74.86413
G1 F1173.6 X77.104 Y88.077 E74.89859
G1 X77.542 Y88.33 E74.933
G1 X77.98 Y88.583 E74.9674
G1 F1170.7 X78.418 Y88.836 E75.00189
G1 X78.857 Y89.089 E75.03644
G1 X79.295 Y89.342 E75.07093
G1 F1167.9 X79.733 Y89.595 E75.1055
G1 X80.171 Y89.847 E75.14004
G1 X80.609 Y90.1 E75.17461
G1 F1165 X81.048 Y90.353 E75.20933
G1 X81.486 Y90.606 E75.24398
G1 X81.924 Y90.859 E75.27864
G1 F1162.2 X82.362 Y91.112 E75.31338
G1 X82.801 Y91.365 E75.34818
G1 X83.239 Y91.618 E75.38292
G1 F1159.4 X83.677 Y91.871 E75.41775
G1 X84.115 Y92.124 E75.45257
G1 X84.554 Y92.377 E75.48746
G1 X84.992 Y92.63 E75.52228
G1 F1156.6 X85.43 Y92.883 E75.55719
G1 X85.868 Y93.136 E75.5921
G1 X86.307 Y93.389 E75.62707
G1 F1153.8 X86.745 Y93.642 E75.66206
G1 X87.183 Y93.895 E75.69705
G1 X87.621 Y94.148 E75.73205
G1 F1151.1 X88.059 Y94.401 E75.76712
G1 X88.498 Y94.654 E75.80226
G1 X88.936 Y94.907 E75.83734
G1 F1148.3 X89.374 Y95.16 E75.8725
G1 X89.812 Y95.413 E75.90766
G1 X90.251 Y95.666 E75.94288
G1 F1145.6 X90.689 Y95.919 E75.97813
G1 X91.127 Y96.172 E76.01337
G1 X91.565 Y96.425 E76.04862
G1 F1142.9 X92.004 Y96.678 E76.08401
G1 X92.442 Y96.931 E76.11934
G1 X92.88 Y97.184 E76.15467
G1 X93.318 Y97.437 E76.19
G1 F1140.1 X93.757 Y97.69 E76.22547
G1 X94.195 Y97.943 E76.26089
G1 X94.633 Y98.196 E76.2963
G1 F1137.4 X95.071 Y98.449 E76.3318
G1 X95.509 Y98.702 E76.3673
G1 X95.948 Y98.955 E76.40285
G1 F1073.8 X96.413 Y99.413 E76.45137
G0 F1800 X96.212 Y98.896
G0 X96.625 Y100.448
G0 X96.627 Y104.404
G0 X96.205 Y106.137
G0 X96.431 Y105.819
G1 F1019.1 X96.413 Y105.626 E76.46656
G1 X96.184 Y105.889 E76.49387
G1 F1103.4 X95.743 Y106.187 E76.53237
G1 F1203 X92.564 Y108.022 E76.77593
G1 X89.385 Y109.858 E77.01952
G1 X86.206 Y111.694 E77.26312
G1 X83.027 Y113.53 E77.50671
G1 X79.848 Y115.366 E77.7503
G1 F1206 X76.669 Y117.201 E77.99325
G1 X73.49 Y119.037 E78.23623
G1 X70.311 Y120.873 E78.47921
G1 X67.132 Y122.709 E78.72219
G1 X63.953 Y124.545 E78.96517
G1 X64.156 Y124.886 E78.99144
G1 X64.595 Y124.633 E79.02497
G1 X65.034 Y124.379 E79.05854
G1 X65.473 Y124.126 E79.09208
G1 F1203 X65.912 Y123.872 E79.12573
G1 X66.351 Y123.619 E79.15935
G1 X66.79 Y123.365 E79.19301
G1 F1200 X67.229 Y123.112 E79.22671
G1 X67.668 Y122.858 E79.26045
G1 X68.107 Y122.605 E79.29416
G1 X68.546 Y122.351 E79.32789
G1 F1197 X68.985 Y122.097 E79.36172
G1 X69.424 Y121.844 E79.39551
G1 X69.863 Y121.59 E79.42933
G1 F1194 X70.302 Y121.337 E79.4632
G1 X70.741 Y121.083 E79.49711
G1 X71.18 Y120.83 E79.53098
G1 F1191.1 X71.62 Y120.576 E79.56503
G1 X72.059 Y120.323 E79.59899
G1 X72.498 Y120.069 E79.63298
G1 F1188.1 X72.937 Y119.816 E79.66702
G1 X73.376 Y119.562 E79.7011
G1 X73.815 Y119.308 E79.73517
G1 F1185.2 X74.254 Y119.055 E79.7693
G1 X74.693 Y118.801 E79.80346
G1 X75.132 Y118.548 E79.83758
G1 F1182.3 X75.571 Y118.294 E79.87183
G1 X76.01 Y118.041 E79.90604
G1 X76.449 Y117.787 E79.94028
G1 X76.888 Y117.534 E79.97449
G1 F1179.4 X77.327 Y117.28 E80.00882
G1 X77.766 Y117.027 E80.04312
G1 X78.205 Y116.773 E80.07745
G1 F1176.5 X78.644 Y116.519 E80.11186
G1 X79.084 Y116.266 E80.1463
G1 X79.523 Y116.012 E80.18071
G1 F1173.6 X79.962 Y115.759 E80.21517
G1 X80.401 Y115.505 E80.24967
G1 X80.84 Y115.252 E80.28413
G1 F1170.7 X81.279 Y114.998 E80.31871
G1 X81.718 Y114.745 E80.35326
G1 X82.157 Y114.491 E80.38784
G1 F1167.9 X82.596 Y114.237 E80.42251
G1 X83.035 Y113.984 E80.45714
G1 X83.474 Y113.73 E80.49181
G1 F1165 X83.913 Y113.477 E80.52652
G1 X84.352 Y113.223 E80.56127
G1 X84.791 Y112.97 E80.59599
G1 X85.23 Y112.716 E80.63074
G1 F1162.2 X85.669 Y112.463 E80.66554
G1 X86.109 Y112.209 E80.70043
G1 X86.548 Y111.956 E80.73523
G1 F1159.4 X86.987 Y111.702 E80.77015
G1 X87.426 Y111.448 E80.80507
G1 X87.865 Y111.195 E80.83996
G1 F1156.6 X88.304 Y110.941 E80.87496
G1 X88.743 Y110.688 E80.90993
G1 X89.182 Y110.434 E80.94493
G1 F1153.8 X89.621 Y110.181 E80.97998
G1 X90.06 Y109.927 E81.01507
G1 X90.499 Y109.674 E81.05013
G1 F1151.1 X90.938 Y109.42 E81.0853
G1 X91.377 Y109.167 E81.12043
G1 X91.816 Y108.913 E81.15561
G1 F1148.3 X92.255 Y108.659 E81.19086
G1 X92.694 Y108.406 E81.22608
G1 X93.133 Y108.152 E81.26134
G1 X93.573 Y107.899 E81.29662
G1 F1145.6 X94.012 Y107.645 E81.33196
G1 X94.451 Y107.392 E81.36727
G1 X94.89 Y107.138 E81.40261
G1 F1142.9 X95.329 Y106.885 E81.438
G1 X95.768 Y106.631 E81.47343
G1 X96.207 Y106.377 E81.50885
G1 F1076.2 X96.769 Y106.238 E81.55179
G1 F1019.1 X96.498 Y105.984 E81.58088
G1 X96.431 Y105.819 E81.59483
G0 F1800 X96.205 Y106.137
G0 X97.786 Y106.578
G0 X101.351 Y108.637
G0 X102.498 Y109.779
G0 X102.151 Y109.346
G1 F1078.7 X102.307 Y109.913 E81.63835
G1 F1148.3 X102.307 Y110.413 E81.67311
G1 X102.307 Y110.913 E81.70786
G1 X102.307 Y111.413 E81.74262
G1 X102.307 Y111.913 E81.77738
G1 F1151.1 X102.307 Y112.413 E81.81205
G1 X102.307 Y112.913 E81.84673
G1 X102.307 Y113.413 E81.8814
G1 X102.307 Y113.913 E81.91607
G1 F1153.8 X102.307 Y114.413 E81.95066
G1 X102.307 Y114.913 E81.98525
G1 X102.307 Y115.413 E82.01984
G1 X102.307 Y115.913 E82.05444
G1 F1156.6 X102.307 Y116.413 E82.08894
G1 X102.307 Y116.913 E82.12345
G1 X102.307 Y117.413 E82.15796
G1 X102.307 Y117.913 E82.19246
G1 F1159.4 X102.307 Y118.413 E82.22689
G1 X102.307 Y118.913 E82.26131
G1 X102.307 Y119.413 E82.29574
G1 F1162.2 X102.307 Y119.913 E82.33008
G1 X102.307 Y120.413 E82.36442
G1 X102.307 Y120.913 E82.39876
G1 X102.307 Y121.413 E82.4331
G1 F1165 X102.307 Y121.913 E82.46736
G1 X102.307 Y122.413 E82.50162
G1 X102.307 Y122.913 E82.53588
G1 X102.307 Y123.413 E82.57013
G1 F1167.9 X102.307 Y123.913 E82.60431
G1 X102.307 Y124.413 E82.63848
G1 X102.307 Y124.913 E82.67266
G1 X102.307 Y125.413 E82.70683
G1 F1170.7 X102.307 Y125.913 E82.74092
G1 X102.307 Y126.413 E82.77502
G1 X102.307 Y126.913 E82.80911
G1 X102.307 Y127.413 E82.8432
G1 F1173.6 X102.307 Y127.913 E82.87721
G1 X102.307 Y128.413 E82.91122
G1 X102.307 Y128.913 E82.94522
G1 X102.307 Y129.413 E82.97923
G1 F1176.5 X102.307 Y129.913 E83.01316
G1 X102.307 Y130.413 E83.04708
G1 X102.307 Y130.913 E83.08101
G1 X102.307 Y131.413 E83.11493
G1 F1179.4 X102.307 Y131.913 E83.14878
G1 X102.307 Y132.413 E83.18262
G1 X102.307 Y132.913 E83.21646
G1 X102.307 Y133.413 E83.2503
G1 F1182.3 X102.307 Y133.913 E83.28406
G1 X102.307 Y134.413 E83.31782
G1 X102.307 Y134.913 E83.35158
G1 X102.307 Y135.413 E83.38534
G1 F1185.2 X102.307 Y135.913 E83.41902
G1 X102.307 Y136.413 E83.45269
G1 X102.307 Y136.913 E83.48637
G1 X102.307 Y137.413 E83.52004
G1 F1188.1 X102.307 Y137.913 E83.55364
G1 X102.307 Y138.413 E83.58723
G1 X102.307 Y138.913 E83.62082
G1 F1191.1 X102.307 Y139.413 E83.65433
G1 X102.307 Y139.913 E83.68784
G1 X102.307 Y140.413 E83.72135
G1 X102.307 Y140.913 E83.75486
G1 F1194 X102.307 Y141.413 E83.78829
G1 X102.307 Y141.913 E83.82171
G1 X102.307 Y142.413 E83.85514
G1 X102.307 Y142.913 E83.88857
G1 F1197 X102.307 Y143.413 E83.92191
G1 X102.307 Y143.913 E83.95525
G1 X102.307 Y144.413 E83.9886
G1 X102.307 Y144.913 E84.02194
G1 F1200 X102.307 Y145.413 E84.0552
G1 X102.307 Y145.913 E84.08846
G1 X102.307 Y146.413 E84.12172
G1 X102.307 Y146.913 E84.15498
G1 X102.707 Y146.915 E84.18159
G1 X102.707 Y110.051 E86.63379
G1 F1103.4 X102.735 Y109.758 E86.65508
G1 F1019.1 X102.863 Y109.347 E86.6888
