;FLAVOR:Marlin
;TIME:2474
;Filament used: 5.84215m
;Layer height: 0.3
;MINX:73.849
;MINY:73.819
;MINZ:0.15
;MAXX:131.141
;MAXY:131.111
;MAXZ:50.85
;Generated with Cura_SteamEngine 5.0.0
M140 S55
M105
M190 S55
M104 S245
M105
M109 S245
M82 ;absolute extrusion mode
G21 ;metric values
G90 ;absolute positioning
M82 ;set extruder to absolute mode
M107 ;start with the fan off

M206 X5 Y9 ;set home offsets

G28 X0 Y0 ;move X/Y to min endstops
G28 Z0 ;move Z to min endstops
G1 Z15.0 F9000 ;move the platform down 15mm
G92 E0 ;zero the extruded length
G1 F200 E3 ;extrude 3mm of feed stock
G92 E0 ;zero the extruded length again
G1 F9000

;M301 D121.72 I2.14 P32.30
M301 D17.09 I0.93 P78.40

;Set max printing acceleration
M201 X100 Y100
;Set max travel acceleration
M202 X300 Y300
;Set max jerk
M556 X10 Y10
;Set max feedrate
M203 X1000 Y1000


;Put printing message on LCD screen
M117 Printing...
G92 E0
G92 E0
G1 F1500 E-1
;LAYER_COUNT:134
;LAYER:0
M107
G1 F600 Z1.15
G0 F3600 X82.458 Y81.993 Z1.15
G1 F600 Z0.15
G0 F3600 X79.259 Y86.659
G0 X75.636 Y92.499
;TYPE:SKIRT
G1 F1500 E0
G1 F1800 X76.02 Y91.52 E0.0787
G1 X76.44 Y90.555 E0.15746
G1 X76.895 Y89.607 E0.23615
G1 X77.384 Y88.675 E0.31491
G1 X77.909 Y87.761 E0.39379
G1 X78.466 Y86.869 E0.47249
G1 X79.055 Y85.995 E0.55136
G1 X79.676 Y85.146 E0.63008
G1 X80.327 Y84.319 E0.70884
G1 X81.009 Y83.517 E0.78763
G1 X81.72 Y82.741 E0.86639
G1 X82.458 Y81.993 E0.94503
G1 X83.225 Y81.268 E1.02401
G1 X84.016 Y80.577 E1.10261
G1 X84.834 Y79.91 E1.1816
G1 X85.674 Y79.277 E1.26031
G1 X86.535 Y78.676 E1.33889
G1 X87.42 Y78.106 E1.41766
G1 X88.326 Y77.568 E1.49652
G1 X89.25 Y77.064 E1.57528
G1 X90.192 Y76.595 E1.65403
G1 X91.15 Y76.161 E1.73274
G1 X92.125 Y75.761 E1.8116
G1 X93.113 Y75.398 E1.89037
G1 X94.114 Y75.073 E1.96913
G1 X95.119 Y74.785 E2.04737
G1 X96 Y74.562 E2.11538
G1 X97.178 Y74.317 E2.20542
G1 X98.217 Y74.14 E2.2843
G1 X99.26 Y74.002 E2.36303
G1 X100.308 Y73.903 E2.44181
G1 X101.359 Y73.842 E2.52059
G1 X102.411 Y73.819 E2.59934
G1 X103.463 Y73.836 E2.67807
G1 X104.514 Y73.891 E2.75683
G1 X105.562 Y73.984 E2.83557
G1 X106.607 Y74.116 E2.91439
G1 X107.645 Y74.286 E2.99311
G1 X108.679 Y74.494 E3.07204
G1 X109.701 Y74.741 E3.15072
G1 X110.713 Y75.024 E3.22936
G1 X111.717 Y75.344 E3.30822
G1 X112.707 Y75.702 E3.387
G1 X113.682 Y76.095 E3.46567
G1 X114.636 Y76.52 E3.54382
G1 X115.456 Y76.916 E3.61197
G1 X116.517 Y77.486 E3.7021
G1 X117.424 Y78.018 E3.78079
G1 X118.314 Y78.583 E3.85968
G1 X119.181 Y79.181 E3.9385
G1 X120.021 Y79.808 E4.01695
G1 X120.847 Y80.469 E4.09612
G1 X121.638 Y81.156 E4.17452
G1 X122.41 Y81.875 E4.25347
G1 X123.151 Y82.62 E4.3321
G1 X123.869 Y83.393 E4.41105
G1 X124.554 Y84.191 E4.48976
G1 X125.211 Y85.014 E4.56857
G1 X125.836 Y85.859 E4.64722
G1 X126.43 Y86.728 E4.72599
G1 X126.993 Y87.619 E4.80487
G1 X127.521 Y88.528 E4.88353
G1 X128.016 Y89.456 E4.96224
G1 X128.479 Y90.405 E5.04126
G1 X128.902 Y91.364 E5.1197
G1 X129.294 Y92.344 E5.19869
G1 X129.647 Y93.334 E5.27735
G1 X129.965 Y94.339 E5.35623
G1 X130.245 Y95.354 E5.43503
G1 X130.487 Y96.377 E5.51369
G1 X130.692 Y97.41 E5.59251
G1 X130.858 Y98.449 E5.67125
G1 X130.987 Y99.494 E5.75004
G1 X131.077 Y100.542 E5.82876
G1 X131.128 Y101.593 E5.9075
G1 X131.141 Y102.647 E5.98639
G1 X131.115 Y103.697 E6.06499
G1 X131.05 Y104.75 E6.14394
G1 X130.947 Y105.797 E6.22267
G1 X130.806 Y106.84 E6.30143
G1 X130.626 Y107.876 E6.38012
G1 X130.408 Y108.908 E6.45906
G1 X130.153 Y109.926 E6.53759
G1 X129.86 Y110.94 E6.61658
G1 X129.531 Y111.937 E6.69515
G1 X129.164 Y112.926 E6.77409
G1 X128.762 Y113.899 E6.85288
G1 X128.324 Y114.856 E6.93164
G1 X127.851 Y115.795 E7.01032
G1 X127.345 Y116.718 E7.08909
G1 X126.805 Y117.621 E7.16783
G1 X126.232 Y118.504 E7.2466
G1 X125.626 Y119.366 E7.32546
G1 X124.99 Y120.203 E7.40413
G1 X124.324 Y121.018 E7.48289
G1 X123.628 Y121.807 E7.56163
G1 X122.902 Y122.573 E7.64061
G1 X122.15 Y123.306 E7.71919
G1 X121.371 Y124.015 E7.79802
G1 X120.566 Y124.695 E7.87688
G1 X119.738 Y125.342 E7.95552
G1 X118.886 Y125.961 E8.03433
G1 X118.018 Y126.544 E8.11258
G1 X117.248 Y127.025 E8.18052
G1 X116.204 Y127.62 E8.27045
G1 X115.269 Y128.108 E8.34937
G1 X114.317 Y128.561 E8.42827
G1 X113.352 Y128.976 E8.50688
G1 X112.371 Y129.358 E8.58566
G1 X111.376 Y129.702 E8.66445
G1 X110.369 Y130.01 E8.74326
G1 X109.351 Y130.281 E8.82209
G1 X108.335 Y130.511 E8.90005
G1 X107.442 Y130.686 E8.96815
G1 X106.256 Y130.866 E9.05792
G1 X105.356 Y130.973 E9.12574
G1 X104.155 Y131.066 E9.21589
G1 X103.105 Y131.107 E9.29453
G1 X102.052 Y131.111 E9.37333
G1 X101 Y131.075 E9.4521
G1 X99.951 Y131.001 E9.5308
G1 X98.902 Y130.889 E9.60975
G1 X97.862 Y130.738 E9.68839
G1 X96.827 Y130.548 E9.76714
G1 X95.798 Y130.322 E9.84598
G1 X94.779 Y130.057 E9.92478
G1 X93.772 Y129.755 E10.00345
G1 X92.774 Y129.415 E10.08235
G1 X91.79 Y129.04 E10.16116
G1 X90.822 Y128.629 E10.23986
G1 X89.868 Y128.182 E10.3187
G1 X88.933 Y127.701 E10.39738
G1 X88.021 Y127.189 E10.47565
G1 X87.244 Y126.72 E10.54357
G1 X86.241 Y126.057 E10.63355
G1 X85.384 Y125.443 E10.71244
G1 X84.551 Y124.799 E10.79124
G1 X83.742 Y124.125 E10.87004
G1 X82.961 Y123.422 E10.94867
G1 X82.203 Y122.69 E11.02753
G1 X81.474 Y121.931 E11.10629
G1 X80.774 Y121.146 E11.185
G1 X80.1 Y120.334 E11.26397
G1 X79.461 Y119.501 E11.34254
G1 X78.85 Y118.642 E11.42142
G1 X78.272 Y117.762 E11.50021
G1 X77.728 Y116.864 E11.57879
G1 X77.217 Y115.95 E11.65715
G1 X76.8 Y115.142 E11.72519
G1 X76.293 Y114.05 E11.81529
G1 X75.887 Y113.083 E11.89378
G1 X75.513 Y112.095 E11.97283
G1 X75.177 Y111.096 E12.05171
G1 X74.88 Y110.089 E12.13028
G1 X74.619 Y109.072 E12.20885
G1 X74.394 Y108.041 E12.28782
G1 X74.209 Y107.011 E12.36614
G1 X74.078 Y106.113 E12.43405
G1 X73.952 Y104.921 E12.52375
G1 X73.887 Y104.017 E12.59158
G1 X73.849 Y102.815 E12.68157
G1 X73.855 Y101.761 E12.76045
G1 X73.901 Y100.711 E12.8391
G1 X73.984 Y99.66 E12.918
G1 X74.107 Y98.616 E12.99667
G1 X74.267 Y97.575 E13.07549
G1 X74.466 Y96.54 E13.15436
G1 X74.703 Y95.514 E13.23316
G1 X74.977 Y94.501 E13.3117
G1 X75.288 Y93.494 E13.39057
G1 X75.636 Y92.499 E13.46945
G1 F1500 E12.46945
G0 F3600 X74.635 Y98.708
G0 X74.437 Y101.21
G0 X74.384 Y102.818
G0 X74.649 Y102.819
G1 F1500 E13.46945
G1 F1800 X74.654 Y101.795 E13.54608
G1 X74.698 Y100.774 E13.62256
G1 X74.779 Y99.753 E13.69921
G1 X74.898 Y98.737 E13.77576
G1 X75.053 Y97.725 E13.85238
G1 X75.245 Y96.719 E13.92902
G1 X75.475 Y95.723 E14.00552
G1 X75.742 Y94.736 E14.08204
G1 X76.043 Y93.757 E14.15868
G1 X76.381 Y92.791 E14.23527
G1 X76.754 Y91.839 E14.31179
G1 X77.161 Y90.901 E14.38831
G1 X77.604 Y89.978 E14.46492
G1 X78.078 Y89.073 E14.54138
G1 X78.588 Y88.184 E14.61808
G1 X79.129 Y87.316 E14.69462
G1 X79.701 Y86.467 E14.77123
G1 X80.305 Y85.641 E14.8478
G1 X80.937 Y84.837 E14.92434
G1 X81.6 Y84.057 E15.00094
G1 X82.29 Y83.302 E15.07749
G1 X83.007 Y82.574 E15.15395
G1 X83.752 Y81.87 E15.23066
G1 X84.522 Y81.196 E15.30724
G1 X85.315 Y80.549 E15.38383
G1 X86.132 Y79.933 E15.4604
G1 X86.97 Y79.348 E15.53688
G1 X87.829 Y78.793 E15.61342
G1 X88.709 Y78.27 E15.69002
G1 X89.607 Y77.78 E15.76658
G1 X90.523 Y77.324 E15.84315
G1 X91.455 Y76.901 E15.91975
G1 X92.402 Y76.512 E15.99636
G1 X93.361 Y76.159 E16.07284
G1 X94.335 Y75.842 E16.14949
G1 X95.316 Y75.56 E16.22588
G1 X96.163 Y75.345 E16.29127
G1 X97.313 Y75.106 E16.37917
G1 X98.322 Y74.933 E16.45578
G1 X99.336 Y74.799 E16.53232
G1 X100.355 Y74.702 E16.60893
G1 X101.377 Y74.642 E16.68554
G1 X102.399 Y74.619 E16.76204
G1 X103.422 Y74.635 E16.83861
G1 X104.443 Y74.688 E16.91512
G1 X105.463 Y74.778 E16.99175
G1 X106.478 Y74.905 E17.0683
G1 X107.488 Y75.071 E17.14489
G1 X108.492 Y75.272 E17.22152
G1 X109.486 Y75.512 E17.29804
G1 X110.47 Y75.786 E17.37448
G1 X111.446 Y76.097 E17.45114
G1 X112.408 Y76.444 E17.52767
G1 X113.357 Y76.826 E17.60423
G1 X114.289 Y77.241 E17.68058
G1 X115.078 Y77.621 E17.74611
G1 X116.113 Y78.177 E17.83404
G1 X116.995 Y78.693 E17.91051
G1 X117.861 Y79.242 E17.98724
G1 X118.703 Y79.822 E18.06375
G1 X119.522 Y80.433 E18.14022
G1 X120.323 Y81.074 E18.21699
G1 X121.093 Y81.742 E18.29328
G1 X121.843 Y82.44 E18.36995
G1 X122.565 Y83.164 E18.44647
G1 X123.262 Y83.915 E18.52315
G1 X123.929 Y84.691 E18.59972
G1 X124.568 Y85.49 E18.67629
G1 X125.176 Y86.311 E18.75274
G1 X125.754 Y87.156 E18.82935
G1 X126.302 Y88.021 E18.90598
G1 X126.816 Y88.905 E18.98251
G1 X127.297 Y89.807 E19.05901
G1 X127.747 Y90.728 E19.13572
G1 X128.159 Y91.662 E19.21211
G1 X128.541 Y92.613 E19.28881
G1 X128.884 Y93.576 E19.36531
G1 X129.194 Y94.552 E19.44194
G1 X129.466 Y95.539 E19.51856
G1 X129.702 Y96.534 E19.59509
G1 X129.902 Y97.537 E19.67162
G1 X130.064 Y98.548 E19.74825
G1 X130.19 Y99.563 E19.82479
G1 X130.278 Y100.582 E19.90133
G1 X130.328 Y101.603 E19.97783
G1 X130.341 Y102.628 E20.05454
G1 X130.316 Y103.649 E20.13097
G1 X130.254 Y104.672 E20.20767
G1 X130.154 Y105.69 E20.28421
G1 X130.017 Y106.704 E20.36079
G1 X129.843 Y107.711 E20.43726
G1 X129.632 Y108.714 E20.51397
G1 X129.384 Y109.705 E20.59041
G1 X129.101 Y110.689 E20.66704
G1 X128.78 Y111.66 E20.74357
G1 X128.425 Y112.621 E20.82024
G1 X128.034 Y113.567 E20.89684
G1 X127.609 Y114.497 E20.97336
G1 X127.15 Y115.41 E21.04983
G1 X126.658 Y116.308 E21.12646
G1 X126.134 Y117.186 E21.20298
G1 X125.577 Y118.045 E21.27959
G1 X124.989 Y118.883 E21.3562
G1 X124.371 Y119.697 E21.43269
G1 X123.723 Y120.489 E21.50927
G1 X123.047 Y121.257 E21.58583
G1 X122.343 Y122 E21.66243
G1 X121.611 Y122.715 E21.73901
G1 X120.854 Y123.404 E21.81561
G1 X120.073 Y124.065 E21.89218
G1 X119.267 Y124.695 E21.96873
G1 X118.44 Y125.297 E22.04528
G1 X117.593 Y125.866 E22.12164
G1 X116.851 Y126.33 E22.18713
G1 X115.833 Y126.911 E22.27485
G1 X114.925 Y127.386 E22.35154
G1 X114 Y127.826 E22.42819
G1 X113.062 Y128.231 E22.50465
G1 X112.108 Y128.602 E22.58125
G1 X111.141 Y128.937 E22.65784
G1 X110.162 Y129.237 E22.73446
G1 X109.174 Y129.501 E22.811
G1 X108.18 Y129.726 E22.88726
G1 X107.321 Y129.895 E22.95278
G1 X106.161 Y130.072 E23.04059
G1 X105.294 Y130.176 E23.10594
G1 X104.123 Y130.267 E23.19384
G1 X103.101 Y130.307 E23.27038
G1 X102.079 Y130.312 E23.34686
G1 X101.055 Y130.277 E23.42354
G1 X100.036 Y130.206 E23.49998
G1 X99.017 Y130.097 E23.57667
G1 X98.005 Y129.951 E23.65319
G1 X96.998 Y129.767 E23.72979
G1 X95.999 Y129.547 E23.80635
G1 X95.008 Y129.29 E23.88296
G1 X94.029 Y128.997 E23.95944
G1 X93.059 Y128.668 E24.03609
G1 X92.102 Y128.303 E24.11274
G1 X91.161 Y127.904 E24.18923
G1 X90.234 Y127.471 E24.26579
G1 X89.324 Y127.003 E24.34237
G1 X88.433 Y126.503 E24.41883
G1 X87.685 Y126.053 E24.48416
G1 X86.706 Y125.406 E24.57198
G1 X85.873 Y124.81 E24.64863
G1 X85.063 Y124.184 E24.72524
G1 X84.277 Y123.53 E24.80175
G1 X83.516 Y122.846 E24.87833
G1 X82.78 Y122.135 E24.95491
G1 X82.071 Y121.398 E25.03144
G1 X81.389 Y120.635 E25.10803
G1 X80.735 Y119.847 E25.18466
G1 X80.112 Y119.036 E25.26119
G1 X79.518 Y118.202 E25.33782
G1 X78.956 Y117.347 E25.41438
G1 X78.426 Y116.473 E25.49088
G1 X77.928 Y115.582 E25.56726
G1 X77.525 Y114.804 E25.63283
G1 X77.03 Y113.74 E25.72065
G1 X76.635 Y112.799 E25.79703
G1 X76.271 Y111.84 E25.87379
G1 X75.944 Y110.869 E25.95046
G1 X75.655 Y109.89 E26.02685
G1 X75.4 Y108.901 E26.10329
G1 X75.181 Y107.899 E26.18004
G1 X75 Y106.894 E26.25646
G1 X74.873 Y106.029 E26.32189
G1 X74.75 Y104.862 E26.4097
G1 X74.686 Y103.992 E26.47499
G1 X74.649 Y102.819 E26.56281
G1 F1500 E25.56281
G0 F3600 X78.649 Y102.011
G1 F1500 E26.56281
G1 F1800 X78.649 Y102.936 E26.63203
G1 X78.684 Y103.861 E26.70131
G1 X78.752 Y104.742 E26.76743
G1 X78.863 Y105.682 E26.83827
G1 X79.005 Y106.599 E26.90771
G1 X79.173 Y107.467 E26.97387
G1 X79.389 Y108.383 E27.0443
G1 X79.63 Y109.249 E27.11157
G1 X79.923 Y110.17 E27.1839
G1 X80.224 Y111.003 E27.25018
G1 X80.57 Y111.857 E27.31913
G1 X80.958 Y112.711 E27.38933
G1 X81.359 Y113.516 E27.45663
G1 X81.803 Y114.328 E27.52589
G1 X82.279 Y115.122 E27.59517
G1 X82.772 Y115.878 E27.66271
G1 X83.319 Y116.649 E27.73346
G1 X83.871 Y117.366 E27.80117
G1 X84.458 Y118.071 E27.86982
G1 X85.089 Y118.772 E27.94041
G1 X85.71 Y119.413 E28.0072
G1 X86.363 Y120.034 E28.07463
G1 X87.083 Y120.668 E28.14643
G1 X87.779 Y121.237 E28.2137
G1 X88.512 Y121.788 E28.28233
G1 X89.266 Y122.311 E28.351
G1 X90.05 Y122.812 E28.42062
G1 X90.857 Y123.285 E28.49063
G1 X91.64 Y123.705 E28.55712
G1 X92.488 Y124.116 E28.62764
G1 X93.313 Y124.479 E28.69509
G1 X94.198 Y124.826 E28.76623
G1 X95.052 Y125.126 E28.83397
G1 X95.9 Y125.386 E28.90034
G1 X96.816 Y125.63 E28.97128
G1 X97.735 Y125.836 E29.04176
G1 X98.602 Y125.996 E29.10774
G1 X99.532 Y126.131 E29.17807
G1 X100.437 Y126.228 E29.24618
G1 X101.358 Y126.29 E29.31526
G1 X102.256 Y126.316 E29.38249
G1 X103.18 Y126.306 E29.45164
G1 X104.123 Y126.261 E29.52229
G1 X105.006 Y126.183 E29.58863
G1 X105.939 Y126.066 E29.659
G1 X106.833 Y125.918 E29.72681
G1 X107.758 Y125.729 E29.79746
G1 X108.636 Y125.513 E29.86513
G1 X109.505 Y125.262 E29.93282
G1 X110.398 Y124.968 E30.00318
G1 X111.247 Y124.652 E30.07097
G1 X112.116 Y124.29 E30.14142
G1 X112.935 Y123.909 E30.20902
G1 X113.766 Y123.486 E30.2788
G1 X114.547 Y123.047 E30.34584
G1 X115.341 Y122.561 E30.41551
G1 X116.102 Y122.054 E30.48394
G1 X116.861 Y121.503 E30.55413
G1 X117.57 Y120.947 E30.62156
G1 X118.27 Y120.352 E30.69031
G1 X118.947 Y119.733 E30.75896
G1 X119.606 Y119.079 E30.82844
G1 X120.224 Y118.419 E30.8961
G1 X120.836 Y117.709 E30.96625
G1 X121.41 Y116.992 E31.03498
G1 X121.955 Y116.252 E31.10376
G1 X122.468 Y115.499 E31.17194
G1 X122.964 Y114.707 E31.24188
G1 X123.408 Y113.932 E31.30872
G1 X123.839 Y113.106 E31.37844
G1 X124.238 Y112.265 E31.4481
G1 X124.597 Y111.427 E31.51633
G1 X124.919 Y110.587 E31.58365
G1 X125.227 Y109.678 E31.65547
G1 X125.48 Y108.826 E31.72198
G1 X125.709 Y107.926 E31.79148
G1 X125.903 Y107.029 E31.86016
G1 X126.064 Y106.113 E31.92976
G1 X126.186 Y105.208 E31.9981
G1 X126.273 Y104.307 E32.06584
G1 X126.325 Y103.388 E32.13472
G1 X126.344 Y102.46 E32.20418
G1 X126.325 Y101.533 E32.27357
G1 X126.273 Y100.618 E32.34216
G1 X126.185 Y99.716 E32.40998
G1 X126.061 Y98.802 E32.479
G1 X125.897 Y97.871 E32.54975
G1 X125.707 Y96.989 E32.61727
G1 X125.486 Y96.126 E32.68393
G1 X125.214 Y95.214 E32.75516
G1 X124.929 Y94.373 E32.82161
G1 X124.59 Y93.489 E32.89246
G1 X124.23 Y92.649 E32.96085
G1 X123.825 Y91.8 E33.03124
G1 X123.414 Y91.014 E33.09762
G1 X122.954 Y90.213 E33.16675
G1 X122.457 Y89.417 E33.23697
G1 X121.933 Y88.649 E33.30655
G1 X121.413 Y87.945 E33.37205
G1 X120.823 Y87.206 E33.44281
G1 X120.221 Y86.511 E33.51162
G1 X119.597 Y85.844 E33.57998
G1 X118.939 Y85.193 E33.64924
G1 X118.265 Y84.576 E33.71763
G1 X117.57 Y83.987 E33.7858
G1 X116.845 Y83.418 E33.85477
G1 X116.083 Y82.867 E33.92514
G1 X115.338 Y82.371 E33.99212
G1 X114.539 Y81.882 E34.06222
G1 X113.748 Y81.439 E34.13007
G1 X112.927 Y81.021 E34.19901
G1 X112.088 Y80.633 E34.26819
G1 X111.233 Y80.276 E34.33753
G1 X110.395 Y79.963 E34.40447
G1 X109.512 Y79.673 E34.47402
G1 X108.608 Y79.414 E34.5444
G1 X107.748 Y79.204 E34.61065
G1 X106.804 Y79.011 E34.68275
G1 X105.928 Y78.866 E34.7492
G1 X105.014 Y78.751 E34.81814
G1 X104.094 Y78.672 E34.88724
G1 X103.167 Y78.627 E34.95669
G1 X102.245 Y78.618 E35.0257
G1 X101.345 Y78.644 E35.09308
G1 X100.426 Y78.706 E35.16201
G1 X99.5 Y78.805 E35.2317
G1 X98.614 Y78.934 E35.2987
G1 X97.688 Y79.106 E35.36918
G1 X96.823 Y79.299 E35.43551
G1 X95.921 Y79.541 E35.5054
G1 X95.013 Y79.822 E35.57653
G1 X94.157 Y80.121 E35.64438
G1 X93.308 Y80.457 E35.71271
G1 X92.467 Y80.828 E35.7815
G1 X91.651 Y81.225 E35.84941
G1 X90.82 Y81.67 E35.91995
G1 X90.034 Y82.131 E35.98814
G1 X89.258 Y82.626 E36.05702
G1 X88.514 Y83.145 E36.12491
G1 X87.772 Y83.703 E36.19439
G1 X87.067 Y84.278 E36.26247
G1 X86.377 Y84.888 E36.33139
G1 X85.702 Y85.531 E36.40116
G1 X85.07 Y86.181 E36.469
G1 X84.452 Y86.869 E36.53821
G1 X83.868 Y87.572 E36.6066
G1 X83.29 Y88.324 E36.67758
G1 X82.785 Y89.037 E36.74297
G1 X82.273 Y89.819 E36.81292
G1 X81.801 Y90.61 E36.88185
G1 X81.357 Y91.418 E36.95084
G1 X80.95 Y92.238 E37.01935
G1 X80.562 Y93.101 E37.09016
G1 X80.224 Y93.933 E37.15737
G1 X79.915 Y94.784 E37.22512
G1 X79.64 Y95.651 E37.29319
G1 X79.382 Y96.583 E37.36556
